Lukebird17/AI3618-SONIC/reference/reference/example/walking_quip_360_R_002__A428_M/joint_pos.csv
joint_0,joint_1,joint_2,joint_3,joint_4,joint_5,joint_6,joint_7,joint_8,joint_9,joint_10,joint_11,joint_12,joint_13,joint_14,joint_15,joint_16,joint_17,joint_18,joint_19,joint_20,joint_21,joint_22,joint_23,joint_24,joint_25,joint_26,joint_27,joint_28
0.011100,0.023977,0.064732,0.052474,-0.014301,-0.002832,0.287469,-0.144148,0.163664,0.224069,0.158981,-0.184808,-0.094507,-0.235364,-0.148159,0.155048,-0.261339,-0.043134,-0.025892,-0.523530,0.720185,1.176037,0.964670,0.037458,-0.100610,0.012112,0.590135,-0.057671,0.053013
0.009831,0.023977,0.064732,0.052474,-0.014301,-0.002832,0.287469,-0.144148,0.163664,0.225650,0.158981,-0.189218,-0.099403,-0.235364,-0.148159,0.152031,-0.256922,-0.044961,-0.025892,-0.525091,0.720185,1.182527,0.970633,0.037458,-0.100610,0.010187,0.613309,-0.053364,0.058637
0.008985,0.022750,0.064170,0.052699,-0.014332,-0.002946,0.287148,-0.143858,0.164190,0.226048,0.159253,-0.192599,-0.103180,-0.234870,-0.146575,0.150020,-0.253542,-0.045237,-0.025813,-0.526772,0.720355,1.187573,0.975030,0.038150,-0.101206,0.008432,0.633642,-0.048946,0.063705
0.008985,0.022750,0.064170,0.052699,-0.014332,-0.002946,0.287148,-0.143858,0.164190,0.226048,0.159253,-0.192599,-0.104717,-0.234870,-0.143489,0.150020,-0.252236,-0.045237,-0.025813,-0.526772,0.720355,1.187573,0.976298,0.038150,-0.101206,0.007019,0.648291,-0.044303,0.067659
0.008235,0.022876,0.063998,0.053131,-0.013409,-0.002564,0.287423,-0.143208,0.164003,0.224993,0.157519,-0.192715,-0.105816,-0.236171,-0.143293,0.150830,-0.251242,-0.044145,-0.026296,-0.527412,0.720550,1.188293,0.976720,0.038314,-0.101447,0.005783,0.659661,-0.040786,0.070888
0.008235,0.022876,0.063998,0.053131,-0.013409,-0.002564,0.287423,-0.143208,0.164003,0.224993,0.154568,-0.192715,-0.105816,-0.236171,-0.144542,0.150830,-0.251242,-0.044145,-0.026296,-0.527412,0.720550,1.188293,0.976720,0.038314,-0.101447,0.005783,0.669391,-0.037831,0.073753
0.007896,0.024238,0.064887,0.053010,-0.012951,-0.002379,0.287483,-0.142478,0.163802,0.224966,0.152402,-0.192390,-0.106402,-0.238212,-0.147406,0.152030,-0.250203,-0.044531,-0.026224,-0.526849,0.721097,1.187903,0.976688,0.038618,-0.101882,0.004389,0.675935,-0.036076,0.075483
0.006850,0.024390,0.066307,0.053497,-0.012640,-0.002342,0.288500,-0.142236,0.163370,0.225338,0.151483,-0.191778,-0.107027,-0.239051,-0.148648,0.152857,-0.249365,-0.044481,-0.025669,-0.525899,0.721167,1.188230,0.976488,0.038898,-0.101465,0.003181,0.681709,-0.034136,0.077069
0.006850,0.022877,0.066307,0.053497,-0.012640,-0.002342,0.288500,-0.142236,0.163370,0.225338,0.151483,-0.191778,-0.107027,-0.239051,-0.146646,0.152857,-0.249365,-0.044481,-0.025669,-0.525899,0.721167,1.188230,0.976488,0.038898,-0.101465,0.003181,0.685942,-0.034136,0.078369
0.006278,0.021512,0.067036,0.054151,-0.012165,-0.001930,0.289588,-0.141902,0.162810,0.224561,0.152885,-0.191389,-0.107712,-0.238229,-0.143278,0.153491,-0.248576,-0.043894,-0.025598,-0.524571,0.720273,1.188088,0.976300,0.039015,-0.098932,0.002153,0.688997,-0.033366,0.079834
0.006278,0.020221,0.067036,0.054151,-0.012165,-0.001930,0.289588,-0.141902,0.162810,0.224561,0.154203,-0.191389,-0.107712,-0.238229,-0.139228,0.153491,-0.248576,-0.043894,-0.025598,-0.524571,0.720273,1.188088,0.976300,0.039015,-0.096526,0.002153,0.691461,-0.033366,0.081380
0.005952,0.020221,0.067354,0.054498,-0.012422,-0.001957,0.290331,-0.141940,0.163139,0.224376,0.154203,-0.191230,-0.108750,-0.237580,-0.141762,0.153741,-0.247540,-0.044784,-0.026134,-0.523929,0.720023,1.188232,0.975574,0.038742,-0.095099,0.001373,0.693621,-0.033227,0.081943
0.005388,0.019523,0.067145,0.053825,-0.012924,-0.002795,0.290683,-0.141415,0.163896,0.225001,0.155132,-0.191686,-0.109125,-0.238243,-0.144137,0.153659,-0.246933,-0.044854,-0.025965,-0.524428,0.719559,1.188734,0.975375,0.038612,-0.094495,0.001043,0.695687,-0.032867,0.082468
0.005388,0.019523,0.067145,0.053825,-0.012924,-0.002795,0.290683,-0.141415,0.163896,0.225001,0.155132,-0.191686,-0.109125,-0.238243,-0.146192,0.153659,-0.246933,-0.044854,-0.024392,-0.524428,0.719559,1.188734,0.975375,0.038612,-0.094495,0.001043,0.697566,-0.032867,0.082468
0.006088,0.019590,0.066372,0.053603,-0.012487,-0.003123,0.290051,-0.140690,0.164751,0.225372,0.156670,-0.191769,-0.108902,-0.239103,-0.147252,0.152843,-0.245916,-0.044912,-0.023594,-0.525031,0.719736,1.188475,0.976893,0.038935,-0.095428,0.000760,0.698697,-0.032661,0.082217
0.006088,0.019590,0.066372,0.053603,-0.012487,-0.003123,0.290051,-0.140690,0.164751,0.225372,0.157939,-0.191769,-0.108902,-0.239103,-0.147252,0.152843,-0.245916,-0.044912,-0.023594,-0.525031,0.719736,1.188475,0.976893,0.038935,-0.095428,0.000760,0.698697,-0.032661,0.082217
0.006356,0.019151,0.065336,0.053760,-0.012868,-0.003582,0.289642,-0.141184,0.165756,0.225567,0.158817,-0.192223,-0.108863,-0.238426,-0.147409,0.151763,-0.245349,-0.044368,-0.025254,-0.526285,0.720113,1.188546,0.977795,0.039170,-0.096871,0.001318,0.699723,-0.032385,0.082004
0.006158,0.019329,0.064811,0.054380,-0.013003,-0.003848,0.289914,-0.142118,0.166384,0.226640,0.160309,-0.193189,-0.108094,-0.237567,-0.147214,0.150382,-0.245319,-0.043314,-0.026543,-0.526983,0.720800,1.188956,0.977465,0.039500,-0.097728,0.001520,0.700600,-0.032000,0.082131
0.006158,0.019329,0.064811,0.054380,-0.013003,-0.003848,0.289914,-0.142118,0.166384,0.226640,0.160309,-0.193189,-0.108094,-0.237567,-0.147214,0.150382,-0.245319,-0.043314,-0.026543,-0.526983,0.720800,1.188956,0.977465,0.039500,-0.097728,0.001520,0.700600,-0.032000,0.082131
0.005625,0.018675,0.065207,0.054336,-0.013145,-0.004327,0.290212,-0.142532,0.166658,0.227168,0.160922,-0.193309,-0.106395,-0.237275,-0.147629,0.149015,-0.246236,-0.043582,-0.026471,-0.525317,0.720382,1.188882,0.976708,0.040055,-0.097557,0.001360,0.700953,-0.032572,0.082696
0.005625,0.018675,0.065207,0.054336,-0.013145,-0.004327,0.290212,-0.142532,0.166658,0.227168,0.160922,-0.193309,-0.105008,-0.237275,-0.147629,0.149015,-0.246236,-0.043582,-0.026471,-0.525317,0.720382,1.188882,0.976708,0.040055,-0.097557,0.001360,0.700953,-0.032572,0.082696
0.005406,0.019512,0.065062,0.054021,-0.013557,-0.004644,0.289227,-0.142305,0.166261,0.227348,0.159037,-0.192874,-0.104385,-0.236537,-0.147634,0.147825,-0.247237,-0.044061,-0.026445,-0.524474,0.720076,1.188678,0.976723,0.040216,-0.099948,0.001072,0.701574,-0.033365,0.082707
0.005534,0.020203,0.064790,0.054155,-0.012887,-0.004918,0.288735,-0.142101,0.166115,0.227347,0.157447,-0.192661,-0.103439,-0.236471,-0.147246,0.147339,-0.247929,-0.044155,-0.026319,-0.524207,0.720066,1.188516,0.977098,0.040246,-0.102320,0.000557,0.701987,-0.033876,0.082855
0.005534,0.020203,0.064790,0.054155,-0.012887,-0.004918,0.288735,-0.142101,0.166115,0.227347,0.157447,-0.192661,-0.103439,-0.236471,-0.147246,0.147339,-0.247929,-0.044155,-0.026319,-0.524207,0.720066,1.188516,0.977098,0.040246,-0.102320,0.000557,0.701987,-0.033876,0.082855
0.004928,0.020684,0.064566,0.054442,-0.012537,-0.005196,0.288908,-0.141766,0.165982,0.227616,0.156784,-0.192398,-0.102921,-0.237090,-0.147605,0.146920,-0.248743,-0.043759,-0.026024,-0.524315,0.719944,1.188636,0.977293,0.039998,-0.102449,0.000277,0.702145,-0.034212,0.083665
0.004928,0.020684,0.064566,0.054442,-0.012537,-0.005196,0.288908,-0.141766,0.165982,0.227616,0.156784,-0.192398,-0.102921,-0.237090,-0.147605,0.146920,-0.248743,-0.043759,-0.026024,-0.524315,0.719944,1.188636,0.977293,0.039998,-0.102449,0.000277,0.702145,-0.034212,0.083665
0.004482,0.020065,0.064760,0.054919,-0.012516,-0.005242,0.289093,-0.141970,0.165917,0.228192,0.156721,-0.192022,-0.102725,-0.237238,-0.147370,0.146784,-0.249700,-0.043916,-0.026891,-0.524342,0.720224,1.188637,0.977274,0.040464,-0.104508,0.000271,0.702774,-0.034253,0.083646
0.004694,0.020225,0.064291,0.055771,-0.011555,-0.005038,0.289109,-0.142078,0.166176,0.228434,0.156962,-0.191494,-0.102691,-0.237161,-0.146785,0.147639,-0.250118,-0.044768,-0.027809,-0.524711,0.721152,1.188955,0.977944,0.040693,-0.108475,0.000449,0.703638,-0.033704,0.082643
0.004694,0.020225,0.064291,0.055771,-0.011555,-0.005038,0.289109,-0.142078,0.166176,0.228434,0.156962,-0.191494,-0.102691,-0.237161,-0.146785,0.147639,-0.250118,-0.044768,-0.027809,-0.524711,0.721152,1.188955,0.977944,0.040693,-0.115494,0.000449,0.703638,-0.033704,0.080995
0.004545,0.020067,0.064951,0.056324,-0.011096,-0.005253,0.289360,-0.141430,0.166157,0.228598,0.156813,-0.191437,-0.102361,-0.237482,-0.147050,0.148751,-0.250374,-0.044951,-0.027587,-0.525269,0.720599,1.189557,0.977648,0.040652,-0.122014,0.000452,0.704029,-0.033275,0.080291
0.004545,0.020067,0.064951,0.056324,-0.011096,-0.005253,0.289360,-0.141430,0.166157,0.228598,0.156813,-0.191437,-0.102361,-0.237482,-0.147050,0.148751,-0.250374,-0.044951,-0.027587,-0.525269,0.720599,1.189557,0.977648,0.040652,-0.128284,0.000452,0.704029,-0.033275,0.080291
0.004638,0.019983,0.065480,0.056489,-0.010647,-0.005490,0.289548,-0.141094,0.165634,0.228274,0.156843,-0.191256,-0.101990,-0.237953,-0.147535,0.149971,-0.250465,-0.044788,-0.027880,-0.524792,0.719695,1.190253,0.977044,0.041466,-0.130656,0.000130,0.703516,-0.033314,0.081529
0.004845,0.020149,0.064771,0.056891,-0.010061,-0.005164,0.289755,-0.141050,0.165719,0.227893,0.156474,-0.191949,-0.102883,-0.238440,-0.148047,0.151136,-0.250103,-0.045406,-0.027812,-0.524937,0.719562,1.190085,0.977692,0.041868,-0.132736,0.000395,0.702527,-0.033188,0.082903
0.004845,0.020149,0.064771,0.056891,-0.010061,-0.005164,0.289755,-0.141050,0.165719,0.227893,0.156474,-0.191949,-0.102883,-0.238440,-0.148047,0.151136,-0.250103,-0.045406,-0.026128,-0.524937,0.719562,1.190085,0.977692,0.041868,-0.134232,0.000395,0.702527,-0.033188,0.084238
0.005341,0.019661,0.065517,0.056980,-0.009805,-0.004947,0.290706,-0.140422,0.165990,0.228280,0.156916,-0.192330,-0.103754,-0.239068,-0.149536,0.152171,-0.249517,-0.045880,-0.026108,-0.524592,0.718743,1.188729,0.978299,0.042061,-0.135673,0.001042,0.701573,-0.033203,0.085580
0.005341,0.019661,0.065517,0.056980,-0.009805,-0.004947,0.290706,-0.140422,0.165990,0.228280,0.156916,-0.192330,-0.103754,-0.239068,-0.149536,0.152171,-0.249517,-0.045880,-0.026108,-0.524592,0.718743,1.188729,0.978299,0.042061,-0.135673,0.001042,0.701573,-0.033203,0.086924
0.005171,0.018304,0.067251,0.057328,-0.009899,-0.004553,0.291590,-0.139509,0.165553,0.227461,0.158562,-0.192527,-0.104081,-0.239220,-0.149482,0.152586,-0.249303,-0.045684,-0.027317,-0.524050,0.720682,1.187928,0.978456,0.042464,-0.140788,0.001362,0.701175,-0.032876,0.086924
0.005501,0.017871,0.067858,0.057608,-0.009494,-0.003865,0.291465,-0.138395,0.165668,0.227470,0.158811,-0.193236,-0.104449,-0.238679,-0.149658,0.152786,-0.248675,-0.045815,-0.027032,-0.523741,0.721464,1.187917,0.978575,0.041784,-0.145370,0.001477,0.701135,-0.031921,0.086642
0.005501,0.017871,0.067858,0.057608,-0.009494,-0.003865,0.291465,-0.138395,0.165668,0.227470,0.158811,-0.193236,-0.104449,-0.238679,-0.149658,0.152786,-0.248675,-0.045815,-0.027032,-0.523741,0.721464,1.187917,0.978575,0.041784,-0.150775,0.001477,0.701135,-0.031921,0.086642
0.004873,0.018220,0.067370,0.057275,-0.009308,-0.004022,0.290739,-0.138957,0.164895,0.227938,0.158827,-0.193362,-0.105026,-0.238578,-0.150522,0.152930,-0.247454,-0.046407,-0.026778,-0.523311,0.720288,1.187576,0.979057,0.041278,-0.153621,0.001252,0.700322,-0.031146,0.088035
0.004873,0.018220,0.067370,0.057275,-0.009308,-0.004022,0.290739,-0.140915,0.164895,0.227938,0.158827,-0.193362,-0.105026,-0.238578,-0.150522,0.152930,-0.247454,-0.046407,-0.026778,-0.523311,0.720288,1.187576,0.979057,0.041278,-0.153621,0.001252,0.700322,-0.031146,0.090086
0.005141,0.018176,0.067489,0.057522,-0.009775,-0.004419,0.289766,-0.141585,0.164643,0.227349,0.159671,-0.193738,-0.104617,-0.239138,-0.150642,0.152713,-0.245998,-0.046794,-0.027972,-0.523483,0.717154,1.187834,0.978992,0.041175,-0.151776,0.001157,0.699784,-0.030602,0.092861
0.005596,0.019028,0.067485,0.057744,-0.009215,-0.004201,0.289123,-0.141726,0.164893,0.226913,0.159508,-0.194227,-0.104812,-0.239470,-0.150661,0.152006,-0.245263,-0.047182,-0.028468,-0.522549,0.715324,1.188296,0.978364,0.040376,-0.147836,0.001161,0.698938,-0.030232,0.095660
0.005596,0.019028,0.066226,0.057744,-0.009215,-0.004201,0.289123,-0.141726,0.164893,0.226913,0.158169,-0.194227,-0.104812,-0.239470,-0.150661,0.152006,-0.245263,-0.047182,-0.028468,-0.522549,0.715324,1.188296,0.978364,0.040376,-0.141799,0.001161,0.698938,-0.030232,0.098506
0.005598,0.020152,0.065807,0.057892,-0.008798,-0.003338,0.288830,-0.141598,0.164649,0.226527,0.156877,-0.194370,-0.105241,-0.239481,-0.150524,0.151531,-0.244551,-0.047464,-0.029562,-0.519800,0.715795,1.187602,0.978576,0.040055,-0.136728,0.000980,0.698996,-0.031055,0.100161
0.005162,0.020694,0.066278,0.057818,-0.008371,-0.003543,0.287651,-0.141998,0.164398,0.226741,0.154638,-0.194747,-0.105522,-0.239659,-0.149857,0.150908,-0.243982,-0.047682,-0.030692,-0.516084,0.714598,1.187581,0.979378,0.040569,-0.132139,0.001189,0.699629,-0.032453,0.100867
0.005162,0.020694,0.066278,0.057818,-0.008371,-0.003543,0.287651,-0.141998,0.164398,0.226741,0.154638,-0.194747,-0.105522,-0.237642,-0.149857,0.150908,-0.243982,-0.050808,-0.030692,-0.516084,0.714598,1.187581,0.979378,0.040569,-0.129223,0.001189,0.699629,-0.034905,0.100867
0.004603,0.021172,0.065727,0.058172,-0.007604,-0.003568,0.286992,-0.141666,0.164306,0.226950,0.153420,-0.195680,-0.105785,-0.236964,-0.149525,0.150101,-0.243342,-0.052071,-0.030130,-0.516152,0.713890,1.188500,0.979824,0.041077,-0.126844,0.001751,0.699915,-0.037039,0.099860
0.004603,0.021172,0.065727,0.058172,-0.007604,-0.003568,0.286992,-0.141666,0.164306,0.225644,0.153420,-0.195680,-0.105785,-0.238962,-0.149525,0.150101,-0.243342,-0.049604,-0.030130,-0.517527,0.713890,1.188500,0.979824,0.041077,-0.125536,0.001751,0.699915,-0.037039,0.099860
0.004432,0.020683,0.064989,0.058962,-0.006864,-0.003109,0.287199,-0.142715,0.165191,0.224519,0.153741,-0.196408,-0.106309,-0.239324,-0.149779,0.149450,-0.242882,-0.048420,-0.030173,-0.517857,0.712858,1.188524,0.979733,0.041156,-0.124415,0.002217,0.699802,-0.037539,0.098575
0.004432,0.020683,0.064989,0.058962,-0.006864,-0.003109,0.287199,-0.144041,0.165191,0.224519,0.153741,-0.196408,-0.106309,-0.239324,-0.149779,0.149450,-0.242882,-0.048420,-0.030173,-0.517857,0.712858,1.188524,0.979733,0.041156,-0.124415,0.002217,0.699802,-0.037539,0.098575
0.004209,0.020585,0.063044,0.059367,-0.006566,-0.002373,0.286363,-0.144237,0.166345,0.223230,0.151941,-0.197198,-0.106806,-0.238424,-0.147115,0.148953,-0.243157,-0.049111,-0.030824,-0.519750,0.712341,1.188403,0.979220,0.041884,-0.124368,0.002402,0.699755,-0.037327,0.096688
0.003141,0.021516,0.061083,0.060210,-0.005250,-0.001347,0.285002,-0.144842,0.166954,0.223147,0.148438,-0.198716,-0.106665,-0.238297,-0.144640,0.148419,-0.243737,-0.050869,-0.032085,-0.520423,0.712138,1.188660,0.978035,0.042219,-0.125492,0.002208,0.699834,-0.036115,0.095248
0.001348,0.022891,0.061083,0.061507,-0.003653,0.000091,0.285002,-0.146065,0.166954,0.223147,0.142669,-0.198716,-0.106665,-0.238297,-0.144640,0.148419,-0.243737,-0.050869,-0.033775,-0.520423,0.710428,1.188660,0.978035,0.042219,-0.126950,0.002208,0.699834,-0.034267,0.095248
-0.000908,0.022157,0.061186,0.063870,-0.001002,0.001971,0.285079,-0.145000,0.166366,0.224506,0.139836,-0.200349,-0.105443,-0.240109,-0.143460,0.148439,-0.245006,-0.052207,-0.036195,-0.518699,0.709857,1.189373,0.975428,0.042446,-0.126530,0.002027,0.701104,-0.032992,0.094909
-0.003395,0.020368,0.062050,0.066765,0.002177,0.005058,0.285696,-0.142793,0.166255,0.225350,0.138469,-0.201717,-0.104720,-0.242120,-0.142725,0.148727,-0.246331,-0.052841,-0.038980,-0.517125,0.710347,1.188208,0.973013,0.043110,-0.125623,0.001942,0.702711,-0.031577,0.095195
-0.008024,0.012490,0.064874,0.070393,0.005188,0.005058,0.290007,-0.137488,0.166255,0.228748,0.144524,-0.201717,-0.106445,-0.243538,-0.146632,0.150270,-0.246331,-0.055794,-0.041496,-0.513765,0.710347,1.188208,0.973013,0.043110,-0.122999,0.001942,0.702711,-0.031577,0.095195
-0.012453,0.004009,0.067334,0.073945,0.007860,0.006042,0.294307,-0.132619,0.167206,0.232277,0.152467,-0.202980,-0.108942,-0.245381,-0.152722,0.152206,-0.246339,-0.058595,-0.044301,-0.511016,0.711833,1.187610,0.972835,0.044302,-0.120588,0.002382,0.703950,-0.030417,0.094876
-0.016483,-0.005677,0.069066,0.077347,0.009856,0.006042,0.298585,-0.128621,0.169536,0.236067,0.164183,-0.202980,-0.112983,-0.248077,-0.163180,0.154928,-0.245115,-0.061096,-0.047685,-0.509489,0.711833,1.187610,0.974664,0.044302,-0.118606,0.002382,0.703950,-0.029207,0.094876
-0.019997,-0.016193,0.069857,0.082151,0.013234,0.007228,0.303452,-0.123822,0.171770,0.239715,0.177652,-0.202625,-0.117992,-0.250411,-0.167964,0.158874,-0.243215,-0.063697,-0.051404,-0.508980,0.714497,1.187134,0.976657,0.045766,-0.118471,0.003211,0.704314,-0.027805,0.093491
-0.023252,-0.027125,0.069531,0.087656,0.017304,0.009315,0.308613,-0.118624,0.173957,0.243293,0.191999,-0.201141,-0.123486,-0.253484,-0.169911,0.163432,-0.240978,-0.066348,-0.055291,-0.510128,0.718167,1.186807,0.978732,0.046597,-0.119893,0.004185,0.703769,-0.025400,0.091464
-0.025987,-0.034215,0.069531,0.092524,0.020236,0.009315,0.310730,-0.117196,0.178625,0.250598,0.203905,-0.198944,-0.128841,-0.253484,-0.172535,0.169734,-0.237945,-0.070921,-0.058079,-0.510128,0.718167,1.184953,0.980037,0.046597,-0.119893,0.004185,0.703769,-0.025400,0.091464
-0.029717,-0.040872,0.069604,0.097807,0.023639,0.010050,0.312606,-0.114968,0.183018,0.259617,0.214563,-0.196187,-0.133697,-0.255137,-0.176030,0.176330,-0.234744,-0.075646,-0.060918,-0.509212,0.718412,1.183037,0.981303,0.047077,-0.120791,0.004643,0.702761,-0.023943,0.090281
-0.035438,-0.046667,0.069604,0.103922,0.027983,0.010050,0.313998,-0.111140,0.186858,0.272062,0.222729,-0.192308,-0.137551,-0.257332,-0.181266,0.183517,-0.231204,-0.080672,-0.063859,-0.504668,0.716541,1.180997,0.981303,0.047077,-0.120791,0.004643,0.702761,-0.023943,0.090281
-0.044074,-0.051705,0.071249,0.112725,0.034023,0.010764,0.314462,-0.109076,0.189606,0.288697,0.228832,-0.186666,-0.139938,-0.262701,-0.185044,0.191265,-0.227494,-0.084894,-0.067716,-0.493201,0.712830,1.177598,0.980798,0.046738,-0.120342,0.004767,0.701823,-0.022807,0.089723
-0.054167,-0.056366,0.072799,0.122872,0.040913,0.012373,0.314462,-0.109076,0.191808,0.307427,0.233904,-0.180141,-0.141592,-0.269658,-0.188092,0.199294,-0.223698,-0.088714,-0.072031,-0.478272,0.708199,1.173518,0.979448,0.046738,-0.120342,0.004767,0.701823,-0.022807,0.089723
-0.070749,-0.056366,0.073636,0.135040,0.048287,0.014158,0.311112,-0.108847,0.194348,0.339202,0.231413,-0.173099,-0.139807,-0.277815,-0.188868,0.208572,-0.222141,-0.095064,-0.078326,-0.456872,0.700943,1.167998,0.976470,0.042543,-0.119873,0.003496,0.701478,-0.022224,0.089186
-0.089635,-0.054059,0.074871,0.147441,0.055802,0.016596,0.305258,-0.110728,0.197498,0.376434,0.226784,-0.166724,-0.137002,-0.286444,-0.189989,0.217831,-0.221640,-0.101090,-0.083708,-0.436538,0.693312,1.163167,0.973115,0.038221,-0.119071,0.002144,0.704050,-0.023067,0.089504
-0.113131,-0.048038,0.074871,0.160307,0.063599,0.020343,0.294107,-0.114691,0.201871,0.424585,0.217876,-0.161684,-0.132160,-0.296021,-0.189989,0.227053,-0.223254,-0.106468,-0.087265,-0.418340,0.684926,1.159718,0.969007,0.032264,-0.119071,0.002144,0.711219,-0.024305,0.089504
-0.141828,-0.040072,0.075269,0.175284,0.072658,0.026767,0.279685,-0.121194,0.208202,0.484077,0.207676,-0.158703,-0.124586,-0.306366,-0.187659,0.236065,-0.228592,-0.112029,-0.092384,-0.405387,0.676818,1.157436,0.962782,0.024773,-0.129306,0.000525,0.578565,-0.026582,0.069917
-0.173127,-0.031133,0.075269,0.191315,0.082347,0.034529,0.263626,-0.128967,0.215514,0.549239,0.196830,-0.156753,-0.115645,-0.317094,-0.183645,0.244974,-0.235792,-0.117682,-0.098283,-0.395057,0.668848,1.155737,0.955499,0.016513,-0.145682,-0.001106,0.375999,-0.029378,0.039477
-0.195267,-0.012749,0.075074,0.204185,0.090100,0.042172,0.250694,-0.136919,0.228325,0.608378,0.181957,-0.155043,-0.106423,-0.318309,-0.182715,0.252617,-0.242795,-0.114992,-0.102493,-0.390702,0.657367,1.154809,0.950897,0.015067,-0.140934,-0.001658,0.258798,-0.029137,0.028394
-0.219534,0.005876,0.075261,0.217179,0.097560,0.049393,0.239723,-0.144406,0.240994,0.670862,0.166117,-0.153044,-0.097444,-0.315638,-0.181562,0.259928,-0.250911,-0.105645,-0.106235,-0.387173,0.647001,1.153365,0.946180,0.013517,-0.128229,-0.002611,0.173303,-0.028436,0.023132
-0.248052,0.024984,0.076829,0.230425,0.104433,0.055769,0.232676,-0.150963,0.253379,0.740035,0.148345,-0.153044,-0.088955,-0.305199,-0.181562,0.266575,-0.261255,-0.082987,-0.109040,-0.385294,0.638866,1.153365,0.941231,0.011758,-0.099611,-0.002611,0.151221,-0.027057,0.029512
-0.279448,0.039981,0.080687,0.242125,0.107106,0.057200,0.234005,-0.155780,0.262999,0.808955,0.134961,-0.149973,-0.083090,-0.281975,-0.181134,0.272231,-0.271760,-0.052624,-0.111530,-0.383150,0.634853,1.153387,0.942256,0.010398,-0.071976,-0.003837,0.136774,-0.026597,0.032804
-0.312282,0.052922,0.085690,0.253053,0.107106,0.057200,0.239523,-0.159728,0.271236,0.877748,0.123772,-0.146654,-0.078537,-0.252360,-0.181134,0.277391,-0.282346,-0.018409,-0.113863,-0.380873,0.632901,1.153387,0.946269,0.010398,-0.044831,-0.005072,0.126146,-0.026597,0.034553
-0.338062,0.056809,0.094846,0.256666,0.103286,0.050674,0.254129,-0.160488,0.274768,0.918645,0.122507,-0.139102,-0.078124,-0.241464,-0.183936,0.280585,-0.289496,0.008691,-0.115980,-0.379339,0.631419,1.153925,0.960578,0.009624,-0.032016,-0.006429,0.123433,-0.025832,0.033198
-0.363471,0.057960,0.102791,0.254251,0.097568,0.044458,0.265923,-0.161763,0.276597,0.950127,0.124215,-0.129726,-0.077712,-0.234167,-0.189215,0.283146,-0.295598,0.026757,-0.116487,-0.377065,0.629254,1.152535,0.975833,0.009183,-0.023066,-0.007333,0.122031,-0.024696,0.031648
-0.388138,0.053642,0.108318,0.239782,0.088818,0.037474,0.272095,-0.163310,0.276597,0.962783,0.131866,-0.116704,-0.077712,-0.234167,-0.199040,0.284441,-0.299601,0.026757,-0.116487,-0.373309,0.625720,1.149768,0.992981,0.009183,-0.023066,-0.007333,0.123251,-0.024696,0.029704
-0.413093,0.048509,0.110781,0.217721,0.080289,0.030897,0.270628,-0.164941,0.276072,0.958403,0.140524,-0.103039,-0.077697,-0.227672,-0.207849,0.285526,-0.302958,0.016513,-0.113514,-0.371226,0.620201,1.146537,1.006203,0.007016,-0.024408,-0.007012,0.126402,-0.025044,0.027457
-0.438191,0.042970,0.110781,0.191863,0.071870,0.024524,0.265342,-0.166613,0.276072,0.945505,0.149686,-0.089051,-0.077697,-0.217977,-0.216150,0.285526,-0.305990,0.000409,-0.110412,-0.371226,0.613688,1.143076,1.017461,0.005154,-0.027031,-0.007012,0.130520,-0.026582,0.025059
-0.457089,0.045142,0.113361,0.162505,0.064819,0.019465,0.256159,-0.168779,0.280148,0.909844,0.150605,-0.079241,-0.071668,-0.206355,-0.225732,0.284222,-0.311354,-0.020289,-0.106633,-0.370395,0.608498,1.144707,1.013830,0.005782,-0.023470,-0.005680,0.134649,-0.029397,0.023347
-0.473929,0.047587,0.116352,0.135548,0.058954,0.015156,0.248416,-0.170946,0.284037,0.867187,0.151008,-0.070438,-0.065828,-0.196518,-0.233196,0.281349,-0.317770,-0.040327,-0.103211,-0.371714,0.606219,1.147567,1.007285,0.007922,-0.018421,-0.004541,0.138869,-0.031736,0.021377
-0.486654,0.050580,0.121406,0.113396,0.055458,0.012345,0.243553,-0.170946,0.288093,0.810536,0.149462,-0.063650,-0.059112,-0.190251,-0.236426,0.276644,-0.326290,-0.059042,-0.100503,-0.373322,0.609763,1.152882,0.994911,0.012457,-0.010394,-0.004541,0.143270,-0.033122,0.018892
-0.495869,0.054220,0.127848,0.097519,0.053959,0.010696,0.243348,-0.172206,0.291345,0.745700,0.146510,-0.058094,-0.053182,-0.185647,-0.239966,0.270578,-0.334682,-0.074292,-0.099600,-0.372318,0.615338,1.159234,0.986275,0.017145,-0.005228,-0.004168,0.143669,-0.033584,0.017527
-0.503328,0.058183,0.134984,0.084779,0.053625,0.009536,0.245470,-0.171771,0.294197,0.676774,0.142855,-0.053154,-0.047645,-0.181874,-0.243661,0.263832,-0.343011,-0.087807,-0.099721,-0.370008,0.621929,1.166102,0.979506,0.021908,-0.001494,-0.003115,0.142068,-0.033277,0.017289
-0.510456,0.062039,0.142497,0.077155,0.055536,0.009536,0.249743,-0.171771,0.294197,0.606041,0.136674,-0.048973,-0.045168,-0.176009,-0.249626,0.256405,-0.347553,-0.092411,-0.098433,-0.365323,0.630939,1.171726,0.974863,0.025925,-0.000115,-0.003115,0.138058,-0.034660,0.017289
-0.516341,0.066271,0.150147,0.069090,0.057786,0.008548,0.251118,-0.170156,0.293576,0.535417,0.130938,-0.044364,-0.042753,-0.170913,-0.255870,0.249250,-0.351230,-0.094879,-0.097574,-0.360511,0.639716,1.176405,0.971095,0.029485,0.000804,-0.001406,0.134794,-0.036519,0.017904
-0.519736,0.071253,0.158072,0.060147,0.060712,0.006929,0.246693,-0.170156,0.293576,0.465009,0.126091,-0.038900,-0.042753,-0.167358,-0.262674,0.242639,-0.351230,-0.093074,-0.097574,-0.355448,0.648026,1.176405,0.969077,0.032133,0.000804,-0.001406,0.133019,-0.036519,0.017904
-0.519747,0.076830,0.167939,0.049610,0.061146,0.003736,0.239527,-0.167908,0.291390,0.399043,0.123553,-0.032957,-0.042691,-0.164487,-0.272196,0.236596,-0.350075,-0.094522,-0.094262,-0.347045,0.654631,1.176303,0.969886,0.034293,0.000355,0.000092,0.131576,-0.038588,0.018218
-0.518065,0.082703,0.178777,0.038276,0.061146,-0.000243,0.230989,-0.165503,0.289358,0.335298,0.123553,-0.026773,-0.042691,-0.161956,-0.283077,0.230836,-0.347368,-0.097595,-0.089672,-0.336973,0.660384,1.176303,0.972109,0.036210,0.000355,0.000092,0.130298,-0.040285,0.018218
-0.515007,0.091047,0.186489,0.030294,0.060349,-0.004650,0.222938,-0.162509,0.286702,0.293157,0.123496,-0.021122,-0.045856,-0.161956,-0.294553,0.227479,-0.340817,-0.104794,-0.083387,-0.326778,0.662753,1.173584,0.976735,0.036210,0.000910,0.000683,0.130774,-0.042931,0.016757
-0.511207,0.100307,0.192848,0.023551,0.059390,-0.009801,0.218464,-0.158629,0.283997,0.261265,0.125836,-0.016082,-0.048695,-0.164022,-0.306453,0.224912,-0.333128,-0.110704,-0.078427,-0.318580,0.665304,1.171996,0.981576,0.035903,0.001419,0.001063,0.130467,-0.045185,0.015133
-0.505926,0.111399,0.196503,0.019285,0.057279,-0.016440,0.221146,-0.152974,0.281193,0.249873,0.130263,-0.012266,-0.052282,-0.169956,-0.319202,0.224912,-0.323162,-0.114037,-0.076116,-0.314375,0.665304,1.170611,0.986845,0.034452,0.001419,0.001063,0.130467,-0.046654,0.013311
-0.507246,0.118358,0.200027,0.017589,0.052063,-0.025884,0.227725,-0.146159,0.275898,0.263619,0.139593,-0.010993,-0.056124,-0.163856,-0.336899,0.226435,-0.313209,-0.094185,-0.069511,-0.312974,0.667340,1.169788,0.988602,0.033607,0.001059,0.002313,0.128744,-0.047753,0.010338
-0.511867,0.123250,0.203485,0.017589,0.045296,-0.036731,0.236253,-0.138764,0.269358,0.289935,0.151377,-0.010993,-0.060093,-0.151737,-0.357069,0.229215,-0.303263,-0.062739,-0.060759,-0.312974,0.668934,1.169788,0.988602,0.033607,0.001059,0.002313,0.127335,-0.047753,0.006790
-0.521499,0.126578,0.206900,0.016764,0.031538,-0.052340,0.249499,-0.132434,0.266208,0.330482,0.169473,-0.017561,-0.064683,-0.109813,-0.378155,0.234391,-0.294723,-0.041189,-0.051177,-0.318571,0.669686,1.172785,0.985416,0.033557,0.003916,0.003206,0.123495,-0.049881,0.003600
-0.529376,0.132510,0.208763,0.016813,0.018605,-0.066166,0.261092,-0.127333,0.265725,0.376138,0.190422,-0.027038,-0.068998,-0.083871,-0.396952,0.239535,-0.285945,-0.023076,-0.042442,-0.326333,0.670404,1.177693,0.981233,0.034688,0.005483,0.003345,0.118635,-0.051692,-0.000057
-0.533744,0.143649,0.208763,0.018616,0.007322,-0.076430,0.269378,-0.127333,0.270575,0.432015,0.217074,-0.041085,-0.072762,-0.089895,-0.411170,0.244616,-0.276689,-0.011836,-0.035402,-0.338588,0.670404,1.185701,0.975912,0.034688,0.005483,0.003345,0.111736,-0.051692,-0.004648
-0.533500,0.148746,0.206606,0.019217,-0.003625,-0.083295,0.274754,-0.127532,0.275602,0.480276,0.257280,-0.060672,-0.073093,-0.109562,-0.426430,0.246615,-0.271525,0.005605,-0.030450,-0.351413,0.668519,1.197597,0.962338,0.038083,-0.000498,0.004808,0.105720,-0.051511,-0.010519
-0.530949,0.150822,0.203989,0.019217,-0.014405,-0.088461,0.278676,-0.129152,0.280719,0.524728,0.304264,-0.083029,-0.073093,-0.136050,-0.442212,0.246615,-0.268406,0.026146,-0.026542,-0.364522,0.665742,1.211437,0.944638,0.041946,-0.009553,0.004808,0.100145,-0.050041,-0.017031
-0.523782,0.130625,0.201959,0.012072,-0.028908,-0.095298,0.281310,-0.129152,0.282288,0.545878,0.384132,-0.112914,-0.066030,-0.158318,-0.462522,0.242574,-0.274477,0.045007,-0.013564,-0.376185,0.664986,1.229315,0.910882,0.048617,-0.023435,0.005404,0.097317,-0.045585,-0.021985
-0.513376,0.109449,0.198217,0.002660,-0.044355,-0.102079,0.282563,-0.131789,0.284782,0.560856,0.467975,-0.143159,-0.058921,-0.179119,-0.477960,0.237403,-0.282188,0.060765,-0.003450,-0.385355,0.663351,1.244342,0.875438,0.055808,-0.037007,0.005084,0.094231,-0.040285,-0.026100
-0.496492,0.086315,0.191051,-0.011395,-0.061688,-0.108744,0.281055,-0.138907,0.289126,0.563491,0.559768,-0.174126,-0.049871,-0.196988,-0.483655,0.230583,-0.293182,0.070316,0.000939,-0.389542,0.660717,1.253669,0.836622,0.064039,-0.049960,0.005084,0.090633,-0.033296,-0.028537
-0.466102,0.054841,0.182168,-0.024493,-0.077573,-0.112022,0.277736,-0.144164,0.294435,0.549790,0.670828,-0.199649,-0.040756,-0.208183,-0.447094,0.225241,-0.303041,0.071659,-0.005374,-0.390938,0.653419,1.248910,0.801145,0.069132,-0.057601,0.006253,0.084688,-0.027860,-0.028734
-0.428960,0.019196,0.172427,-0.037112,-0.092733,-0.113607,0.273510,-0.148491,0.300227,0.527919,0.791522,-0.222449,-0.031609,-0.216041,-0.389406,0.220639,-0.312334,0.068899,-0.017038,-0.390938,0.643788,1.237107,0.767337,0.072655,-0.062586,0.008107,0.077570,-0.023200,-0.028734
-0.376238,-0.043122,0.160132,-0.048102,-0.113356,-0.110130,0.270352,-0.149035,0.307093,0.488465,0.941880,-0.239940,-0.024714,-0.219262,-0.235450,0.220315,-0.322636,0.062343,-0.034610,-0.397077,0.634374,1.208484,0.741485,0.062481,-0.050979,0.007224,0.069824,-0.025985,-0.025416
-0.326000,-0.100507,0.146174,-0.058651,-0.132406,-0.105929,0.266924,-0.149580,0.313664,0.451414,1.073192,-0.258706,-0.019574,-0.223744,-0.098507,0.220577,-0.332409,0.057356,-0.047125,-0.405820,0.625988,1.180387,0.721123,0.051299,-0.036074,0.004491,0.062375,-0.029053,-0.024730
-0.280732,-0.148023,0.128889,-0.068317,-0.148309,-0.100278,0.262955,-0.149580,0.319645,0.419169,1.166407,-0.280025,-0.019574,-0.230748,0.004407,0.222330,-0.341123,0.055505,-0.049526,-0.420715,0.619660,1.153344,0.711743,0.038103,-0.014571,-0.001057,0.055518,-0.032686,-0.028079
-0.239656,-0.188938,0.113322,-0.074157,-0.149618,-0.094634,0.258649,-0.144837,0.322740,0.389885,1.228340,-0.302338,-0.019031,-0.236179,0.039274,0.223849,-0.346635,0.053981,-0.046850,-0.433807,0.610720,1.129960,0.713840,0.028224,0.000902,-0.005942,0.048756,-0.033716,-0.033931
-0.200676,-0.226554,0.098615,-0.078084,-0.143629,-0.088994,0.254174,-0.137090,0.324392,0.362081,1.274633,-0.325149,-0.019031,-0.240824,0.039274,0.223849,-0.350545,0.052619,-0.041636,-0.445997,0.600475,1.108406,0.721674,0.020004,0.013360,-0.010495,0.042042,-0.033716,-0.041034
-0.163970,-0.264290,0.088952,-0.078455,-0.126343,-0.082737,0.250738,-0.124933,0.322866,0.334606,1.290902,-0.345868,-0.019365,-0.246069,0.014145,0.224047,-0.351065,0.049781,-0.033129,-0.449331,0.589732,1.092319,0.737246,0.017463,0.013360,-0.012886,0.038209,-0.030124,-0.049908
-0.127697,-0.301471,0.081125,-0.077988,-0.108799,-0.076167,0.249356,-0.113970,0.320741,0.306988,1.297331,-0.364936,-0.018602,-0.251489,-0.006391,0.222854,-0.351586,0.046780,-0.025076,-0.449991,0.580731,1.075878,0.754416,0.015769,0.013364,-0.014963,0.036708,-0.026442,-0.060136
-0.092288,-0.337543,0.076970,-0.075471,-0.090739,-0.068971,0.249356,-0.105394,0.317415,0.279086,1.284081,-0.380701,-0.018602,-0.257258,-0.016617,0.221487,-0.351586,0.043450,-0.017928,-0.445301,0.575213,1.058727,0.774781,0.015769,0.011914,-0.016412,0.039873,-0.022219,-0.073070
-0.058238,-0.372564,0.073411,-0.074168,-0.078309,-0.062318,0.252088,-0.101753,0.313113,0.250647,1.255296,-0.391933,-0.017936,-0.262921,-0.020964,0.221031,-0.352802,0.040362,-0.009034,-0.438539,0.572359,1.038089,0.797031,0.013549,0.011431,-0.017651,0.044672,-0.019872,-0.088404
-0.024868,-0.407060,0.070150,-0.074168,-0.068693,-0.055936,0.254822,-0.101753,0.308322,0.221940,1.218745,-0.400899,-0.017936,-0.268530,-0.020964,0.221031,-0.352802,0.037395,0.000733,-0.430740,0.572359,1.015708,0.820223,0.009114,0.011431,-0.017651,0.050289,-0.018461,-0.104937
0.006939,-0.433944,0.064379,-0.075947,-0.066837,-0.051227,0.258667,-0.108182,0.304052,0.193557,1.156240,-0.404711,-0.018247,-0.274901,-0.036896,0.225709,-0.353652,0.035395,-0.000693,-0.426201,0.570542,0.990883,0.844403,-0.001010,0.008157,-0.019862,0.053574,-0.018038,-0.121873
0.037132,-0.459401,0.057997,-0.078713,-0.066317,-0.046858,0.262454,-0.117714,0.299356,0.166398,1.086783,-0.406961,-0.019250,-0.281684,-0.050444,0.230770,-0.353063,0.033384,-0.001228,-0.423748,0.568937,0.966091,0.868581,-0.011698,0.004179,-0.021568,0.056433,-0.016937,-0.137497
0.064097,-0.482004,0.050393,-0.082524,-0.068468,-0.043169,0.266124,-0.131889,0.293806,0.141683,1.003418,-0.406961,-0.020538,-0.289291,-0.061098,0.238055,-0.353063,0.031354,0.000019,-0.423748,0.566529,0.941365,0.892757,-0.023515,-0.001740,-0.023772,0.058439,-0.014903,-0.150498
0.086542,-0.500342,0.042033,-0.085405,-0.067479,-0.039867,0.270656,-0.146697,0.287720,0.123307,0.905900,-0.404765,-0.020355,-0.299318,-0.060050,0.246434,-0.350403,0.029405,-0.000849,-0.427125,0.562191,0.921083,0.914168,-0.034034,-0.002974,-0.026428,0.059918,-0.012221,-0.158643
0.106726,-0.516546,0.033295,-0.087820,-0.064921,-0.036758,0.275618,-0.161821,0.281365,0.108100,0.801307,-0.401908,-0.019743,-0.310555,-0.053150,0.255360,-0.347794,0.027495,-0.002775,-0.431332,0.556887,0.903024,0.934196,-0.043904,-0.002234,-0.029311,0.061133,-0.009214,-0.164361
0.123141,-0.520764,0.023095,-0.090745,-0.053134,-0.035232,0.279364,-0.165533,0.275395,0.098982,0.670749,-0.398134,-0.015808,-0.325187,-0.033498,0.263746,-0.345019,0.027495,-0.000922,-0.437617,0.549193,0.893986,0.946411,-0.050138,0.007655,-0.032010,0.062717,-0.006619,-0.161436
0.139800,-0.520836,0.013156,-0.094801,-0.039922,-0.034647,0.282690,-0.162008,0.270167,0.091117,0.535601,-0.394152,-0.010272,-0.338677,-0.012269,0.270984,-0.342549,0.025325,0.001450,-0.444617,0.542607,0.888503,0.957416,-0.055056,0.018028,-0.034558,0.064238,-0.004889,-0.156746
0.156945,-0.512617,0.003743,-0.101116,-0.023858,-0.035943,0.282690,-0.144009,0.266424,0.085761,0.391281,-0.389751,-0.001532,-0.349883,0.012115,0.275927,-0.340689,0.020926,0.004863,-0.453044,0.538238,0.890135,0.965999,-0.057339,0.029366,-0.034558,0.065636,-0.004889,-0.148524
0.174535,-0.494534,-0.008368,-0.105047,-0.008852,-0.035136,0.278769,-0.120258,0.264654,0.085836,0.252875,-0.384519,0.009110,-0.363122,0.014438,0.278572,-0.339313,0.016567,0.012585,-0.462506,0.534836,0.898861,0.972434,-0.058101,0.035896,-0.035306,0.065796,-0.005030,-0.138744
0.192348,-0.471519,-0.021829,-0.107786,0.005624,-0.033277,0.271646,-0.093630,0.264654,0.088628,0.117426,-0.378872,0.020704,-0.377378,0.005731,0.280067,-0.339313,0.012229,0.022463,-0.472484,0.531918,0.911134,0.977795,-0.058101,0.040021,-0.035306,0.065796,-0.005030,-0.128184
0.199752,-0.454407,-0.034852,-0.097847,0.016028,-0.024814,0.264272,-0.096611,0.264417,0.118716,0.062578,-0.375543,0.033963,-0.403640,-0.040705,0.277878,-0.340440,0.004861,0.072630,-0.486437,0.533363,0.936425,0.980088,-0.055099,0.037522,-0.035106,0.065490,-0.005577,-0.115530
0.203872,-0.446191,-0.045720,-0.083536,0.028519,-0.013666,0.258295,-0.097124,0.264765,0.155601,0.042293,-0.372311,0.046526,-0.431094,-0.059969,0.274387,-0.343313,-0.004899,0.090951,-0.499717,0.536112,0.964196,0.982249,-0.050599,0.034155,-0.035442,0.065976,-0.005365,-0.101840
0.201422,-0.455768,-0.052279,-0.060483,0.045184,0.002850,0.255112,-0.092701,0.264765,0.206080,0.091130,-0.369274,0.057694,-0.460927,-0.024888,0.268291,-0.348165,-0.019442,0.045581,-0.511656,0.541468,0.996926,0.982249,-0.042597,0.029053,-0.035442,0.068233,-0.005365,-0.086077
0.198170,-0.460953,-0.056355,-0.030704,0.066469,0.022528,0.251632,-0.089829,0.265694,0.265305,0.138876,-0.359564,0.066189,-0.491550,0.021328,0.261138,-0.352308,-0.035386,0.017927,-0.515139,0.548448,1.027430,0.988494,-0.027993,0.023449,-0.033519,0.072309,-0.004264,-0.066499
0.194518,-0.463941,-0.059189,0.002437,0.090065,0.043786,0.248004,-0.087732,0.266996,0.328903,0.186077,-0.346519,0.073346,-0.522568,0.073111,0.253457,-0.356097,-0.052031,-0.000867,-0.515139,0.556240,1.056819,0.996911,-0.010088,0.017595,-0.031048,0.077295,-0.004264,-0.045013
0.187618,-0.469187,-0.058349,0.035918,0.104256,0.058860,0.247571,-0.098567,0.272349,0.405888,0.248527,-0.321598,0.072658,-0.551971,0.078827,0.247165,-0.353791,-0.064052,-0.005111,-0.502168,0.565328,1.078210,1.013582,0.009622,0.002835,-0.029395,0.086351,-0.003043,-0.015422
0.176117,-0.469968,-0.055284,0.068290,0.116981,0.071441,0.245391,-0.109396,0.277567,0.493913,0.306427,-0.294512,0.069983,-0.569086,0.075652,0.242371,-0.350513,-0.073358,-0.021751,-0.489536,0.574580,1.095912,1.029557,0.024965,-0.016458,-0.027626,0.098202,-0.001732,0.017097
0.155414,-0.461819,-0.048610,0.098445,0.126774,0.079034,0.240149,-0.120214,0.282514,0.604019,0.355232,-0.263097,0.064023,-0.561623,0.054694,0.240575,-0.345291,-0.077235,-0.063183,-0.476591,0.584158,1.106233,1.044138,0.031575,-0.044820,-0.027626,0.115644,-0.000147,0.055473
0.107459,-0.426602,-0.040204,0.126223,0.136257,0.083347,0.220905,-0.122820,0.288123,0.762276,0.365568,-0.231608,0.059809,-0.471358,0.032875,0.241955,-0.344128,-0.064938,-0.092472,-0.468589,0.592069,1.108718,1.046163,0.030353,-0.073996,-0.023902,0.134638,-0.003695,0.092321
0.045879,-0.377851,-0.030931,0.152813,0.145584,0.086021,0.194660,-0.122820,0.294065,0.944608,0.356670,-0.200084,0.056468,-0.339689,0.010623,0.244923,-0.344128,-0.044555,-0.115689,-0.463060,0.599148,1.107287,1.041909,0.025214,-0.103579,-0.019315,0.154410,-0.009809,0.128404
-0.030770,-0.323178,-0.013134,0.184622,0.155785,0.085103,0.183011,-0.115923,0.305115,1.105684,0.340806,-0.174619,0.048868,-0.153996,-0.012739,0.251463,-0.351645,-0.031627,-0.121721,-0.464362,0.614561,1.102356,1.028944,0.021501,-0.114254,-0.014337,0.163673,-0.019486,0.148778
-0.098308,-0.273326,0.006979,0.213076,0.164476,0.081986,0.177520,-0.109416,0.313729,1.237607,0.325923,-0.150626,0.038469,-0.029660,-0.034599,0.258229,-0.358397,-0.017390,-0.127508,-0.464612,0.632366,1.098648,1.018357,0.019454,-0.119644,-0.010785,0.168695,-0.027438,0.161841
-0.147626,-0.233113,0.031722,0.234824,0.170150,0.075387,0.184343,-0.101694,0.317470,1.311227,0.312999,-0.129575,0.022471,-0.028034,-0.053453,0.265448,-0.364772,-0.000534,-0.132804,-0.464612,0.654954,1.097388,1.012527,0.020741,-0.114467,-0.010785,0.165238,-0.031938,0.160282
-0.192890,-0.195423,0.056508,0.247009,0.171001,0.064866,0.195326,-0.091538,0.317841,1.355001,0.298717,-0.108226,0.004514,-0.054065,-0.070519,0.271991,-0.367683,0.015647,-0.136549,-0.456391,0.669315,1.096967,1.008719,0.023373,-0.110260,-0.011210,0.158653,-0.033852,0.149363
-0.236127,-0.158997,0.081316,0.254413,0.169441,0.052383,0.208388,-0.080164,0.316527,1.383851,0.283755,-0.086727,-0.014423,-0.093924,-0.086692,0.278194,-0.367683,0.031491,-0.139517,-0.444985,0.679563,1.096967,1.005922,0.026678,-0.106538,-0.011210,0.150504,-0.033852,0.133762
-0.275862,-0.120027,0.102151,0.251617,0.163711,0.037708,0.221387,-0.068535,0.312728,1.376408,0.262061,-0.065286,-0.031324,-0.118677,-0.100790,0.283954,-0.365378,0.033816,-0.140221,-0.424249,0.669396,1.096132,0.998603,0.027978,-0.104433,-0.010969,0.144751,-0.034612,0.111673
-0.315678,-0.081195,0.121566,0.245800,0.157493,0.023564,0.232668,-0.057927,0.307464,1.359415,0.237987,-0.044617,-0.047417,-0.141810,-0.114174,0.289513,-0.362402,0.034564,-0.140153,-0.404041,0.655945,1.095050,0.989556,0.028385,-0.101101,-0.009444,0.140165,-0.036253,0.090417
-0.355658,-0.042639,0.138137,0.233941,0.150300,0.010480,0.240515,-0.049361,0.299271,1.323319,0.209156,-0.025487,-0.061895,-0.161705,-0.126129,0.294673,-0.359655,0.032153,-0.140153,-0.384890,0.635926,1.093259,0.977050,0.027009,-0.095315,-0.007557,0.137909,-0.040142,0.070827
-0.391701,-0.005158,0.152194,0.221561,0.143827,-0.000617,0.247019,-0.042493,0.291719,1.269931,0.182182,-0.009081,-0.076373,-0.176713,-0.138010,0.299763,-0.358739,0.024514,-0.139247,-0.369139,0.615199,1.089949,0.961266,0.025629,-0.083312,-0.005577,0.135330,-0.044131,0.055761
-0.425776,0.031786,0.164993,0.208919,0.137715,-0.010722,0.252853,-0.036474,0.284488,1.207897,0.156135,0.005965,-0.090851,-0.189277,-0.149852,0.304820,-0.358053,0.014260,-0.139111,-0.355087,0.594118,1.085880,0.943842,0.024708,-0.068202,-0.003550,0.132589,-0.048171,0.042956
-0.450876,0.062795,0.177372,0.199058,0.133995,-0.017498,0.260362,-0.030577,0.278702,1.120884,0.140814,0.015419,-0.105477,-0.192188,-0.163342,0.308763,-0.360801,0.001441,-0.132530,-0.342766,0.578667,1.081085,0.921118,0.024708,-0.046518,-0.002042,0.127973,-0.050836,0.035411
-0.473776,0.089902,0.189903,0.189424,0.130406,-0.024120,0.268685,-0.024862,0.272126,1.025122,0.129975,0.022704,-0.120368,-0.192546,-0.179229,0.311941,-0.364362,-0.011396,-0.126719,-0.330926,0.566509,1.078443,0.898212,0.024013,-0.024735,-0.000622,0.122991,-0.052433,0.027602
-0.492278,0.109209,0.202739,0.180242,0.127078,-0.030437,0.278635,-0.019514,0.263971,0.911864,0.128103,0.025651,-0.135789,-0.187798,-0.199912,0.313592,-0.369550,-0.024270,-0.122449,-0.320046,0.560939,1.078443,0.874945,0.024013,-0.002756,-0.000622,0.117278,-0.052433,0.019268
-0.503594,0.126542,0.214672,0.166331,0.124467,-0.035916,0.282360,-0.015392,0.255800,0.780538,0.129393,0.024767,-0.151305,-0.175565,-0.222488,0.314142,-0.375430,-0.037784,-0.119791,-0.309487,0.560740,1.082792,0.853122,0.024022,0.013448,-0.000207,0.109365,-0.051230,0.008751
-0.511318,0.142887,0.226154,0.150056,0.122215,-0.040977,0.282360,-0.011884,0.247621,0.640177,0.132264,0.021968,-0.166870,-0.159589,-0.246012,0.314142,-0.381657,-0.051618,-0.117937,-0.299086,0.563228,1.088483,0.832020,0.025279,0.026763,-0.000207,0.100352,-0.049693,-0.002858
-0.500224,0.170401,0.233724,0.130931,0.123144,-0.041559,0.273381,-0.009440,0.243414,0.482882,0.126365,0.017093,-0.180664,-0.147644,-0.263494,0.312078,-0.386032,-0.070726,-0.115910,-0.288841,0.565358,1.098132,0.812402,0.029946,0.028265,-0.000654,0.092866,-0.050230,-0.013571
-0.484577,0.197393,0.240675,0.112437,0.123526,-0.042911,0.266240,-0.005837,0.239859,0.328851,0.123063,0.011901,-0.193004,-0.141532,-0.281333,0.309544,-0.390278,-0.096760,-0.112954,-0.278835,0.567357,1.107704,0.792047,0.035019,0.027957,-0.001315,0.087246,-0.050381,-0.022587
-0.459824,0.223343,0.246388,0.095204,0.121881,-0.042911,0.266240,0.000085,0.237604,0.181338,0.124956,0.006073,-0.202436,-0.147082,-0.299889,0.305578,-0.394266,-0.136647,-0.108139,-0.269304,0.569094,1.117124,0.770216,0.040907,0.024029,-0.001315,0.085356,-0.050381,-0.028211
-0.456382,0.236059,0.249216,0.086191,0.115564,-0.048565,0.277851,0.005632,0.233349,0.126028,0.146399,-0.000256,-0.209855,-0.171813,-0.326826,0.302225,-0.398694,-0.174831,-0.099431,-0.261482,0.571439,1.123285,0.745341,0.045168,0.020411,-0.001637,0.085513,-0.048596,-0.030085
-0.463596,0.242159,0.250602,0.081287,0.106911,-0.055892,0.296593,0.010992,0.228094,0.116820,0.177617,-0.006834,-0.216267,-0.206134,-0.357953,0.299179,-0.403344,-0.212163,-0.088778,-0.254514,0.574089,1.127814,0.718943,0.048617,0.016947,-0.001637,0.085513,-0.046496,-0.030085
-0.486425,0.247829,0.247910,0.071499,0.088022,-0.072550,0.296275,0.012751,0.229502,0.208139,0.230408,-0.015542,-0.212539,-0.172153,-0.397908,0.299179,-0.406885,-0.144690,-0.079406,-0.255756,0.574089,1.133212,0.687201,0.049265,0.013187,-0.001794,0.087972,-0.044112,-0.027675
-0.505105,0.251609,0.247235,0.056648,0.065311,-0.092101,0.292595,0.015351,0.232050,0.293323,0.288502,-0.025536,-0.206890,-0.131827,-0.436953,0.299202,-0.408648,-0.085440,-0.070167,-0.259374,0.573094,1.140463,0.659324,0.049081,0.010016,-0.002712,0.088478,-0.041953,-0.026650
-0.515488,0.251609,0.250591,0.031673,0.034955,-0.117439,0.282506,0.019632,0.236879,0.366230,0.357199,-0.038102,-0.197397,-0.078817,-0.474174,0.299202,-0.406854,-0.042643,-0.061193,-0.267745,0.571474,1.151422,0.639180,0.049081,0.008024,-0.004336,0.086650,-0.040245,-0.028252
-0.523369,0.245587,0.253223,0.018971,0.006534,-0.136674,0.286653,0.017731,0.244517,0.446687,0.444076,-0.052204,-0.184330,-0.067057,-0.503772,0.296481,-0.400907,-0.013306,-0.055072,-0.275090,0.569189,1.163424,0.635513,0.049617,0.007360,-0.005284,0.080654,-0.037663,-0.034063
-0.530000,0.236824,0.255495,0.012406,-0.020918,-0.152858,0.297918,0.012738,0.253559,0.530920,0.540044,-0.067074,-0.169474,-0.075924,-0.529558,0.292239,-0.392884,0.009300,-0.050376,-0.281920,0.566572,1.175949,0.640084,0.051669,0.007360,-0.005284,0.072575,-0.034644,-0.041978
-0.508900,0.207083,0.255054,0.007982,-0.039368,-0.155453,0.305602,0.007742,0.260878,0.578295,0.679661,-0.079664,-0.152055,-0.115355,-0.486646,0.286306,-0.383582,0.045224,-0.069367,-0.287340,0.565734,1.181807,0.656502,0.055562,0.014171,-0.004110,0.063840,-0.031326,-0.053163
-0.476933,0.159390,0.254079,0.002521,-0.060597,-0.156157,0.313243,-0.000849,0.267961,0.608549,0.838170,-0.091614,-0.135818,-0.152640,-0.387758,0.281461,-0.375727,0.072595,-0.083857,-0.293591,0.566901,1.184389,0.673694,0.057370,0.021325,-0.003367,0.058732,-0.029561,-0.061289
-0.423236,0.075793,0.252480,-0.005011,-0.087384,-0.153077,0.320800,-0.016629,0.274574,0.604565,1.034457,-0.102282,-0.121946,-0.185630,-0.176918,0.278795,-0.370764,0.082858,-0.089344,-0.301500,0.572918,1.180416,0.692430,0.055007,0.029643,-0.003367,0.060878,-0.029561,-0.061289
-0.372468,0.000965,0.246528,-0.014812,-0.118869,-0.149248,0.330122,-0.031209,0.281058,0.594755,1.177438,-0.115829,-0.110628,-0.214195,-0.035321,0.276538,-0.368139,0.088456,-0.089166,-0.313070,0.580600,1.175916,0.715762,0.050059,0.030614,-0.005213,0.066411,-0.029018,-0.057465
-0.323165,-0.069479,0.238399,-0.025746,-0.152702,-0.145044,0.340328,-0.045188,0.287476,0.582032,1.293765,-0.130816,-0.100587,-0.240549,0.071653,0.274485,-0.366683,0.091722,-0.086154,-0.326469,0.589114,1.171152,0.741392,0.043820,0.027911,-0.007517,0.073638,-0.029018,-0.050724
-0.276599,-0.124652,0.224189,-0.029256,-0.152399,-0.135395,0.342507,-0.049472,0.288832,0.561111,1.346579,-0.146602,-0.090623,-0.260882,0.043811,0.272168,-0.362100,0.089789,-0.093886,-0.337644,0.594653,1.168407,0.777540,0.039488,0.012514,-0.009325,0.082187,-0.023042,-0.045706
-0.229039,-0.177113,0.207895,-0.031056,-0.144145,-0.125133,0.343466,-0.053328,0.288768,0.536486,1.383882,-0.161093,-0.079469,-0.278352,0.015024,0.270223,-0.356842,0.085796,-0.093410,-0.347259,0.597395,1.163908,0.812996,0.036171,-0.004679,-0.010530,0.091599,-0.018407,-0.041582
-0.179497,-0.224143,0.187438,-0.031056,-0.120290,-0.113646,0.341985,-0.056329,0.288768,0.504456,1.390164,-0.172995,-0.065935,-0.290094,-0.015646,0.270223,-0.350236,0.077682,-0.076514,-0.353754,0.594544,1.155898,0.847064,0.034886,-0.025464,-0.010530,0.102739,-0.014476,-0.039247
-0.129421,-0.266030,0.163385,-0.029369,-0.088139,-0.101360,0.336508,-0.056255,0.284878,0.466620,1.369426,-0.181709,-0.048320,-0.298406,-0.036295,0.271499,-0.346112,0.068549,-0.054252,-0.360296,0.587393,1.142043,0.873891,0.032622,-0.041904,-0.010086,0.115723,-0.013165,-0.034969
-0.079078,-0.305346,0.137536,-0.027646,-0.051840,-0.088676,0.329032,-0.054644,0.280496,0.425881,1.335178,-0.188830,-0.028665,-0.305002,-0.051933,0.274013,-0.343229,0.058908,-0.029308,-0.366860,0.578092,1.125264,0.897099,0.029868,-0.056169,-0.010086,0.129629,-0.013165,-0.029718
-0.030613,-0.336272,0.110420,-0.028363,-0.023729,-0.076842,0.319227,-0.047955,0.275362,0.382980,1.268536,-0.193606,-0.005615,-0.309865,-0.073500,0.279525,-0.347865,0.050041,-0.004321,-0.375652,0.567632,1.098454,0.907362,0.025405,-0.059267,-0.009147,0.140987,-0.015115,-0.018685
0.015864,-0.364923,0.083847,-0.030581,-0.004139,-0.065826,0.309675,-0.042973,0.270406,0.342283,1.193943,-0.198858,0.017578,-0.314621,-0.093701,0.285848,-0.354874,0.042032,0.014416,-0.385742,0.557525,1.069035,0.914803,0.020470,-0.061744,-0.008684,0.151530,-0.016899,-0.005963
0.058365,-0.389023,0.058365,-0.035080,-0.001592,-0.056444,0.300628,-0.041404,0.265802,0.305995,1.103452,-0.205063,0.041058,-0.319163,-0.111168,0.293792,-0.366625,0.035737,0.020650,-0.398429,0.548123,1.034400,0.916602,0.014590,-0.061744,-0.008684,0.160445,-0.018154,0.010138
0.097617,-0.409812,0.036850,-0.042665,-0.012234,-0.049251,0.290856,-0.044956,0.260534,0.270263,0.999701,-0.212911,0.063053,-0.324368,-0.117925,0.302695,-0.379755,0.029849,0.016157,-0.412753,0.539429,0.995472,0.919770,0.006795,-0.065521,-0.009713,0.167146,-0.018572,0.026957
0.135245,-0.428944,0.017318,-0.051794,-0.029472,-0.043154,0.280722,-0.051069,0.254932,0.234808,0.889319,-0.221582,0.084307,-0.329904,-0.119326,0.312077,-0.393575,0.024164,0.006299,-0.427895,0.531090,0.954396,0.923623,-0.001959,-0.070572,-0.010988,0.172741,-0.018572,0.044135
0.165121,-0.438087,0.002915,-0.060311,-0.047754,-0.039060,0.268383,-0.054978,0.246017,0.205181,0.751111,-0.231183,0.101742,-0.336995,-0.105654,0.320049,-0.404105,0.017103,-0.010585,-0.440699,0.521752,0.913982,0.936679,-0.011611,-0.076068,-0.012766,0.174132,-0.017001,0.058473
0.192383,-0.442718,-0.010450,-0.068191,-0.064756,-0.035688,0.254759,-0.055085,0.237217,0.179527,0.604899,-0.241537,0.117919,-0.344235,-0.083879,0.326354,-0.412805,0.009898,-0.029066,-0.451546,0.511439,0.876247,0.952084,-0.021852,-0.081096,-0.015193,0.175463,-0.015609,0.072510
0.214419,-0.438328,-0.021740,-0.074793,-0.079199,-0.035688,0.238567,-0.047589,0.228646,0.161821,0.442685,-0.253396,0.131579,-0.351775,-0.045896,0.329327,-0.417843,0.002409,-0.050741,-0.458479,0.499180,0.843871,0.972189,-0.033270,-0.085191,-0.018920,0.176675,-0.015609,0.085942
0.232052,-0.426444,-0.032011,-0.077262,-0.091872,-0.035098,0.219978,-0.035949,0.222581,0.158360,0.289302,-0.267278,0.144533,-0.363653,-0.026160,0.327350,-0.420129,-0.007181,-0.053252,-0.464210,0.484781,0.819844,0.992440,-0.041752,-0.088105,-0.021994,0.179376,-0.015040,0.096473
0.247485,-0.410814,-0.041772,-0.077262,-0.103659,-0.035098,0.200192,-0.022237,0.217768,0.162021,0.140335,-0.282172,0.157133,-0.377700,-0.015549,0.322899,-0.420129,-0.017821,-0.046180,-0.469342,0.469312,0.799992,1.012765,-0.048764,-0.090428,-0.024741,0.182821,-0.015040,0.105553
0.255943,-0.398396,-0.045822,-0.064202,-0.105518,-0.028085,0.176414,-0.000514,0.217215,0.187432,0.064281,-0.297912,0.169805,-0.403343,-0.055498,0.312475,-0.420735,-0.032045,0.007026,-0.475748,0.456801,0.789810,1.027520,-0.052137,-0.092773,-0.025922,0.187092,-0.011818,0.113827
0.260042,-0.398754,-0.044630,-0.045186,-0.102293,-0.017396,0.155052,0.012963,0.215691,0.219143,0.037072,-0.312967,0.180689,-0.431682,-0.075189,0.301238,-0.420134,-0.047430,0.054146,-0.480644,0.449384,0.780780,1.041680,-0.053170,-0.093280,-0.027125,0.190413,-0.008546,0.120697
0.255420,-0.424666,-0.032956,-0.014795,-0.088899,0.000537,0.138524,0.012963,0.215691,0.263454,0.107555,-0.326651,0.187994,-0.465410,-0.054360,0.288374,-0.420134,-0.065136,0.089091,-0.482520,0.452153,0.774057,1.054652,-0.049525,-0.090112,-0.028373,0.191835,-0.005664,0.124761
0.248101,-0.456997,-0.017040,0.017546,-0.074821,0.018792,0.122031,0.002512,0.216515,0.314887,0.206334,-0.335873,0.189893,-0.495485,-0.015034,0.276093,-0.419665,-0.080587,0.108427,-0.484591,0.465962,0.767125,1.066907,-0.041734,-0.085520,-0.029959,0.191227,-0.004704,0.125284
0.239434,-0.492539,0.000996,0.050862,-0.060401,0.037209,0.105556,-0.011656,0.219206,0.369882,0.319263,-0.342864,0.189893,-0.523734,0.033541,0.264103,-0.419665,-0.094912,0.119959,-0.486759,0.485291,0.760088,1.078803,-0.031872,-0.080215,-0.031716,0.189604,-0.004704,0.124036
0.237514,-0.516291,0.022007,0.079409,-0.060400,0.049256,0.093741,-0.036330,0.234333,0.436945,0.441207,-0.340632,0.181764,-0.551495,0.021153,0.254006,-0.417117,-0.083954,0.096983,-0.484313,0.509474,0.761358,1.085190,-0.020592,-0.083536,-0.036072,0.189604,-0.004398,0.121684
0.226076,-0.529483,0.041831,0.107547,-0.064328,0.059827,0.079432,-0.063453,0.248459,0.519916,0.546902,-0.337169,0.174136,-0.566028,-0.004820,0.246633,-0.415315,-0.065292,0.070369,-0.481963,0.531264,0.762639,1.086281,-0.008630,-0.089783,-0.040059,0.189795,-0.006521,0.120308
0.195600,-0.521556,0.059283,0.134866,-0.074647,0.067446,0.060131,-0.095475,0.260579,0.634701,0.620093,-0.331245,0.166441,-0.554101,-0.057965,0.244709,-0.415315,-0.031219,0.036479,-0.481963,0.548267,0.763939,1.076781,0.004698,-0.101881,-0.043310,0.191635,-0.011211,0.120308
0.125910,-0.486153,0.079064,0.164712,-0.080588,0.076103,0.038867,-0.130637,0.267695,0.799420,0.644491,-0.326410,0.164312,-0.448601,-0.100636,0.249831,-0.421523,0.010199,0.013051,-0.481996,0.561140,0.761265,1.052785,0.022459,-0.110887,-0.041665,0.193058,-0.024275,0.122759
0.036612,-0.437012,0.100011,0.195823,-0.084340,0.085279,0.016622,-0.167370,0.272308,0.989106,0.644491,-0.322120,0.164312,-0.296311,-0.138070,0.258477,-0.431566,0.055291,-0.005146,-0.481996,0.571949,0.756604,1.021542,0.042437,-0.118348,-0.037573,0.193058,-0.041526,0.126147
-0.036726,-0.390185,0.137119,0.241431,-0.079654,0.093278,0.035270,-0.199889,0.275765,1.106874,0.634154,-0.319259,0.161038,-0.230527,-0.168441,0.272968,-0.452356,0.083092,-0.016835,-0.476124,0.586936,0.751819,0.991052,0.054793,-0.109652,-0.036700,0.188834,-0.058967,0.124955
-0.103031,-0.344793,0.176133,0.278027,-0.075454,0.099245,0.055833,-0.229870,0.277116,1.202343,0.619926,-0.313257,0.155047,-0.191579,-0.196147,0.290243,-0.475188,0.112660,-0.027614,-0.464009,0.601608,0.744405,0.965772,0.063820,-0.098476,-0.036593,0.181748,-0.074402,0.121119
-0.155272,-0.302272,0.218961,0.296602,-0.072225,0.099245,0.080225,-0.254774,0.274252,1.253216,0.598387,-0.300971,0.144492,-0.206301,-0.218525,0.313088,-0.502105,0.145760,-0.036573,-0.440911,0.615653,0.731733,0.950909,0.066191,-0.082338,-0.038896,0.170559,-0.085829,0.111995
-0.201612,-0.258263,0.258800,0.291519,-0.069154,0.097461,0.101428,-0.275572,0.267740,1.276045,0.567048,-0.284725,0.130542,-0.211701,-0.234451,0.344689,-0.527490,0.149998,-0.042164,-0.405857,0.618164,0.712865,0.947472,0.065160,-0.069525,-0.039384,0.159045,-0.097676,0.100495
-0.245002,-0.213510,0.297145,0.274607,-0.066163,0.093834,0.121036,-0.294317,0.259405,1.284851,0.530810,-0.266498,0.114895,-0.211701,-0.247150,0.380668,-0.552110,0.139805,-0.046071,-0.364825,0.614908,0.690899,0.949748,0.062428,-0.058376,-0.039384,0.147370,-0.109735,0.087808
-0.278624,-0.165896,0.335204,0.233538,-0.060573,0.087761,0.138361,-0.307554,0.245874,1.255562,0.479982,-0.254479,0.099518,-0.204792,-0.250758,0.425826,-0.573312,0.107720,-0.047843,-0.310327,0.593784,0.672947,0.960753,0.058674,-0.060207,-0.030525,0.144232,-0.131182,0.079518
-0.308564,-0.118425,0.372624,0.192404,-0.054551,0.081480,0.159205,-0.320326,0.231853,1.215598,0.427688,-0.245896,0.084925,-0.198949,-0.252308,0.474365,-0.595295,0.074760,-0.049798,-0.254615,0.570008,0.653993,0.970957,0.055366,-0.063772,-0.016530,0.144790,-0.155397,0.073077
-0.331139,-0.071240,0.408768,0.151138,-0.047665,0.074783,0.187087,-0.332165,0.216853,1.154282,0.372459,-0.245896,0.071901,-0.196220,-0.252308,0.529663,-0.618841,0.040051,-0.049798,-0.196476,0.540924,0.633034,0.979558,0.052951,-0.070804,0.008299,0.152737,-0.185152,0.070333
-0.350936,-0.026906,0.441284,0.115826,-0.038701,0.068446,0.220760,-0.345176,0.201584,1.080105,0.319148,-0.251911,0.061941,-0.194781,-0.251829,0.592033,-0.646893,0.003085,-0.051578,-0.142919,0.511859,0.604572,0.980339,0.052881,-0.074621,0.041439,0.161803,-0.209962,0.068152
-0.369344,0.016004,0.471986,0.083492,-0.028698,0.062290,0.257330,-0.358773,0.186181,0.999498,0.266797,-0.261788,0.053512,-0.194781,-0.251829,0.657938,-0.677199,-0.035011,-0.053088,-0.091653,0.482804,0.572358,0.977208,0.052881,-0.076829,0.078735,0.171429,-0.232300,0.066252
-0.384289,0.056240,0.500660,0.053576,-0.012085,0.056823,0.290651,-0.372375,0.170135,0.903592,0.214018,-0.284855,0.053895,-0.193309,-0.251661,0.728042,-0.713730,-0.061294,-0.053088,-0.048590,0.453337,0.533667,0.956741,0.051481,-0.071475,0.117616,0.175410,-0.235008,0.061398
-0.398136,0.092966,0.529784,0.023249,0.005334,0.050872,0.322052,-0.384293,0.153924,0.803330,0.166564,-0.312714,0.057078,-0.191572,-0.252664,0.797323,-0.750778,-0.086112,-0.051961,-0.008331,0.423762,0.495438,0.933043,0.043311,-0.062871,0.152452,0.176990,-0.228957,0.055298
-0.409784,0.122670,0.559805,-0.007903,0.024364,0.043952,0.349610,-0.392843,0.137385,0.694354,0.129761,-0.350158,0.065480,-0.189189,-0.257305,0.864958,-0.788863,-0.108001,-0.049714,0.026319,0.393971,0.458133,0.902887,0.023068,-0.047769,0.179198,0.173769,-0.205388,0.046704
-0.417502,0.143073,0.589421,-0.041435,0.041476,0.035692,0.373110,-0.398261,0.121144,0.574147,0.109013,-0.394870,0.076781,-0.182502,-0.268196,0.930382,-0.825129,-0.131615,-0.049553,0.053940,0.362340,0.420789,0.869048,-0.038847,-0.024870,0.186386,0.164492,-0.145281,0.031305
-0.423254,0.158825,0.618835,-0.076157,0.057631,0.026763,0.394581,-0.402114,0.105054,0.448324,0.096292,-0.443216,0.089534,-0.173664,-0.282213,0.994702,-0.860487,-0.156091,-0.049553,0.078045,0.329790,0.383427,0.833367,-0.121601,0.001929,0.183794,0.152188,-0.066906,0.012504
-0.421653,0.167311,0.640817,-0.107538,0.072368,0.019804,0.408795,-0.403834,0.090912,0.326340,0.104847,-0.488153,0.092472,-0.174145,-0.302435,1.055360,-0.886282,-0.190777,-0.050826,0.090971,0.296139,0.344952,0.798946,-0.216787,0.015070,0.117002,0.140764,0.068539,-0.005628
-0.417730,0.176142,0.660842,-0.136771,0.086811,0.013787,0.417283,-0.403513,0.077796,0.216322,0.118240,-0.535089,0.093875,-0.177544,-0.323215,1.114210,-0.906826,-0.214766,-0.051511,0.102706,0.261116,0.309103,0.768177,-0.290142,0.029536,0.041291,0.128513,0.201485,-0.021302
-0.409164,0.185660,0.676952,-0.161705,0.100667,0.009653,0.414317,-0.399109,0.066730,0.130232,0.141312,-0.586021,0.092206,-0.186302,-0.345113,1.169445,-0.916869,-0.217356,-0.051511,0.112059,0.223346,0.278507,0.744710,-0.319829,0.046650,-0.052262,0.114605,0.329430,-0.032058
-0.405305,0.191879,0.693857,-0.181058,0.108072,0.002657,0.387857,-0.393109,0.062561,0.109452,0.185297,-0.653541,0.093516,-0.195087,-0.374192,1.217413,-0.913700,-0.175460,-0.050264,0.116653,0.189406,0.253654,0.735939,-0.317962,0.109633,-0.142659,0.084512,0.429097,-0.044522
-0.405305,0.196447,0.711162,-0.197620,0.112252,-0.005769,0.349650,-0.386311,0.062561,0.121328,0.239740,-0.729355,0.096315,-0.203884,-0.406862,1.261748,-0.903924,-0.111322,-0.050264,0.118867,0.157382,0.231672,0.735939,-0.300318,0.195551,-0.231478,0.046326,0.514626,-0.057840
-0.407051,0.188365,0.728586,-0.215263,0.093103,-0.018189,0.307881,-0.379138,0.080378,0.179623,0.340261,-0.808171,0.102006,-0.168153,-0.453305,1.293349,-0.883676,-0.015439,-0.035279,0.109797,0.135668,0.212470,0.742165,-0.267541,0.331065,-0.288508,-0.007202,0.556714,-0.061717
-0.411127,0.177742,0.742984,-0.229836,0.070291,-0.028824,0.276997,-0.374263,0.101620,0.244291,0.447342,-0.877910,0.109717,-0.139373,-0.489823,1.320367,-0.862801,0.062663,-0.015932,0.101949,0.116710,0.194076,0.745754,-0.240004,0.441465,-0.332906,-0.049926,0.590361,-0.062340
-0.417859,0.162036,0.751328,-0.238268,0.040151,-0.035888,0.267887,-0.374263,0.128753,0.321709,0.567551,-0.929495,0.121468,-0.124497,-0.506489,1.338220,-0.840671,0.105203,0.013359,0.096545,0.103263,0.177296,0.742169,-0.222945,0.501638,-0.352041,-0.071043,0.607130,-0.056454
-0.408177,0.130060,0.748550,-0.236580,0.018022,-0.030628,0.254359,-0.366419,0.150485,0.387980,0.721947,-0.965220,0.143054,-0.132882,-0.447371,1.346655,-0.820794,0.136588,0.023581,0.087223,0.099613,0.168679,0.728206,-0.210128,0.523279,-0.365544,-0.078082,0.621338,-0.052522
-0.390287,0.089948,0.740210,-0.229833,-0.000103,-0.019205,0.238623,-0.354792,0.169518,0.448678,0.893445,-0.993015,0.169558,-0.152900,-0.350355,1.350381,-0.802043,0.162396,0.023581,0.075942,0.100862,0.164144,0.709053,-0.199431,0.525652,-0.376232,-0.078082,0.634267,-0.049568
-0.363339,0.009760,0.728487,-0.220503,-0.010627,-0.001245,0.210823,-0.335728,0.179850,0.480379,1.066427,-1.001122,0.205616,-0.178752,-0.149575,1.338975,-0.788695,0.171136,0.054728,0.060712,0.112210,0.164916,0.686951,-0.193643,0.464449,-0.380409,-0.061370,0.644864,-0.047349
-0.337084,-0.061011,0.716361,-0.213022,-0.023939,0.015738,0.183741,-0.319724,0.189967,0.505712,1.208960,-1.003429,0.239813,-0.202462,-0.008699,1.327269,-0.774077,0.174399,0.080051,0.045705,0.123484,0.166091,0.670288,-0.189428,0.402263,-0.383357,-0.045514,0.652909,-0.043522
-0.312214,-0.112959,0.703430,-0.209236,-0.042830,0.030770,0.158092,-0.309838,0.199657,0.518316,1.290617,-0.994139,0.270291,-0.221894,0.012383,1.314961,-0.756917,0.166711,0.094648,0.031143,0.134609,0.166091,0.664502,-0.189428,0.338107,-0.383357,-0.031566,0.655852,-0.036480
-0.286411,-0.158559,0.688042,-0.206380,-0.073726,0.045901,0.135562,-0.300082,0.203803,0.520381,1.344509,-0.975686,0.299887,-0.238039,-0.013148,1.307004,-0.735502,0.156630,0.095707,0.021074,0.141076,0.173472,0.667532,-0.186102,0.235231,-0.387593,-0.010916,0.655412,-0.017843
-0.260140,-0.200987,0.671424,-0.203988,-0.110626,0.061082,0.114592,-0.290392,0.204719,0.517177,1.384521,-0.952651,0.329042,-0.252540,-0.061987,1.301223,-0.711959,0.145352,0.089998,0.013250,0.145215,0.183939,0.674971,-0.181648,0.112992,-0.393700,0.013087,0.653279,0.006592
-0.231999,-0.232759,0.647190,-0.195212,-0.150774,0.075167,0.090774,-0.287497,0.199252,0.502589,1.375096,-0.931580,0.346401,-0.260163,-0.082160,1.301223,-0.680180,0.133256,0.071148,0.013250,0.141673,0.202063,0.700250,-0.169891,0.049918,-0.401640,0.030386,0.648966,0.028027
-0.204478,-0.260159,0.621808,-0.185692,-0.190781,0.088051,0.065885,-0.286845,0.192585,0.486704,1.352475,-0.912550,0.363354,-0.266386,-0.101272,1.300758,-0.646681,0.121385,0.051684,0.014612,0.134464,0.218850,0.728867,-0.159215,-0.004152,-0.408764,0.047211,0.645555,0.048535
-0.178193,-0.278816,0.594128,-0.174684,-0.230508,0.098534,0.038856,-0.290677,0.183519,0.468229,1.303460,-0.897599,0.379495,-0.269811,-0.118262,1.300758,-0.609739,0.109962,0.030990,0.020141,0.119919,0.232966,0.764159,-0.150703,-0.040218,-0.414256,0.063089,0.643946,0.067187
-0.153838,-0.289757,0.570400,-0.160974,-0.268000,0.107013,0.014054,-0.299493,0.173575,0.448700,1.230989,-0.887759,0.395889,-0.272339,-0.133231,1.298906,-0.574514,0.097565,0.012495,0.025733,0.104011,0.244460,0.802922,-0.145089,-0.067719,-0.417715,0.078790,0.644148,0.085845
-0.130449,-0.296840,0.548647,-0.145914,-0.304374,0.114488,-0.009634,-0.310802,0.163193,0.428644,1.146791,-0.880474,0.412409,-0.274420,-0.147187,1.297325,-0.540151,0.084682,-0.004899,0.031357,0.087422,0.254641,0.843419,-0.140926,-0.090937,-0.420155,0.094402,0.644148,0.104504
-0.111849,-0.293474,0.536070,-0.129044,-0.336035,0.118914,-0.025435,-0.331388,0.154628,0.411942,1.033574,-0.882183,0.427481,-0.277159,-0.155347,1.294796,-0.513471,0.069533,-0.020837,0.032195,0.077951,0.263906,0.882047,-0.139184,-0.098808,-0.420605,0.105275,0.647787,0.120284
-0.094568,-0.288577,0.525492,-0.113250,-0.363042,0.120979,-0.039769,-0.349336,0.147510,0.396294,0.912648,-0.884793,0.441593,-0.280001,-0.159255,1.292606,-0.489599,0.054103,-0.034695,0.032073,0.070266,0.272465,0.916614,-0.137366,-0.104664,-0.421055,0.114929,0.650824,0.135407
-0.079926,-0.280618,0.518912,-0.099608,-0.380739,0.120979,-0.051170,-0.362008,0.143285,0.382751,0.776309,-0.889206,0.453784,-0.283046,-0.154658,1.291094,-0.471343,0.038111,-0.044393,0.029193,0.066156,0.279610,0.943060,-0.137366,-0.104664,-0.421055,0.122147,0.654132,0.149216
-0.066402,-0.273759,0.514711,-0.089435,-0.386125,0.115295,-0.060010,-0.352090,0.141073,0.368732,0.631234,-0.891560,0.464989,-0.286633,-0.132724,1.288091,-0.458106,0.022551,-0.033521,0.026942,0.063016,0.285069,0.957922,-0.136186,-0.109425,-0.419830,0.129900,0.656347,0.164449
-0.053437,-0.267452,0.511700,-0.080995,-0.386125,0.108098,-0.067568,-0.330877,0.139867,0.354474,0.481796,-0.891560,0.475699,-0.290491,-0.102123,1.284343,-0.447379,0.007208,-0.012364,0.025005,0.060361,0.289684,0.966990,-0.136186,-0.115653,-0.417646,0.137921,0.658014,0.180393
-0.041350,-0.256137,0.508762,-0.074861,-0.378591,0.099933,-0.072708,-0.272196,0.140401,0.343809,0.341971,-0.885552,0.483694,-0.296182,-0.091991,1.272867,-0.444487,-0.008784,0.002021,0.025402,0.059049,0.290898,0.964639,-0.135661,-0.126620,-0.411319,0.147113,0.656489,0.198524
-0.027661,-0.241878,0.505573,-0.066517,-0.373205,0.093911,-0.078141,-0.222689,0.142358,0.334621,0.216111,-0.875311,0.489481,-0.303061,-0.089515,1.258298,-0.444096,-0.025293,0.014664,0.027694,0.058847,0.290875,0.960595,-0.136500,-0.137498,-0.402689,0.156277,0.652780,0.217753
-0.010770,-0.221731,0.501882,-0.053753,-0.371088,0.092171,-0.084162,-0.191529,0.146627,0.328387,0.118184,-0.858369,0.490852,-0.312316,-0.102351,1.237544,-0.448706,-0.042835,0.023826,0.033377,0.060863,0.288379,0.953163,-0.138945,-0.148193,-0.389457,0.165387,0.644704,0.239176
0.006711,-0.215729,0.499661,-0.034281,-0.371307,0.093913,-0.086169,-0.201801,0.153074,0.326746,0.090882,-0.830116,0.485324,-0.323674,-0.114796,1.211040,-0.457650,-0.062842,0.038139,0.044046,0.066879,0.280295,0.946193,-0.147213,-0.155017,-0.368315,0.173197,0.626446,0.260526
0.024486,-0.215729,0.499661,-0.011454,-0.371307,0.097396,-0.086169,-0.232789,0.160609,0.326746,0.098897,-0.796208,0.476347,-0.336084,-0.127044,1.181660,-0.468760,-0.084081,0.055028,0.057208,0.074894,0.269417,0.939454,-0.158393,-0.159906,-0.343220,0.180357,0.603097,0.281838
0.030744,-0.239879,0.494090,0.022166,-0.367377,0.102511,-0.083728,-0.271884,0.160406,0.339603,0.177875,-0.743432,0.452447,-0.350556,-0.137903,1.149095,-0.483779,-0.110109,0.032306,0.068249,0.091452,0.260989,0.940386,-0.179508,-0.158305,-0.310580,0.182794,0.562547,0.288860
0.037907,-0.259189,0.484855,0.056543,-0.358458,0.107971,-0.082785,-0.301295,0.159540,0.352875,0.252340,-0.685264,0.424116,-0.364615,-0.139431,1.112151,-0.498017,-0.135310,0.022274,0.077049,0.109879,0.259664,0.944243,-0.198290,-0.156374,-0.277554,0.183331,0.514734,0.287434
0.046882,-0.270245,0.466307,0.092434,-0.341411,0.114120,-0.085285,-0.311335,0.157552,0.367850,0.317769,-0.616314,0.386923,-0.377844,-0.122295,1.066451,-0.510697,-0.158857,0.037628,0.081367,0.132044,0.272544,0.953023,-0.212407,-0.156374,-0.243757,0.180071,0.452397,0.269112
0.056037,-0.276732,0.443954,0.125537,-0.323004,0.117676,-0.084731,-0.314682,0.154867,0.386464,0.375763,-0.544816,0.344833,-0.389235,-0.101008,1.009378,-0.518600,-0.175250,0.051434,0.083027,0.154784,0.302757,0.961792,-0.217434,-0.156882,-0.205580,0.175971,0.371669,0.234305
0.065281,-0.280935,0.419698,0.157245,-0.303917,0.119935,-0.082650,-0.313856,0.151835,0.406899,0.430039,-0.472042,0.300293,-0.399705,-0.077645,0.946617,-0.523449,-0.188067,0.064465,0.083248,0.177811,0.341639,0.970557,-0.217754,-0.158939,-0.165213,0.171451,0.281742,0.191254
0.058060,-0.284505,0.395821,0.187739,-0.286918,0.122215,-0.075617,-0.321247,0.147790,0.455524,0.483448,-0.414384,0.251349,-0.410332,-0.106432,0.881863,-0.523449,-0.179727,0.062736,0.074268,0.200103,0.409386,0.976795,-0.211943,-0.148645,-0.108094,0.168364,0.183434,0.140700
0.044867,-0.280048,0.371228,0.218481,-0.267011,0.126243,-0.067779,-0.330619,0.146230,0.517854,0.524413,-0.361768,0.201047,-0.410239,-0.134956,0.820235,-0.521611,-0.163305,0.056709,0.059618,0.222855,0.486664,0.982490,-0.192510,-0.129918,-0.051895,0.162988,0.084974,0.091164
0.019731,-0.259539,0.345208,0.249717,-0.241290,0.133766,-0.058330,-0.343951,0.149641,0.607587,0.540483,-0.319243,0.148035,-0.388705,-0.162950,0.764864,-0.518095,-0.130719,0.042088,0.033627,0.246521,0.582997,0.987094,-0.145832,-0.094326,0.002455,0.153033,-0.013776,0.043669
-0.016854,-0.221484,0.324669,0.285970,-0.205122,0.142444,-0.037413,-0.351419,0.161540,0.724434,0.527153,-0.282019,0.095093,-0.316053,-0.179803,0.714735,-0.514138,-0.079227,0.022569,-0.004981,0.273574,0.687323,0.985080,-0.074490,-0.052561,0.027031,0.142028,-0.092418,0.010504
-0.059163,-0.174656,0.306871,0.324732,-0.163733,0.151699,-0.010763,-0.355955,0.177683,0.854833,0.499121,-0.247447,0.042189,-0.217845,-0.191082,0.667229,-0.509962,-0.018282,0.000602,-0.049897,0.302319,0.795643,0.979758,0.009181,-0.007710,0.036717,0.130499,-0.161002,-0.015494
-0.086309,-0.128226,0.304249,0.381311,-0.118270,0.156000,0.049340,-0.344445,0.199023,0.959782,0.467865,-0.207324,-0.014321,-0.133637,-0.201717,0.622796,-0.502672,0.069199,-0.020824,-0.093559,0.346877,0.885042,0.974604,0.064515,0.021715,0.031765,0.123492,-0.187956,-0.021816
-0.108171,-0.087940,0.304819,0.428802,-0.075857,0.157226,0.109146,-0.329510,0.217320,1.050351,0.438127,-0.163781,-0.072140,-0.086449,-0.210546,0.579024,-0.493134,0.136185,-0.041036,-0.130468,0.393863,0.961666,0.970271,0.110490,0.042809,0.029967,0.117972,-0.210140,-0.026030
-0.119467,-0.059941,0.311775,0.458112,-0.039541,0.152299,0.168354,-0.307725,0.229532,1.112157,0.411427,-0.113401,-0.132575,-0.113300,-0.215768,0.536574,-0.479098,0.162176,-0.058818,-0.153870,0.445701,1.012741,0.967580,0.137746,0.047240,0.034478,0.115425,-0.222787,-0.026030
-0.137950,-0.037919,0.320740,0.456704,-0.009129,0.142609,0.208472,-0.282510,0.235990,1.154811,0.382079,-0.058955,-0.191760,-0.137163,-0.216030,0.494485,-0.458815,0.166040,-0.073813,-0.167454,0.492819,1.045187,0.962968,0.157085,0.035380,0.041137,0.116820,-0.233938,-0.024433
-0.160027,-0.018886,0.330708,0.439936,0.018331,0.130537,0.239043,-0.255580,0.239571,1.187886,0.351408,-0.002479,-0.250317,-0.159531,-0.213812,0.452579,-0.435410,0.158840,-0.087414,-0.176128,0.537575,1.068315,0.957397,0.172464,0.015373,0.048869,0.120186,-0.244341,-0.022107
-0.192685,0.002436,0.340056,0.394720,0.041719,0.117702,0.246727,-0.226329,0.240218,1.193469,0.314606,0.053809,-0.294591,-0.161357,-0.207843,0.412349,-0.406533,0.131367,-0.097727,-0.183700,0.561985,1.072603,0.937969,0.172338,-0.018076,0.051138,0.127187,-0.248716,-0.017603
-0.225739,0.025256,0.350356,0.345807,0.063517,0.105466,0.250993,-0.196921,0.240865,1.189408,0.277137,0.106595,-0.331882,-0.164825,-0.202021,0.373393,-0.379695,0.100165,-0.107505,-0.189575,0.581206,1.073763,0.912082,0.169488,-0.050302,0.051855,0.133708,-0.254335,-0.012244
-0.259584,0.051071,0.362561,0.289503,0.082137,0.094429,0.250993,-0.167201,0.240865,1.166060,0.238335,0.152378,-0.355209,-0.171579,-0.196492,0.336990,-0.356935,0.061505,-0.116211,-0.189575,0.590049,1.068667,0.873279,0.161318,-0.080082,0.051855,0.139267,-0.262443,-0.005174
-0.291177,0.077913,0.375724,0.235846,0.098048,0.082984,0.248852,-0.139429,0.242159,1.123694,0.200340,0.187094,-0.369543,-0.180999,-0.192310,0.306769,-0.342077,0.027448,-0.124514,-0.195778,0.600112,1.065453,0.823276,0.152233,-0.098755,0.052492,0.141120,-0.276267,0.002373
-0.321643,0.105267,0.389367,0.183514,0.112604,0.071335,0.246925,-0.112633,0.243521,1.071820,0.162751,0.216276,-0.379380,-0.191752,-0.188803,0.279640,-0.331171,-0.004305,-0.132614,-0.203840,0.610785,1.063180,0.767673,0.142691,-0.111874,0.054642,0.141120,-0.292947,0.010158
-0.348486,0.127776,0.401527,0.142601,0.124942,0.057701,0.245058,-0.090920,0.246428,0.994803,0.134536,0.229097,-0.386318,-0.196648,-0.189048,0.264417,-0.330444,-0.019640,-0.142207,-0.223107,0.631055,1.062547,0.704988,0.131695,-0.112746,0.059404,0.134333,-0.309253,0.015758
-0.373462,0.146161,0.412708,0.105222,0.136825,0.043280,0.244760,-0.068608,0.249391,0.909382,0.113106,0.238583,-0.393940,-0.197896,-0.192253,0.252420,-0.331081,-0.031280,-0.151088,-0.243460,0.652785,1.059659,0.643834,0.123862,-0.114054,0.063838,0.127015,-0.323408,0.020700
-0.394705,0.156297,0.421932,0.074914,0.147797,0.027286,0.244760,-0.045098,0.252464,0.807158,0.105245,0.241399,-0.402929,-0.191852,-0.201136,0.246874,-0.335171,-0.035531,-0.158545,-0.265985,0.677434,1.052897,0.585742,0.122353,-0.115358,0.067618,0.117327,-0.333264,0.024323
-0.410069,0.159854,0.427915,0.050326,0.158115,0.010892,0.248977,-0.022360,0.255555,0.689302,0.109885,0.241769,-0.414553,-0.178096,-0.214700,0.246300,-0.339626,-0.039754,-0.166953,-0.289065,0.703785,1.041187,0.535553,0.126270,-0.118603,0.069269,0.107730,-0.335187,0.028366
-0.422492,0.159854,0.432277,0.028600,0.168106,-0.005700,0.253882,-0.000009,0.258655,0.563634,0.120774,0.241769,-0.427495,-0.160486,-0.230606,0.248213,-0.344263,-0.043963,-0.175837,-0.312422,0.730988,1.027005,0.489318,0.132900,-0.122819,0.069269,0.098178,-0.333144,0.032618
-0.423123,0.161644,0.429192,0.013813,0.178493,-0.020597,0.274840,0.020762,0.262468,0.427553,0.136375,0.238608,-0.442227,-0.147705,-0.248440,0.256676,-0.344833,-0.044547,-0.181467,-0.335792,0.758435,1.011298,0.461115,0.137624,-0.124326,0.065617,0.092304,-0.318284,0.037944
-0.423281,0.165729,0.424354,-0.002725,0.187266,-0.035541,0.293471,0.040803,0.267073,0.299667,0.150971,0.234801,-0.456086,-0.138733,-0.266215,0.266717,-0.344005,-0.056342,-0.185841,-0.358146,0.784663,0.997002,0.439650,0.139790,-0.124364,0.060954,0.087674,-0.303078,0.042744
-0.421865,0.174763,0.416010,-0.022766,0.192813,-0.050579,0.307444,0.059384,0.273262,0.188174,0.163556,0.228565,-0.468198,-0.137383,-0.283870,0.279913,-0.339815,-0.089974,-0.187703,-0.378470,0.808453,0.985532,0.431659,0.139790,-0.124364,0.055049,0.085532,-0.287185,0.046493
-0.420092,0.184832,0.406342,-0.044038,0.195715,-0.065410,0.283943,0.078992,0.281078,0.118294,0.181516,0.219436,-0.477060,-0.147254,-0.302946,0.295767,-0.332939,-0.128007,-0.190686,-0.395660,0.828443,0.975992,0.436560,0.135051,-0.122231,0.047913,0.083888,-0.269641,0.049295
-0.418141,0.195418,0.396011,-0.065924,0.197293,-0.080136,0.241706,0.099113,0.289705,0.069226,0.202162,0.208861,-0.484298,-0.162737,-0.322731,0.312948,-0.324720,-0.168238,-0.194228,-0.411282,0.846530,0.967417,0.447907,0.129417,-0.120951,0.040161,0.082008,-0.251273,0.051624
-0.435128,0.203685,0.386275,-0.076153,0.195626,-0.096603,0.201268,0.117720,0.301382,0.139394,0.241193,0.189302,-0.487283,-0.158881,-0.351527,0.334589,-0.306832,-0.136586,-0.197251,-0.424887,0.856131,0.967417,0.482129,0.115828,-0.120951,0.029644,0.082008,-0.227660,0.050176
-0.448963,0.208734,0.380267,-0.084440,0.189671,-0.114804,0.175082,0.136730,0.312913,0.204244,0.284233,0.165624,-0.486476,-0.135056,-0.378338,0.355560,-0.292229,-0.102427,-0.198087,-0.437737,0.865216,0.973284,0.518971,0.102855,-0.121869,0.020666,0.078597,-0.207433,0.045263
-0.456492,0.207347,0.381716,-0.088845,0.175141,-0.136471,0.175082,0.156547,0.324150,0.258453,0.335288,0.133708,-0.478086,-0.071293,-0.401175,0.375188,-0.284194,-0.063258,-0.194550,-0.449079,0.873268,0.989417,0.561053,0.091117,-0.123214,0.014771,0.071209,-0.193981,0.033419
-0.462110,0.197277,0.384138,-0.083622,0.161059,-0.154623,0.192614,0.167503,0.334494,0.314446,0.403730,0.095302,-0.459632,-0.047401,-0.417805,0.390223,-0.280616,-0.038592,-0.182626,-0.453113,0.877123,1.017887,0.607015,0.084913,-0.114199,0.011818,0.059523,-0.183922,0.013032
-0.466772,0.182865,0.387046,-0.073584,0.147201,-0.171019,0.217753,0.174029,0.344391,0.371329,0.480864,0.053652,-0.436146,-0.043447,-0.431330,0.402960,-0.280616,-0.021179,-0.166508,-0.453113,0.878879,1.052523,0.654915,0.081475,-0.100004,0.010337,0.045688,-0.175559,-0.011627
-0.459896,0.157823,0.379346,-0.064243,0.144365,-0.174532,0.229102,0.163768,0.352867,0.427696,0.591831,0.006616,-0.394806,-0.082659,-0.420048,0.403426,-0.287679,0.003850,-0.110190,-0.431815,0.861942,1.096139,0.688349,0.094392,-0.049173,0.015339,0.032331,-0.160890,-0.043942
-0.441864,0.121221,0.371383,-0.055175,0.145126,-0.176354,0.237772,0.149566,0.360021,0.467114,0.720513,-0.037381,-0.348930,-0.119257,-0.371795,0.404805,-0.301983,0.024551,-0.045820,-0.404328,0.843894,1.133017,0.712956,0.111171,0.003563,0.023230,0.022783,-0.142817,-0.068280
-0.401523,0.061500,0.362897,-0.046649,0.153081,-0.174797,0.241085,0.127483,0.364533,0.472632,0.884616,-0.075299,-0.293982,-0.150624,-0.249603,0.407550,-0.328969,0.036596,0.034651,-0.364971,0.823629,1.156422,0.719909,0.135673,0.060107,0.036901,0.020857,-0.117939,-0.076665
-0.355516,-0.001166,0.353796,-0.042519,0.145438,-0.172662,0.248902,0.099146,0.369370,0.467433,1.027530,-0.108985,-0.237322,-0.174303,-0.148504,0.412909,-0.361059,0.040268,0.089553,-0.325242,0.806030,1.168257,0.726633,0.146751,0.096772,0.046806,0.021032,-0.092598,-0.075240
-0.306678,-0.065303,0.344389,-0.040587,0.129994,-0.170239,0.258971,0.067683,0.374370,0.456875,1.159844,-0.140552,-0.179808,-0.194136,-0.057955,0.419576,-0.395699,0.040268,0.131666,-0.285328,0.789766,1.174306,0.733242,0.151116,0.123496,0.054829,0.021032,-0.067027,-0.068909
-0.261070,-0.115661,0.328947,-0.040587,0.099496,-0.159793,0.265268,0.036133,0.366906,0.436501,1.224876,-0.168920,-0.118948,-0.208679,-0.065469,0.423573,-0.426574,0.039926,0.097652,-0.249349,0.764976,1.176298,0.753884,0.127969,0.122777,0.048434,0.023605,-0.047413,-0.065856
-0.213436,-0.163771,0.312493,-0.041512,0.070280,-0.148059,0.271329,0.006610,0.357053,0.409290,1.275535,-0.196118,-0.057069,-0.221019,-0.074506,0.426941,-0.454846,0.039394,0.064392,-0.214934,0.733810,1.175197,0.777048,0.094668,0.113394,0.037732,0.028080,-0.026795,-0.063360
-0.161750,-0.207386,0.294016,-0.043184,0.043633,-0.133748,0.276917,-0.018857,0.342425,0.368408,1.297450,-0.220977,0.006848,-0.228955,-0.086583,0.426941,-0.477915,0.039394,0.032642,-0.183645,0.689892,1.167910,0.805254,0.041062,0.087403,0.018416,0.037992,-0.004171,-0.061979
-0.110858,-0.250233,0.272168,-0.043742,0.030839,-0.121206,0.282256,-0.035020,0.325084,0.321097,1.295034,-0.240447,0.063170,-0.234428,-0.093883,0.431538,-0.492642,0.035552,0.010250,-0.157684,0.639850,1.148595,0.839318,-0.000665,0.063120,0.005558,0.052221,0.010942,-0.060589
-0.060364,-0.292693,0.248635,-0.043742,0.024973,-0.109549,0.287471,-0.046531,0.306387,0.270574,1.280453,-0.257223,0.115693,-0.238669,-0.098794,0.437379,-0.503196,0.030485,-0.007464,-0.134388,0.586747,1.123266,0.876308,-0.036451,0.039690,-0.004070,0.068608,0.022299,-0.059193
-0.011091,-0.328560,0.217573,-0.041112,0.033792,-0.098217,0.291742,-0.048851,0.287625,0.217963,1.231643,-0.265196,0.158692,-0.241042,-0.109787,0.449811,-0.511825,0.022737,-0.005559,-0.122613,0.527479,1.085105,0.908400,-0.055563,0.026167,-0.007590,0.087437,0.028083,-0.057536
0.035379,-0.361122,0.185373,-0.039114,0.040923,-0.087317,0.295052,-0.051340,0.270795,0.172253,1.173989,-0.271773,0.198537,-0.246305,-0.123256,0.464239,-0.521284,0.015712,-0.002894,-0.115259,0.467707,1.044704,0.937246,-0.072851,0.015798,-0.011560,0.106567,0.034081,-0.055128
0.076241,-0.387071,0.150900,-0.039114,0.044677,-0.077281,0.295052,-0.051340,0.257832,0.140343,1.098652,-0.275559,0.232073,-0.257346,-0.141677,0.482657,-0.532405,0.010134,0.001290,-0.115259,0.406929,0.999826,0.959600,-0.086491,0.011738,-0.016427,0.126300,0.040510,-0.051217
0.105203,-0.408333,0.117155,-0.039296,0.038989,-0.070401,0.294308,-0.057499,0.247238,0.129139,1.007729,-0.280751,0.259723,-0.276185,-0.153619,0.503688,-0.543331,0.004834,0.000518,-0.121540,0.350033,0.955553,0.977312,-0.098466,0.018530,-0.023387,0.140470,0.048506,-0.045263
0.128213,-0.427250,0.083775,-0.039296,0.028580,-0.065100,0.292496,-0.065323,0.237828,0.129139,0.909016,-0.286646,0.284429,-0.298924,-0.162322,0.526026,-0.554158,-0.000326,-0.002733,-0.130217,0.295080,0.911584,0.992703,-0.109608,0.030748,-0.031394,0.151858,0.057286,-0.038288
0.146929,-0.435720,0.056904,-0.041867,0.016261,-0.061072,0.294265,-0.073085,0.228408,0.129038,0.779897,-0.294536,0.303785,-0.321081,-0.147544,0.546443,-0.561838,-0.006573,-0.014193,-0.141986,0.250702,0.871995,1.003554,-0.117350,0.057199,-0.041117,0.153403,0.068446,-0.031705
0.167310,-0.439383,0.032243,-0.044983,0.006847,-0.056596,0.296566,-0.073804,0.218696,0.125972,0.640991,-0.301204,0.322509,-0.341006,-0.121730,0.564423,-0.568343,-0.013199,-0.022271,-0.152091,0.209538,0.833680,1.012383,-0.123521,0.080299,-0.049615,0.154432,0.078518,-0.025822
0.191018,-0.433431,0.012003,-0.050745,0.003241,-0.051225,0.299932,-0.060437,0.208403,0.115381,0.482511,-0.305429,0.339970,-0.356467,-0.073847,0.577530,-0.572499,-0.020587,-0.023583,-0.158869,0.174800,0.797913,1.017164,-0.126548,0.096697,-0.055666,0.154432,0.086414,-0.021342
0.212679,-0.421447,-0.007241,-0.057685,-0.001655,-0.044374,0.298800,-0.035695,0.197567,0.107627,0.325419,-0.305662,0.357586,-0.371394,-0.032287,0.584376,-0.574347,-0.027126,-0.030665,-0.163661,0.147307,0.761203,1.018758,-0.127557,0.103948,-0.057683,0.153339,0.091258,-0.015917
0.233316,-0.406448,-0.025985,-0.065215,-0.007198,-0.036784,0.295419,-0.005266,0.186459,0.101293,0.169026,-0.303899,0.375279,-0.386054,0.006111,0.588091,-0.574810,-0.033242,-0.040632,-0.167459,0.123436,0.724024,1.018999,-0.127636,0.107434,-0.057146,0.152374,0.094575,-0.010019
0.242925,-0.393929,-0.044813,-0.062941,-0.018186,-0.024251,0.282724,0.001178,0.179695,0.120398,0.078928,-0.299466,0.390931,-0.411289,-0.043671,0.584774,-0.571214,-0.040210,-0.008595,-0.174988,0.111222,0.685402,1.015113,-0.126000,0.107434,-0.054761,0.149078,0.096826,0.000737
0.249720,-0.393532,-0.058859,-0.055672,-0.026209,-0.009046,0.272819,-0.004322,0.174377,0.146096,0.039269,-0.295143,0.403590,-0.438382,-0.076221,0.578930,-0.567615,-0.049582,0.017591,-0.183620,0.105101,0.648675,1.011550,-0.124088,0.107006,-0.053172,0.145324,0.099282,0.013367
0.250889,-0.417377,-0.063342,-0.038414,-0.026209,0.011503,0.268493,-0.033711,0.171954,0.184980,0.100482,-0.291039,0.410264,-0.469191,-0.074306,0.568031,-0.564013,-0.063764,0.032075,-0.194458,0.111167,0.615738,1.008636,-0.121625,0.103299,-0.053172,0.140656,0.102151,0.029744
0.254058,-0.438530,-0.066120,-0.014196,-0.015684,0.035175,0.268811,-0.053278,0.170530,0.227841,0.172094,-0.275583,0.407139,-0.499012,-0.047646,0.553284,-0.559707,-0.078716,0.033880,-0.203574,0.127952,0.585972,1.011237,-0.119176,0.094580,-0.055724,0.133502,0.105392,0.046388
0.258227,-0.458336,-0.068044,0.013500,0.001153,0.060409,0.271451,-0.067932,0.170530,0.272689,0.248903,-0.254452,0.399116,-0.528340,-0.008613,0.536613,-0.555048,-0.094053,0.029344,-0.211828,0.150098,0.557792,1.016596,-0.116734,0.083356,-0.060071,0.125106,0.108820,0.063165
0.252315,-0.466346,-0.081182,0.042889,0.018196,0.079962,0.267180,-0.070101,0.172015,0.340028,0.312509,-0.222767,0.379144,-0.554929,0.010048,0.519141,-0.542384,-0.095834,0.027730,-0.226410,0.170635,0.543009,1.021615,-0.119018,0.064061,-0.070988,0.117472,0.109373,0.075927
0.243861,-0.470377,-0.092905,0.072586,0.033113,0.096793,0.263193,-0.074833,0.177521,0.418416,0.375233,-0.190691,0.356824,-0.573673,0.017849,0.501105,-0.527477,-0.090767,0.016250,-0.241605,0.190525,0.534095,1.024565,-0.119874,0.045494,-0.082035,0.111178,0.106093,0.086585
0.230322,-0.466449,-0.101798,0.102899,0.043780,0.108183,0.259778,-0.084692,0.189835,0.518901,0.436194,-0.157835,0.329811,-0.576721,0.003932,0.481940,-0.508084,-0.072001,-0.014963,-0.258027,0.209121,0.536917,1.023381,-0.117877,0.028387,-0.093338,0.107562,0.094592,0.093035
0.199074,-0.441604,-0.105207,0.135601,0.057390,0.117941,0.247032,-0.092370,0.205044,0.657914,0.467126,-0.127023,0.300609,-0.525803,-0.016503,0.462280,-0.488447,-0.036199,-0.040334,-0.276156,0.232399,0.546290,1.017805,-0.107245,0.025416,-0.095338,0.104172,0.074131,0.094353
0.158971,-0.406298,-0.105207,0.169496,0.072472,0.126884,0.229621,-0.098957,0.221700,0.816188,0.483041,-0.097235,0.270313,-0.447902,-0.040196,0.442373,-0.468689,0.008121,-0.062784,-0.295137,0.258018,0.558937,1.010032,-0.092297,0.029514,-0.092685,0.100895,0.049191,0.094353
0.079551,-0.352763,-0.095424,0.214146,0.090531,0.130615,0.212636,-0.101841,0.238913,1.006141,0.472170,-0.075321,0.233879,-0.264609,-0.064639,0.425114,-0.449928,0.031124,-0.075079,-0.316536,0.300100,0.582539,1.004693,-0.065437,0.051184,-0.074040,0.094352,0.011924,0.083086
0.008528,-0.302893,-0.081935,0.253086,0.107774,0.133436,0.199424,-0.102785,0.254757,1.164901,0.461178,-0.057076,0.192751,-0.137768,-0.087633,0.407770,-0.432201,0.050982,-0.085658,-0.337366,0.347904,0.613199,1.002416,-0.039556,0.069856,-0.057322,0.088285,-0.022613,0.072409
-0.045704,-0.260354,-0.061927,0.280607,0.123387,0.133436,0.193760,-0.099845,0.267864,1.261281,0.449945,-0.046169,0.142232,-0.123836,-0.107731,0.390251,-0.416538,0.064554,-0.092805,-0.357060,0.407157,0.657977,1.006262,-0.015628,0.082533,-0.044462,0.083170,-0.051695,0.061252
-0.099247,-0.217206,-0.040329,0.287359,0.131713,0.128126,0.186797,-0.094299,0.275717,1.320537,0.426433,-0.041435,0.081540,-0.134628,-0.122346,0.371244,-0.399789,0.078558,-0.097319,-0.377274,0.474288,0.725702,1.018122,0.005643,0.087161,-0.037766,0.080325,-0.072539,0.049717
-0.152444,-0.173755,-0.017938,0.283727,0.136395,0.119661,0.179185,-0.087451,0.280943,1.361231,0.396781,-0.039788,0.015761,-0.157783,-0.134219,0.351494,-0.382495,0.092778,-0.100517,-0.397747,0.545358,0.804900,1.033988,0.025587,0.087161,-0.034153,0.078615,-0.089264,0.037992
-0.205656,-0.124700,0.003281,0.262058,0.134891,0.103929,0.173592,-0.080363,0.281062,1.360977,0.350657,-0.040437,-0.050784,-0.156586,-0.138041,0.330717,-0.358028,0.074184,-0.101683,-0.406773,0.598708,0.904732,1.044256,0.036514,0.069513,-0.038145,0.081927,-0.087205,0.028207
-0.255879,-0.076874,0.024435,0.237437,0.131778,0.087409,0.170548,-0.072420,0.279795,1.347560,0.304555,-0.040538,-0.113410,-0.158108,-0.141166,0.310621,-0.332875,0.053202,-0.101774,-0.409575,0.641063,1.000904,1.048166,0.048145,0.043491,-0.039627,0.087832,-0.082341,0.019404
-0.300127,-0.031506,0.045459,0.206908,0.125445,0.069310,0.172601,-0.062765,0.275636,1.308069,0.258493,-0.040538,-0.168199,-0.165071,-0.141166,0.291886,-0.306352,0.027447,-0.099714,-0.399928,0.661430,1.089763,1.039363,0.061185,0.001522,-0.036091,0.098921,-0.071870,0.012563
-0.337342,0.009021,0.067449,0.183561,0.119209,0.053382,0.181326,-0.053706,0.270833,1.249425,0.220709,-0.033450,-0.212471,-0.177005,-0.145929,0.278871,-0.286129,-0.000102,-0.095956,-0.385746,0.668220,1.154552,1.015002,0.078248,-0.035726,-0.023162,0.109942,-0.064385,0.008316
-0.371040,0.047126,0.089922,0.163805,0.113023,0.038541,0.193388,-0.044944,0.265710,1.181205,0.187065,-0.023640,-0.251481,-0.191426,-0.152208,0.268716,-0.269058,-0.028546,-0.091349,-0.369296,0.668220,1.207304,0.982861,0.097324,-0.070612,-0.005538,0.120929,-0.058393,0.005366
-0.396827,0.079713,0.109747,0.156168,0.110417,0.028903,0.207444,-0.036508,0.261461,1.089920,0.161994,-0.009181,-0.284087,-0.198241,-0.162946,0.266068,-0.260427,-0.038546,-0.087215,-0.355696,0.663451,1.226660,0.939854,0.119148,-0.083103,0.016800,0.125180,-0.057658,0.001912
-0.419390,0.109327,0.129012,0.150260,0.107868,0.020058,0.221997,-0.027788,0.256694,0.989866,0.141406,0.007082,-0.315026,-0.201452,-0.175070,0.265355,-0.254159,-0.047181,-0.083801,-0.342341,0.658201,1.237124,0.894352,0.137896,-0.087629,0.035816,0.126095,-0.059623,-0.002451
-0.435507,0.132997,0.147158,0.147810,0.107868,0.012797,0.237547,-0.018501,0.250889,0.872269,0.129780,0.026958,-0.342633,-0.197452,-0.189969,0.268512,-0.254159,-0.053088,-0.081830,-0.329477,0.653144,1.229802,0.843858,0.150492,-0.076228,0.048187,0.120337,-0.067724,-0.008630
-0.444618,0.155598,0.162909,0.144885,0.107461,0.007172,0.251455,-0.011765,0.243074,0.736828,0.117875,0.048353,-0.365245,-0.189492,-0.205818,0.272673,-0.257117,-0.062725,-0.079060,-0.316379,0.647176,1.212729,0.789974,0.153346,-0.060299,0.052311,0.110979,-0.079982,-0.016479
-0.450226,0.177664,0.177463,0.141723,0.107461,0.002364,0.264542,-0.006304,0.234253,0.592467,0.105832,0.070508,-0.385358,-0.179552,-0.222140,0.277338,-0.262324,-0.074228,-0.075892,-0.303166,0.640753,1.190781,0.734397,0.151329,-0.042108,0.052311,0.099820,-0.094318,-0.025162
-0.443852,0.201409,0.189458,0.131753,0.107736,-0.001132,0.258712,-0.003551,0.223929,0.430555,0.089894,0.091654,-0.395518,-0.151079,-0.232407,0.279980,-0.272306,-0.074229,-0.070885,-0.290156,0.634352,1.166071,0.675478,0.130566,-0.027448,0.044476,0.087454,-0.106755,-0.035335
-0.437139,0.220915,0.201468,0.121917,0.105688,-0.005585,0.254137,0.000726,0.214310,0.282621,0.082788,0.109591,-0.404780,-0.124443,-0.245697,0.280857,-0.282328,-0.086879,-0.064813,-0.277883,0.629040,1.143852,0.619623,0.110512,-0.015482,0.036620,0.076738,-0.115846,-0.044651
-0.429747,0.231943,0.213506,0.112352,0.099935,-0.011951,0.252073,0.008050,0.206099,0.162638,0.093347,0.121110,-0.412244,-0.101482,-0.265036,0.280857,-0.292430,-0.124828,-0.056610,-0.267085,0.625906,1.126615,0.569892,0.091876,-0.008904,0.028934,0.069322,-0.118245,-0.052255
-0.444407,0.236843,0.218947,0.111075,0.089779,-0.022540,0.266481,0.012253,0.201748,0.151806,0.122539,0.124107,-0.417477,-0.096865,-0.295794,0.280937,-0.304638,-0.130357,-0.048556,-0.262008,0.625767,1.114974,0.525223,0.078256,-0.000326,0.022327,0.061107,-0.118108,-0.060423
-0.470095,0.238679,0.221088,0.113943,0.077423,-0.035242,0.289126,0.014894,0.199328,0.195552,0.161047,0.124107,-0.421594,-0.101421,-0.332260,0.280937,-0.317898,-0.119675,-0.040576,-0.259792,0.625767,1.106133,0.483086,0.067144,0.009253,0.016260,0.052494,-0.116701,-0.068873
-0.491836,0.248372,0.221568,0.109167,0.053958,-0.057050,0.306258,0.014894,0.204424,0.296241,0.209815,0.110071,-0.416205,-0.076935,-0.369298,0.285142,-0.329927,-0.075633,-0.032414,-0.269336,0.631659,1.114535,0.455267,0.064339,0.025665,0.012714,0.038803,-0.113875,-0.077820
-0.508936,0.257103,0.223423,0.102827,0.029942,-0.078113,0.320165,0.014723,0.210748,0.393138,0.263912,0.092802,-0.405751,-0.066523,-0.404822,0.286847,-0.340184,-0.037532,-0.026322,-0.279934,0.636201,1.129378,0.435603,0.063704,0.043264,0.009254,0.022771,-0.110165,-0.086572
-0.516756,0.263911,0.227553,0.093358,0.004820,-0.097688,0.327625,0.012753,0.219527,0.482455,0.328673,0.067384,-0.385162,-0.084263,-0.437321,0.285480,-0.346899,-0.011315,-0.026322,-0.292640,0.639857,1.157106,0.432246,0.067409,0.063240,0.005965,0.002056,-0.104688,-0.094934
-0.515971,0.255296,0.232427,0.086864,-0.019135,-0.109029,0.337989,0.002662,0.226871,0.553305,0.419475,0.039307,-0.357390,-0.117601,-0.459918,0.278810,-0.351416,0.015969,-0.030358,-0.296875,0.643253,1.183697,0.443273,0.075792,0.080360,0.004291,-0.017512,-0.095916,-0.100953
-0.510882,0.238971,0.237673,0.081857,-0.042506,-0.116252,0.349806,-0.011489,0.233497,0.614920,0.523296,0.009902,-0.326026,-0.158736,-0.477564,0.269490,-0.354836,0.043787,-0.037387,-0.296875,0.646520,1.209718,0.461492,0.086514,0.096051,0.004291,-0.036504,-0.085497,-0.105799
-0.474693,0.178928,0.240090,0.071370,-0.065467,-0.118598,0.360200,-0.024599,0.236129,0.617548,0.695022,-0.012341,-0.296334,-0.186414,-0.389285,0.261938,-0.356586,0.056419,-0.063359,-0.291499,0.656568,1.214434,0.492718,0.098053,0.102447,0.005608,-0.041428,-0.068751,-0.101828
-0.434431,0.117254,0.238789,0.057233,-0.092466,-0.121096,0.369727,-0.040643,0.240607,0.612188,0.861294,-0.033842,-0.269435,-0.210839,-0.304595,0.255980,-0.357290,0.066515,-0.082615,-0.288681,0.666002,1.213914,0.528050,0.102185,0.101922,0.005203,-0.040994,-0.052095,-0.092938
-0.386022,0.052315,0.230050,0.035794,-0.127542,-0.123901,0.377521,-0.062554,0.248776,0.590854,1.016668,-0.053860,-0.248120,-0.228763,-0.227081,0.255980,-0.355900,0.071539,-0.088437,-0.292071,0.674206,1.202923,0.571598,0.091503,0.087553,0.000196,-0.029841,-0.035620,-0.074210
-0.338656,-0.001982,0.215067,0.019144,-0.143393,-0.119441,0.379286,-0.074501,0.255456,0.567361,1.128963,-0.077235,-0.226736,-0.244155,-0.194390,0.256130,-0.352432,0.073213,-0.099206,-0.303253,0.675784,1.191967,0.623285,0.072485,0.061286,-0.008143,-0.016607,-0.022390,-0.053219
-0.291813,-0.050956,0.196960,0.004888,-0.149629,-0.111348,0.378035,-0.081466,0.261391,0.542790,1.219713,-0.102290,-0.205317,-0.258280,-0.184111,0.257737,-0.347925,0.073213,-0.112448,-0.318330,0.674049,1.181029,0.679040,0.049300,0.029070,-0.018147,-0.002332,-0.010784,-0.031096
-0.248996,-0.097357,0.174971,-0.003082,-0.129597,-0.097828,0.371582,-0.082327,0.261391,0.512624,1.260831,-0.132683,-0.181977,-0.265639,-0.187296,0.260039,-0.339368,0.069622,-0.100574,-0.334848,0.662352,1.173978,0.746115,0.029331,-0.013730,-0.028239,0.015051,-0.002396,-0.015676
-0.205034,-0.141543,0.152299,-0.011217,-0.107741,-0.084115,0.364062,-0.084269,0.259802,0.479318,1.289025,-0.162640,-0.156784,-0.271466,-0.188907,0.262633,-0.331855,0.065657,-0.086560,-0.349901,0.647235,1.165857,0.811720,0.014991,-0.049649,-0.035855,0.032565,0.004252,-0.004854
-0.158775,-0.181303,0.128259,-0.019684,-0.082236,-0.070013,0.354405,-0.087512,0.257167,0.439725,1.289025,-0.191724,-0.127887,-0.274232,-0.188907,0.265810,-0.326428,0.060685,-0.068270,-0.362026,0.625276,1.155593,0.874389,0.011911,-0.071806,-0.038517,0.050342,0.007421,-0.003228
-0.113252,-0.216799,0.103655,-0.027991,-0.060784,-0.056186,0.343811,-0.093934,0.252596,0.398872,1.267506,-0.217795,-0.096175,-0.275899,-0.190634,0.270570,-0.325423,0.055479,-0.052748,-0.370108,0.598103,1.140499,0.928389,0.014324,-0.075736,-0.037356,0.068737,0.007377,-0.004764
-0.068097,-0.250163,0.078769,-0.036217,-0.041360,-0.042496,0.332749,-0.101945,0.247058,0.357388,1.234053,-0.242360,-0.063056,-0.275899,-0.193993,0.276122,-0.326630,0.050156,-0.038611,-0.376168,0.568322,1.122990,0.978054,0.019485,-0.070551,-0.034283,0.087443,0.005728,-0.007880
-0.028383,-0.280957,0.057190,-0.042922,-0.032258,-0.029494,0.323722,-0.113762,0.240242,0.320888,1.175681,-0.264580,-0.029515,-0.280264,-0.197406,0.284936,-0.336426,0.046529,-0.033695,-0.382085,0.542826,1.098483,1.013478,0.020032,-0.049903,-0.031347,0.103670,0.001817,-0.007880
0.009532,-0.310846,0.036980,-0.050662,-0.027600,-0.018214,0.315324,-0.127074,0.233298,0.285472,1.110763,-0.286573,0.003653,-0.284425,-0.200478,0.294727,-0.348130,0.042588,-0.031263,-0.388226,0.520428,1.072263,1.043158,0.018596,-0.030717,-0.029389,0.118558,-0.001355,-0.006290
0.043850,-0.338928,0.019505,-0.060471,-0.031829,-0.010378,0.308180,-0.143377,0.226098,0.252222,1.032745,-0.308112,0.036079,-0.289673,-0.202868,0.306470,-0.363655,0.038015,-0.033797,-0.394819,0.504221,1.042613,1.061352,0.012645,-0.014453,-0.029389,0.130768,-0.003049,-0.001002
0.074449,-0.362074,0.004046,-0.070063,-0.038661,-0.004140,0.300731,-0.162029,0.217954,0.223152,0.939270,-0.328576,0.069312,-0.295971,-0.200807,0.318459,-0.380458,0.033789,-0.037785,-0.400755,0.491030,1.011372,1.068649,0.005241,-0.010358,-0.031620,0.141703,-0.001862,0.007543
0.103186,-0.382751,-0.010405,-0.079546,-0.046793,0.001300,0.293128,-0.181854,0.209336,0.196172,0.838067,-0.348504,0.102947,-0.302793,-0.196522,0.330569,-0.397901,0.029736,-0.042501,-0.406363,0.479345,0.979337,1.070497,-0.002891,-0.012348,-0.034380,0.151999,0.000765,0.017717
0.126467,-0.394390,-0.021257,-0.087165,-0.048704,0.005591,0.285514,-0.195970,0.199968,0.175700,0.710570,-0.366589,0.135226,-0.313774,-0.178684,0.340753,-0.414600,0.029736,-0.047615,-0.407982,0.467962,0.948973,1.061156,-0.011198,-0.025533,-0.038378,0.160156,0.006288,0.034005
0.148928,-0.403094,-0.031272,-0.094532,-0.048147,0.008901,0.277975,-0.204997,0.190471,0.156615,0.574972,-0.382897,0.166572,-0.324672,-0.150822,0.349820,-0.429926,0.028877,-0.053916,-0.407836,0.455618,0.919671,1.051224,-0.019806,-0.038692,-0.042706,0.167363,0.012666,0.053070
0.169747,-0.403094,-0.039614,-0.101394,-0.042657,0.010253,0.270585,-0.204997,0.180716,0.140303,0.423163,-0.395653,0.196052,-0.335404,-0.102907,0.356657,-0.442508,0.027633,-0.062592,-0.404159,0.441353,0.892490,1.040107,-0.029018,-0.051796,-0.047693,0.172669,0.020755,0.077694
0.187780,-0.397652,-0.047929,-0.105602,-0.033423,0.011218,0.262446,-0.193934,0.171021,0.132400,0.266948,-0.403895,0.220263,-0.348028,-0.050251,0.361507,-0.450223,0.024590,-0.063102,-0.398396,0.425440,0.866724,1.033238,-0.037400,-0.058909,-0.051288,0.174963,0.028787,0.099058
0.204419,-0.388072,-0.056230,-0.108484,-0.022317,0.011218,0.253931,-0.177916,0.161355,0.128703,0.108532,-0.409880,0.241838,-0.361598,0.004773,0.365364,-0.455503,0.020646,-0.059527,-0.391591,0.408703,0.841666,1.028493,-0.045367,-0.063026,-0.054187,0.174963,0.036792,0.118791
0.219427,-0.390924,-0.063794,-0.107679,-0.014437,0.010844,0.244249,-0.159865,0.156478,0.144826,0.041088,-0.408172,0.255585,-0.385506,-0.049754,0.368374,-0.455503,0.012433,0.001747,-0.385994,0.393165,0.818018,1.027877,-0.053139,-0.062303,-0.055937,0.175768,0.043538,0.131170
0.231430,-0.398908,-0.069118,-0.100205,-0.002521,0.014349,0.236637,-0.141207,0.153131,0.169973,0.013004,-0.406195,0.265337,-0.413503,-0.087067,0.370284,-0.455064,0.002515,0.046865,-0.381671,0.381154,0.797519,1.028816,-0.061761,-0.060375,-0.058534,0.176049,0.050079,0.140464
0.237425,-0.417160,-0.069118,-0.080194,0.017464,0.027531,0.233167,-0.121333,0.153131,0.213167,0.063645,-0.403679,0.267097,-0.449680,-0.089943,0.370284,-0.455064,-0.010811,0.059671,-0.379893,0.376196,0.783317,1.033479,-0.072086,-0.056759,-0.062823,0.176049,0.056209,0.143590
0.237749,-0.428852,-0.071599,-0.050176,0.040212,0.045166,0.229809,-0.114130,0.153860,0.274870,0.122765,-0.399013,0.263362,-0.487171,-0.051186,0.366218,-0.452173,-0.026767,0.043504,-0.383131,0.380303,0.782119,1.041578,-0.083318,-0.054111,-0.070593,0.175371,0.062399,0.139696
0.235237,-0.437265,-0.074898,-0.015156,0.064340,0.065027,0.226508,-0.114130,0.155096,0.345826,0.186124,-0.393271,0.256881,-0.525318,0.008388,0.360265,-0.448652,-0.044036,0.012852,-0.388876,0.388944,0.787422,1.051396,-0.095002,-0.051946,-0.080103,0.175371,0.068618,0.132292
0.225618,-0.442439,-0.081821,0.023917,0.076601,0.082696,0.221134,-0.133086,0.162294,0.433590,0.254152,-0.388453,0.241623,-0.559338,0.048794,0.346756,-0.439783,-0.053641,0.002724,-0.400291,0.403180,0.817700,1.063851,-0.098088,-0.054479,-0.091826,0.174840,0.073076,0.119585
0.213971,-0.443192,-0.085516,0.060815,0.087797,0.097263,0.216079,-0.151018,0.171799,0.531460,0.321467,-0.381181,0.223888,-0.578884,0.069802,0.331879,-0.429793,-0.059511,-0.019491,-0.409993,0.418234,0.850532,1.074391,-0.093854,-0.058790,-0.101068,0.175214,0.076691,0.107520
0.198265,-0.435102,-0.082754,0.093362,0.096864,0.105626,0.211661,-0.165744,0.185917,0.649553,0.387362,-0.368999,0.201201,-0.569479,0.052011,0.314262,-0.417562,-0.057909,-0.065887,-0.416270,0.434927,0.888476,1.081098,-0.074979,-0.066658,-0.105347,0.177142,0.076691,0.096740
0.148167,-0.400330,-0.077827,0.124407,0.107617,0.108866,0.192547,-0.171834,0.200786,0.824571,0.416228,-0.350623,0.179182,-0.457240,0.027260,0.299621,-0.405617,-0.050401,-0.096198,-0.420219,0.451173,0.914785,1.076589,-0.041713,-0.075571,-0.095527,0.180971,0.068675,0.092335
0.080872,-0.352217,-0.071816,0.154700,0.119213,0.108866,0.166085,-0.173605,0.216029,1.028049,0.426578,-0.329152,0.157498,-0.293584,-0.000970,0.286467,-0.393816,-0.039939,-0.118465,-0.423005,0.467195,0.935276,1.066471,-0.001251,-0.085008,-0.078656,0.185749,0.055686,0.092335
0.016161,-0.312569,-0.061705,0.191005,0.129535,0.106196,0.156660,-0.178008,0.229551,1.165240,0.433420,-0.311704,0.130341,-0.213821,-0.025574,0.278683,-0.383141,-0.035415,-0.125827,-0.426758,0.484395,0.955201,1.049093,0.024601,-0.084120,-0.059393,0.185118,0.032979,0.094726
-0.043303,-0.274415,-0.048834,0.223437,0.138818,0.101013,0.152522,-0.179995,0.240578,1.278817,0.436884,-0.293637,0.100959,-0.163251,-0.047958,0.271039,-0.372247,-0.020622,-0.132695,-0.428908,0.500892,0.979601,1.032346,0.043481,-0.080612,-0.044871,0.182141,0.012378,0.095963
-0.092278,-0.239248,-0.030443,0.248127,0.146022,0.091705,0.158959,-0.177149,0.246617,1.345170,0.433593,-0.274329,0.067123,-0.171067,-0.065903,0.263675,-0.360913,0.014712,-0.138575,-0.428908,0.515986,1.012951,1.016864,0.048420,-0.072752,-0.039830,0.175103,-0.004014,0.093270
-0.137549,-0.202413,-0.009858,0.267151,0.153279,0.081520,0.171423,-0.170261,0.248092,1.381695,0.419580,-0.250151,0.034495,-0.182172,-0.078392,0.255480,-0.348170,0.044842,-0.143470,-0.419543,0.522807,1.047798,0.998516,0.049024,-0.066171,-0.040608,0.166824,-0.011583,0.084468
-0.180968,-0.164745,0.011824,0.283342,0.160561,0.070898,0.186901,-0.161353,0.248092,1.403303,0.400208,-0.223538,0.002473,-0.194923,-0.088152,0.246870,-0.334724,0.072370,-0.147873,-0.406026,0.525491,1.083393,0.978735,0.047461,-0.060230,-0.044297,0.157924,-0.014740,0.072613
-0.218665,-0.124101,0.033666,0.290265,0.169073,0.062346,0.203597,-0.146466,0.244625,1.388416,0.370406,-0.189300,-0.024255,-0.200614,-0.092645,0.239718,-0.323485,0.070530,-0.150243,-0.381065,0.517819,1.106235,0.947842,0.050769,-0.056397,-0.044297,0.150843,-0.007270,0.055695
-0.254528,-0.083033,0.054099,0.291720,0.175902,0.053858,0.218091,-0.131943,0.241517,1.362130,0.338629,-0.154303,-0.050484,-0.206169,-0.096516,0.233961,-0.314177,0.065141,-0.151340,-0.356597,0.510733,1.125868,0.915005,0.053826,-0.050375,-0.042390,0.143617,-0.000144,0.039480
