Lukebird17/AI3618-SONIC/reference/reference/example/neutral_kick_R_001__A543_M/joint_pos.csv
joint_0,joint_1,joint_2,joint_3,joint_4,joint_5,joint_6,joint_7,joint_8,joint_9,joint_10,joint_11,joint_12,joint_13,joint_14,joint_15,joint_16,joint_17,joint_18,joint_19,joint_20,joint_21,joint_22,joint_23,joint_24,joint_25,joint_26,joint_27,joint_28
-0.024384,0.010210,0.006730,-0.014788,-0.019285,0.025258,0.157656,-0.032532,-0.013510,0.177260,0.105886,0.090876,0.079533,-0.275375,-0.175146,0.192036,-0.214211,0.007949,0.011846,-0.269269,0.296073,1.084254,1.024294,0.371251,-0.316658,-0.113721,-0.049277,-0.073255,0.123319
-0.034480,0.006087,0.006730,-0.013457,-0.019285,0.025258,0.153509,-0.034994,-0.016861,0.188332,0.105886,0.088323,0.079533,-0.281496,-0.176562,0.192036,-0.214211,0.007949,0.011846,-0.269269,0.296073,1.086052,1.024294,0.385656,-0.329248,-0.116560,-0.051511,-0.061258,0.116306
-0.046861,0.001487,0.006851,-0.011949,-0.017455,0.026582,0.148289,-0.038767,-0.020614,0.203011,0.107233,0.085574,0.081647,-0.289256,-0.178814,0.192149,-0.214290,0.008960,0.012630,-0.270184,0.294495,1.087251,1.023484,0.396938,-0.339040,-0.118836,-0.053779,-0.051830,0.110883
-0.063813,-0.004069,0.006851,-0.010085,-0.017455,0.026582,0.140924,-0.045164,-0.025169,0.224904,0.109515,0.082435,0.086885,-0.300297,-0.182738,0.192149,-0.214290,0.010658,0.014054,-0.270184,0.294495,1.087251,1.019542,0.401977,-0.343234,-0.118836,-0.053779,-0.047538,0.108639
-0.079909,-0.005920,0.008220,-0.008940,-0.016543,0.028149,0.131056,-0.055435,-0.028260,0.247957,0.109438,0.078212,0.095346,-0.312419,-0.186990,0.192460,-0.216297,0.012111,0.015965,-0.270466,0.291433,1.086259,1.013769,0.405179,-0.344162,-0.119220,-0.055567,-0.045059,0.107161
-0.095576,-0.006085,0.009108,-0.009384,-0.016401,0.029205,0.119935,-0.067643,-0.029660,0.271589,0.108183,0.073447,0.105416,-0.325081,-0.191406,0.190950,-0.218247,0.012866,0.018119,-0.270045,0.288027,1.084396,1.007080,0.408115,-0.343691,-0.119526,-0.058099,-0.042773,0.106431
-0.104739,0.001964,0.011526,-0.009384,-0.016401,0.029205,0.105041,-0.082878,-0.029660,0.290190,0.102373,0.066760,0.120635,-0.339238,-0.195470,0.190950,-0.221545,0.012866,0.020065,-0.268464,0.284016,1.081904,0.997439,0.408115,-0.341350,-0.119526,-0.058099,-0.042773,0.106431
-0.113720,0.010235,0.013904,-0.011673,-0.017526,0.028892,0.088553,-0.098712,-0.028260,0.308579,0.097552,0.060084,0.136722,-0.353798,-0.200513,0.189389,-0.225309,0.012723,0.021792,-0.267898,0.280281,1.078316,0.988546,0.409310,-0.339281,-0.120478,-0.059906,-0.041108,0.107471
-0.122338,0.018950,0.016204,-0.015638,-0.017526,0.028892,0.068876,-0.115746,-0.026930,0.326544,0.094712,0.053430,0.154547,-0.369164,-0.207511,0.189389,-0.230006,0.014016,0.023082,-0.267898,0.277099,1.072536,0.981150,0.409310,-0.337759,-0.120478,-0.059906,-0.041108,0.109436
-0.134299,0.023177,0.020500,-0.020324,-0.019432,0.027407,0.048274,-0.133532,-0.025739,0.348609,0.099680,0.048206,0.171654,-0.383403,-0.218853,0.189859,-0.236369,0.015905,0.024122,-0.265670,0.275413,1.059162,0.977835,0.409473,-0.330431,-0.125146,-0.063679,-0.042163,0.111072
-0.147933,0.025159,0.025793,-0.025371,-0.021043,0.026543,0.027208,-0.151695,-0.024992,0.372726,0.108552,0.043698,0.188404,-0.397076,-0.232366,0.191410,-0.243564,0.018092,0.024732,-0.261597,0.274786,1.041991,0.976560,0.409094,-0.320200,-0.131183,-0.068157,-0.045172,0.112542
-0.164856,0.012137,0.033337,-0.029499,-0.025279,0.023969,0.010178,-0.170937,-0.022589,0.400365,0.146093,0.052219,0.199318,-0.409923,-0.257877,0.197544,-0.255067,0.018092,0.029222,-0.241671,0.268608,0.975138,0.976560,0.372902,-0.294309,-0.147723,-0.076335,-0.053251,0.114360
-0.182047,-0.009283,0.039731,-0.033739,-0.032499,0.019524,-0.002024,-0.187165,-0.018361,0.426660,0.197879,0.061293,0.206046,-0.422456,-0.287855,0.206443,-0.270276,0.015888,0.032788,-0.223487,0.260347,0.890015,0.972845,0.333277,-0.263600,-0.161213,-0.085701,-0.054298,0.110652
-0.199773,-0.047500,0.043825,-0.038202,-0.045683,0.011339,-0.004568,-0.197368,-0.010486,0.450264,0.278154,0.071476,0.206046,-0.434361,-0.326766,0.220870,-0.292900,0.009898,0.034505,-0.208789,0.247923,0.768355,0.962511,0.286784,-0.223255,-0.168608,-0.097443,-0.041284,0.095891
-0.213570,-0.097163,0.044464,-0.041996,-0.063921,0.000763,0.005283,-0.197325,0.000138,0.469714,0.378178,0.071731,0.198095,-0.446700,-0.359823,0.242271,-0.322878,0.001863,0.035749,-0.196614,0.225089,0.638642,0.934709,0.255515,-0.128390,-0.167893,-0.108984,-0.021500,0.057032
-0.225402,-0.152549,0.043739,-0.045455,-0.084685,-0.011008,0.021331,-0.192161,0.012135,0.487089,0.488077,0.067023,0.186990,-0.459256,-0.389954,0.267159,-0.356533,-0.007194,0.036421,-0.185702,0.197050,0.504903,0.898174,0.231859,-0.006264,-0.163124,-0.120425,0.001669,0.006124
-0.217088,-0.196979,0.034213,-0.043858,-0.098304,-0.016806,0.046564,-0.175343,0.027893,0.490146,0.583645,0.038920,0.153579,-0.470280,-0.394414,0.304293,-0.398713,-0.013475,0.032071,-0.180151,0.167844,0.398686,0.841410,0.204407,0.115461,-0.157015,-0.123090,0.016246,-0.027057
-0.203993,-0.241412,0.023428,-0.040401,-0.109284,-0.019136,0.072615,-0.160041,0.041527,0.486325,0.676412,0.004121,0.109953,-0.478470,-0.385094,0.343218,-0.439938,-0.018571,0.025161,-0.177520,0.147513,0.305692,0.786144,0.175767,0.213557,-0.151323,-0.124225,0.032849,-0.050352
-0.181335,-0.285848,0.010128,-0.033227,-0.114988,-0.014526,0.100305,-0.147774,0.050912,0.468750,0.763577,-0.044071,0.045901,-0.480994,-0.348216,0.385727,-0.479250,-0.021295,0.013131,-0.180731,0.144935,0.239143,0.733871,0.144754,0.264391,-0.146467,-0.124225,0.053504,-0.053877
-0.149828,-0.329053,-0.000146,-0.024572,-0.112265,-0.006029,0.131522,-0.136792,0.057633,0.438314,0.832189,-0.105687,-0.032846,-0.475674,-0.316429,0.422926,-0.503259,-0.024258,0.011956,-0.191010,0.168437,0.195743,0.685216,0.103408,0.284626,-0.144143,-0.124160,0.071301,-0.050274
-0.113896,-0.371643,-0.009314,-0.015177,-0.105328,0.004412,0.164504,-0.126451,0.063022,0.401447,0.891525,-0.174016,-0.118938,-0.466432,-0.287187,0.457470,-0.519617,-0.027340,0.016208,-0.204823,0.204980,0.163916,0.638371,0.056896,0.289560,-0.143438,-0.124735,0.087669,-0.043107
-0.072180,-0.410279,-0.009314,-0.009004,-0.083409,0.017879,0.205806,-0.114467,0.066455,0.354208,0.910041,-0.258576,-0.209071,-0.459308,-0.284810,0.481196,-0.509186,-0.030177,0.027385,-0.235228,0.275367,0.150641,0.570195,0.029821,0.288213,-0.144785,-0.133530,0.095234,-0.034944
-0.029105,-0.446676,-0.007458,-0.006265,-0.065046,0.030871,0.248907,-0.109304,0.070589,0.305527,0.919302,-0.348663,-0.297553,-0.451282,-0.285708,0.501228,-0.493294,-0.031454,0.034211,-0.271398,0.354377,0.141074,0.491469,0.009100,0.290185,-0.146401,-0.144629,0.100206,-0.023238
0.016686,-0.478593,-0.000665,-0.010394,-0.053798,0.042914,0.295605,-0.117784,0.076121,0.253962,0.910054,-0.449802,-0.382732,-0.441449,-0.293157,0.513871,-0.466480,-0.029611,0.034211,-0.319098,0.450633,0.141074,0.391646,0.001090,0.298799,-0.148553,-0.160334,0.100206,-0.004442
0.061695,-0.504112,0.004160,-0.020381,-0.048796,0.050185,0.342218,-0.137476,0.082903,0.208301,0.890630,-0.552141,-0.465208,-0.437610,-0.307162,0.518882,-0.433251,-0.027009,0.022248,-0.369315,0.551508,0.142677,0.278269,-0.013621,0.308771,-0.151759,-0.174289,0.096038,0.020290
0.106313,-0.526432,0.008001,-0.033297,-0.046918,0.055071,0.388789,-0.162773,0.090309,0.165592,0.866120,-0.655079,-0.546331,-0.437048,-0.324446,0.520075,-0.396814,-0.024029,0.005245,-0.420792,0.654692,0.146155,0.158116,-0.031681,0.319884,-0.155492,-0.187370,0.089894,0.047990
0.141719,-0.539797,-0.001966,-0.049290,-0.045417,0.051850,0.430831,-0.193024,0.093214,0.145159,0.834401,-0.748693,-0.612574,-0.447267,-0.343652,0.510618,-0.351095,-0.025533,-0.012104,-0.462010,0.732284,0.155153,0.023826,-0.054191,0.319884,-0.158160,-0.191947,0.087027,0.066119
0.174311,-0.549301,-0.018338,-0.065479,-0.042365,0.047292,0.469322,-0.219023,0.094279,0.132194,0.800529,-0.833979,-0.667060,-0.458943,-0.360329,0.498395,-0.310450,-0.027636,-0.026146,-0.497455,0.793435,0.164996,-0.114415,-0.074442,0.322274,-0.160448,-0.193534,0.085772,0.080964
0.201271,-0.551083,-0.047516,-0.082062,-0.036213,0.040058,0.500711,-0.236515,0.091663,0.134166,0.762349,-0.902610,-0.698031,-0.473536,-0.371948,0.480641,-0.279954,-0.030933,-0.033572,-0.521354,0.821699,0.176529,-0.260559,-0.090176,0.328060,-0.161976,-0.189142,0.085772,0.089241
0.219237,-0.553220,-0.093813,-0.093852,-0.023145,0.035945,0.526446,-0.233712,0.085315,0.150337,0.728947,-0.946130,-0.684811,-0.493104,-0.295188,0.476556,-0.332305,-0.034571,-0.104817,-0.542474,0.815971,0.165040,-0.460682,-0.115175,0.355346,-0.164957,-0.170571,0.091430,0.086136
0.232707,-0.555536,-0.148670,-0.103245,-0.006618,0.033393,0.549355,-0.220761,0.077102,0.173607,0.697933,-0.977095,-0.649495,-0.515160,-0.174238,0.479304,-0.426077,-0.038379,-0.207971,-0.562203,0.793247,0.142042,-0.687796,-0.144806,0.393382,-0.168665,-0.144911,0.098934,0.077341
0.240892,-0.567547,-0.230172,-0.107876,0.000780,0.039284,0.562448,-0.192508,0.065582,0.220941,0.753250,-0.958627,-0.620875,-0.545232,-0.176950,0.524391,-0.567599,-0.047446,-0.235519,-0.582077,0.703838,0.059293,-0.838317,-0.165652,0.422911,-0.172546,-0.131649,0.101390,0.064976
0.236113,-0.578055,-0.309243,-0.099688,0.007206,0.049185,0.574693,-0.170527,0.058711,0.298283,0.809150,-0.924280,-0.596709,-0.575407,-0.191982,0.581370,-0.713081,-0.052578,-0.252048,-0.601324,0.601507,-0.049206,-0.960371,-0.182189,0.464083,-0.175904,-0.123094,0.102092,0.050993
0.205410,-0.585556,-0.383451,-0.065865,0.011687,0.067107,0.585241,-0.161089,0.061137,0.435644,0.866214,-0.858178,-0.581454,-0.605786,-0.231655,0.662129,-0.866487,-0.049841,-0.246538,-0.619316,0.473334,-0.209205,-1.025493,-0.190104,0.528540,-0.178214,-0.123094,0.099286,0.033771
0.143265,-0.561857,-0.440945,-0.015962,0.007824,0.071874,0.573548,-0.158682,0.069975,0.644795,0.876521,-0.761947,-0.607524,-0.557410,-0.253673,0.744651,-0.987390,-0.031582,-0.244729,-0.631571,0.395385,-0.378107,-1.047200,-0.181630,0.606200,-0.176508,-0.139642,0.090713,0.019511
0.065400,-0.522559,-0.490081,0.041981,-0.000212,0.070064,0.550733,-0.159420,0.082019,0.889840,0.863450,-0.650653,-0.654257,-0.469657,-0.266274,0.828055,-1.092040,-0.005563,-0.244757,-0.640958,0.342547,-0.551459,-1.047200,-0.164962,0.690462,-0.172794,-0.164035,0.079257,0.006731
-0.026365,-0.490677,-0.505103,0.088484,-0.008059,0.044435,0.518156,-0.138086,0.097218,1.137247,0.855846,-0.466903,-0.783554,-0.454827,-0.266274,0.899486,-1.121351,-0.000500,-0.238421,-0.602159,0.388119,-0.685776,-1.047200,-0.127814,0.726832,-0.169656,-0.182583,0.061677,0.013373
-0.116927,-0.455537,-0.501177,0.124890,-0.015791,0.011789,0.478487,-0.106121,0.117073,1.372785,0.845269,-0.273277,-0.911360,-0.449725,-0.263192,0.954866,-1.128396,-0.001080,-0.230608,-0.552217,0.449425,-0.789947,-1.047200,-0.090822,0.749033,-0.168633,-0.195826,0.045453,0.023102
-0.205087,-0.413882,-0.459355,0.141103,-0.023294,-0.034891,0.424635,-0.052894,0.146239,1.584583,0.828745,-0.059900,-1.036184,-0.464079,-0.255713,0.978141,-1.090910,-0.012943,-0.219840,-0.479990,0.542200,-0.833828,-1.047200,-0.054140,0.742898,-0.171839,-0.198456,0.031943,0.039006
-0.297858,-0.368955,-0.383528,0.139609,-0.040439,-0.083471,0.351088,0.008776,0.183142,1.769253,0.808070,0.142633,-1.141674,-0.474382,-0.245817,0.971301,-1.049561,-0.033103,-0.200901,-0.403323,0.634688,-0.824128,-1.047200,-0.039525,0.728724,-0.181733,-0.196254,0.034984,0.051415
-0.392936,-0.322392,-0.290698,0.129262,-0.062405,-0.133002,0.267693,0.074667,0.223913,1.940361,0.785318,0.339744,-1.237498,-0.482659,-0.234712,0.949404,-1.006279,-0.057411,-0.177875,-0.324437,0.727033,-0.787637,-1.047200,-0.035942,0.710531,-0.194971,-0.191637,0.046299,0.062077
-0.489593,-0.272954,-0.160744,0.112400,-0.103841,-0.166711,0.149315,0.134137,0.275499,2.052192,0.755830,0.492607,-1.321944,-0.486964,-0.227950,0.905860,-0.936082,-0.069662,-0.150957,-0.240858,0.823654,-0.697614,-0.965963,-0.051247,0.672302,-0.214680,-0.187025,0.072279,0.071438
-0.585878,-0.224000,-0.028055,0.100483,-0.150549,-0.189183,0.023627,0.187922,0.329136,2.135282,0.725886,0.632090,-1.396719,-0.490441,-0.222352,0.858692,-0.853725,-0.070621,-0.126161,-0.159278,0.915448,-0.596111,-0.859214,-0.063565,0.626204,-0.235030,-0.185350,0.092987,0.082426
-0.681416,-0.176016,0.110102,0.098458,-0.207799,-0.189183,-0.116677,0.230339,0.386877,2.160887,0.695028,0.744811,-1.452151,-0.492261,-0.219081,0.804276,-0.747055,-0.048997,-0.105610,-0.081696,0.997588,-0.471650,-0.701443,-0.069910,0.564366,-0.256662,-0.189546,0.103152,0.096668
-0.778453,-0.129188,0.240497,0.121186,-0.269506,-0.166734,-0.236564,0.262872,0.437920,2.113933,0.660297,0.830407,-1.486596,-0.493563,-0.218809,0.755015,-0.587556,-0.008217,-0.088041,-0.018746,1.047217,-0.338692,-0.446531,-0.089180,0.425440,-0.286267,-0.205144,0.103807,0.126205
-0.876240,-0.082939,0.367009,0.156289,-0.333441,-0.132812,-0.346243,0.290464,0.485615,2.030699,0.623629,0.902439,-1.510546,-0.494258,-0.220035,0.708331,-0.401642,0.042140,-0.071963,0.036887,1.080590,-0.201486,-0.143052,-0.114335,0.247970,-0.319860,-0.226442,0.099708,0.163390
-0.971132,-0.037228,0.473211,0.215608,-0.396932,-0.068035,-0.373429,0.307024,0.506246,1.840660,0.569762,0.935726,-1.465204,-0.494258,-0.205122,0.690237,-0.257601,0.094574,-0.067224,0.063203,1.042565,-0.054967,0.209651,-0.114335,0.113940,-0.333214,-0.251475,0.077964,0.176768
-1.052902,0.008490,0.558512,0.267018,-0.456951,-0.000159,-0.377455,0.316852,0.520000,1.612949,0.511065,0.964215,-1.434253,-0.475160,-0.181645,0.670473,-0.106764,0.128195,-0.065235,0.079214,0.963779,0.084912,0.580544,-0.113147,-0.032476,-0.345800,-0.274167,0.055126,0.178508
-1.108431,0.054224,0.602011,0.302611,-0.510025,0.073916,-0.335161,0.313212,0.520000,1.309890,0.442709,0.983110,-1.434253,-0.418053,-0.141040,0.647368,0.057663,0.124191,-0.068745,0.074617,0.803472,0.211514,0.987819,-0.111320,-0.203664,-0.356850,-0.292178,0.030097,0.156971
-1.110553,0.124170,0.621231,0.305629,-0.554069,0.140228,-0.278790,0.286676,0.520000,0.965012,0.383057,1.018601,-1.367196,-0.365891,-0.104558,0.636075,0.099071,0.069970,-0.068495,0.071359,0.681752,0.296071,1.154267,-0.125803,-0.327564,-0.360545,-0.292027,0.010335,0.131255
-1.085971,0.206222,0.627540,0.292358,-0.593598,0.202660,-0.215381,0.248690,0.520000,0.599221,0.327758,1.062391,-1.267694,-0.316202,-0.070136,0.630689,0.078969,-0.009360,-0.066365,0.068771,0.579326,0.359608,1.200301,-0.148442,-0.427820,-0.360555,-0.282796,-0.006794,0.103450
-1.073539,0.272435,0.627540,0.270261,-0.608542,0.191035,-0.178880,0.189434,0.520000,0.347210,0.307370,1.114011,-1.210521,-0.282826,-0.059056,0.626149,0.010499,-0.009360,-0.068122,0.091980,0.658688,0.384458,1.027282,-0.164019,-0.415668,-0.356937,-0.284603,-0.019198,0.099543
-1.068963,0.326465,0.623406,0.252406,-0.614467,0.173230,-0.154987,0.139468,0.520000,0.166318,0.291097,1.148713,-1.152977,-0.250478,-0.052468,0.614692,-0.072722,-0.012259,-0.071498,0.104277,0.741989,0.414828,0.810354,-0.181004,-0.387095,-0.353180,-0.288357,-0.031135,0.091517
-1.080097,0.356132,0.613319,0.243035,-0.602356,0.143065,-0.156311,0.108083,0.520000,0.127662,0.283052,1.148713,-1.094687,-0.220187,-0.054866,0.589398,-0.185445,-0.021563,-0.078113,0.094747,0.833168,0.456238,0.505605,-0.200805,-0.325679,-0.349141,-0.296005,-0.042139,0.075252
-1.116411,0.350541,0.594371,0.244405,-0.584739,0.104078,-0.186217,0.101081,0.520000,0.238302,0.295407,1.149000,-1.034797,-0.210781,-0.066961,0.557746,-0.296176,-0.008266,-0.086390,0.065730,0.867763,0.471974,0.198119,-0.208432,-0.262614,-0.345707,-0.296207,-0.052061,0.065705
-1.165315,0.327321,0.570992,0.251147,-0.564371,0.060679,-0.230417,0.106270,0.520000,0.423590,0.317962,1.149000,-0.974105,-0.211473,-0.083905,0.522915,-0.405913,0.016331,-0.095498,0.026969,0.874067,0.474871,-0.110737,-0.209458,-0.198724,-0.342051,-0.292684,-0.061442,0.059517
-1.221953,0.273125,0.544283,0.249779,-0.548949,0.001910,-0.285729,0.131047,0.520000,0.721055,0.354094,1.149000,-0.905958,-0.249379,-0.102228,0.500708,-0.497660,0.044269,-0.103382,-0.014486,0.844436,0.447729,-0.313256,-0.199437,-0.158578,-0.342051,-0.281029,-0.065766,0.069726
-1.267308,0.220163,0.515985,0.252145,-0.529109,-0.052752,-0.332021,0.157155,0.520000,1.014175,0.391787,1.138576,-0.832938,-0.293267,-0.120319,0.486730,-0.592990,0.068766,-0.113270,-0.052127,0.813721,0.421933,-0.491355,-0.188749,-0.119460,-0.341196,-0.270286,-0.069690,0.079116
-1.290099,0.169668,0.484506,0.261980,-0.500431,-0.099203,-0.360272,0.185929,0.520000,1.298607,0.432602,1.107303,-0.750173,-0.349118,-0.137946,0.489209,-0.695490,0.086384,-0.127163,-0.082144,0.780834,0.398829,-0.620620,-0.176725,-0.082398,-0.341196,-0.261366,-0.072813,0.086865
-1.271262,0.132372,0.443795,0.264358,-0.465995,-0.132264,-0.365269,0.203940,0.520000,1.530725,0.469691,1.061538,-0.656044,-0.384744,-0.150670,0.509865,-0.795267,0.096375,-0.150185,-0.101543,0.739685,0.382284,-0.712259,-0.164068,-0.051040,-0.340100,-0.253312,-0.073314,0.093667
-1.231611,0.101675,0.398468,0.263457,-0.428680,-0.158630,-0.358639,0.216571,0.520000,1.736685,0.504917,1.008528,-0.556232,-0.410257,-0.160941,0.539610,-0.893683,0.102553,-0.177771,-0.115634,0.694405,0.369020,-0.785085,-0.151093,-0.022534,-0.338914,-0.245689,-0.072773,0.099996
-1.149523,0.082127,0.343908,0.231679,-0.396203,-0.170887,-0.314218,0.210410,0.520000,1.887186,0.535022,0.951201,-0.448342,-0.406398,-0.165439,0.583056,-0.954336,0.085956,-0.206198,-0.111000,0.639647,0.359735,-0.799173,-0.140873,-0.008159,-0.338914,-0.239147,-0.068033,0.108271
-1.065058,0.061556,0.288477,0.199647,-0.361359,-0.177044,-0.262222,0.199607,0.520000,2.020618,0.561731,0.890209,-0.345933,-0.400334,-0.167434,0.626905,-1.005501,0.065341,-0.231718,-0.102469,0.582742,0.352472,-0.803036,-0.132002,0.005174,-0.337937,-0.233915,-0.062811,0.116434
-0.975841,0.038941,0.231304,0.167110,-0.321781,-0.171003,-0.195076,0.179521,0.520000,2.119916,0.581645,0.821890,-0.254485,-0.389862,-0.164425,0.671560,-1.037692,0.036692,-0.251423,-0.086143,0.521540,0.349252,-0.786450,-0.125830,0.016422,-0.337937,-0.231307,-0.056624,0.124375
-0.891416,0.009087,0.176355,0.157644,-0.274319,-0.151445,-0.123118,0.157314,0.498254,2.184159,0.592660,0.760535,-0.163781,-0.381345,-0.158362,0.714895,-1.061681,0.010294,-0.259515,-0.073285,0.464709,0.352168,-0.757659,-0.120494,0.021177,-0.336230,-0.230860,-0.050574,0.131762
-0.809388,-0.024387,0.122518,0.159713,-0.222914,-0.125128,-0.048754,0.134047,0.465635,2.230875,0.599225,0.702663,-0.073448,-0.373806,-0.150773,0.757570,-1.081569,-0.014980,-0.261800,-0.062163,0.410061,0.358151,-0.722765,-0.115575,0.022686,-0.334503,-0.231283,-0.044591,0.138872
-0.727697,-0.067985,0.083610,0.179706,-0.175251,-0.093550,0.023754,0.113436,0.420017,2.212926,0.601395,0.651240,0.014160,-0.378695,-0.145150,0.792016,-1.085645,-0.025847,-0.261800,-0.053855,0.365881,0.370039,-0.668806,-0.111280,0.026275,-0.332596,-0.235240,-0.038755,0.141360
-0.647946,-0.111164,0.044357,0.194946,-0.130971,-0.064252,0.087819,0.092670,0.375133,2.176641,0.603552,0.602174,0.093373,-0.385861,-0.140240,0.823546,-1.085113,-0.031118,-0.261800,-0.046837,0.324417,0.381417,-0.614547,-0.107861,0.028668,-0.330891,-0.239556,-0.033497,0.143694
-0.572072,-0.153503,0.004411,0.200681,-0.093458,-0.039514,0.134999,0.071595,0.331715,2.103684,0.605683,0.557822,0.155792,-0.397584,-0.136760,0.849243,-1.075363,-0.025198,-0.261800,-0.042398,0.288387,0.391776,-0.559689,-0.106192,0.028668,-0.329591,-0.244589,-0.029395,0.143694
-0.490304,-0.190570,-0.030880,0.204388,-0.066152,-0.018308,0.176275,0.049650,0.295598,1.997732,0.612479,0.513320,0.212889,-0.404459,-0.134826,0.872208,-1.056472,-0.009213,-0.261800,-0.046932,0.254993,0.396234,-0.499759,-0.103862,0.019805,-0.328209,-0.250158,-0.025446,0.146521
-0.405590,-0.225000,-0.063844,0.207082,-0.043950,0.001131,0.214599,0.027270,0.263131,1.875284,0.621609,0.468742,0.267325,-0.408911,-0.133218,0.893807,-1.033011,0.011803,-0.261800,-0.055952,0.222916,0.397742,-0.437291,-0.101201,0.006830,-0.326784,-0.255995,-0.021573,0.149746
-0.319220,-0.254367,-0.084844,0.216003,-0.025729,0.018436,0.258370,0.013153,0.238685,1.718863,0.630892,0.420389,0.307331,-0.412708,-0.133218,0.908311,-0.998528,0.040434,-0.261800,-0.080637,0.203853,0.396068,-0.362544,-0.097323,0.003599,-0.324480,-0.264909,-0.017359,0.148082
-0.239053,-0.281985,-0.106024,0.221951,-0.008002,0.035037,0.297984,-0.000450,0.216147,1.562665,0.638073,0.373491,0.340365,-0.412635,-0.130921,0.919664,-0.964733,0.063913,-0.261347,-0.105574,0.188099,0.394471,-0.290075,-0.092017,-0.002523,-0.322208,-0.274310,-0.013313,0.146436
-0.171291,-0.306105,-0.127562,0.221951,0.008740,0.050231,0.329286,-0.013026,0.197428,1.406916,0.641050,0.329500,0.359456,-0.404825,-0.126536,0.924714,-0.932313,0.077089,-0.259987,-0.131013,0.178965,0.393029,-0.222165,-0.083852,-0.014427,-0.319998,-0.284684,-0.009606,0.144823
-0.115334,-0.329338,-0.145932,0.209375,0.016627,0.062418,0.351050,-0.030166,0.180213,1.256315,0.643141,0.287510,0.372415,-0.391497,-0.121071,0.922768,-0.897000,0.077485,-0.256731,-0.155933,0.175082,0.388786,-0.151545,-0.072577,-0.038907,-0.317567,-0.292804,-0.006167,0.146194
-0.065279,-0.352128,-0.162718,0.190527,0.020087,0.073101,0.368045,-0.049587,0.163750,1.108289,0.644789,0.246520,0.382309,-0.375409,-0.115067,0.917324,-0.860242,0.070918,-0.252525,-0.180594,0.174244,0.383144,-0.079571,-0.059749,-0.069675,-0.315025,-0.299797,-0.002862,0.149058
-0.024894,-0.374309,-0.173446,0.183283,0.017494,0.078280,0.397543,-0.069692,0.151366,0.981233,0.646062,0.211635,0.383781,-0.381544,-0.107291,0.906853,-0.824071,0.070918,-0.247418,-0.207653,0.186036,0.377747,-0.005981,-0.049200,-0.067156,-0.311355,-0.303891,-0.000305,0.146121
0.011636,-0.394877,-0.183426,0.179571,0.014431,0.082518,0.429240,-0.089704,0.140756,0.866060,0.645961,0.179597,0.382364,-0.384232,-0.099260,0.895087,-0.789942,0.068200,-0.242580,-0.234070,0.199714,0.373343,0.065372,-0.039016,-0.061054,-0.307681,-0.307457,0.001972,0.143650
0.040453,-0.412221,-0.191912,0.182925,0.010428,0.082518,0.465333,-0.109530,0.133692,0.774655,0.643115,0.153254,0.375170,-0.380028,-0.090720,0.880732,-0.759899,0.061769,-0.238280,-0.259203,0.217164,0.370928,0.132251,-0.029560,-0.047783,-0.303998,-0.309969,0.003686,0.142111
0.054638,-0.426875,-0.198847,0.185624,0.003090,0.081229,0.487592,-0.131323,0.129949,0.713591,0.638030,0.128558,0.362849,-0.343498,-0.080622,0.864188,-0.728702,0.047813,-0.233830,-0.284599,0.233761,0.373268,0.201213,-0.020951,-0.052414,-0.300633,-0.310322,0.005051,0.146150
0.061708,-0.440184,-0.205007,0.187997,-0.005916,0.078118,0.502935,-0.154100,0.127866,0.667696,0.631827,0.104685,0.347963,-0.290805,-0.069745,0.846549,-0.696928,0.030095,-0.228895,-0.310125,0.249933,0.377988,0.271215,-0.012765,-0.065995,-0.297427,-0.309837,0.006318,0.152977
0.061708,-0.453543,-0.209817,0.189182,-0.020168,0.074920,0.513396,-0.184559,0.132025,0.627715,0.628475,0.086150,0.333465,-0.296452,-0.061947,0.826823,-0.664038,-0.018740,-0.228895,-0.332468,0.259020,0.386891,0.337529,-0.006678,-0.078130,-0.294783,-0.308515,0.006318,0.155627
0.058610,-0.465777,-0.212573,0.191096,-0.034169,0.072054,0.520369,-0.214309,0.136908,0.592413,0.624128,0.069493,0.319189,-0.314509,-0.054150,0.806469,-0.632452,-0.057392,-0.227826,-0.353519,0.266509,0.397429,0.401995,-0.000854,-0.087164,-0.292355,-0.306999,0.005442,0.156748
0.048715,-0.475760,-0.212573,0.194465,-0.047668,0.069853,0.520369,-0.242639,0.143240,0.566472,0.617791,0.056593,0.305358,-0.357385,-0.046356,0.784855,-0.603475,-0.075677,-0.225852,-0.371987,0.270803,0.411239,0.462766,0.004444,-0.089994,-0.290356,-0.305092,0.005442,0.154808
0.031252,-0.485103,-0.203526,0.196525,-0.058413,0.065611,0.506983,-0.261583,0.149692,0.554435,0.608658,0.043900,0.288671,-0.390496,-0.035116,0.760592,-0.577629,-0.089683,-0.215902,-0.388539,0.277719,0.432210,0.523306,0.009729,-0.089983,-0.288124,-0.302333,0.003603,0.153302
0.010005,-0.494128,-0.190632,0.197929,-0.067783,0.060348,0.486834,-0.275834,0.156205,0.549350,0.598126,0.031311,0.270556,-0.418724,-0.022152,0.735006,-0.553350,-0.101551,-0.201965,-0.404132,0.285945,0.456761,0.583729,0.015008,-0.089028,-0.285775,-0.299148,0.001416,0.152014
-0.008850,-0.497978,-0.167098,0.193949,-0.075346,0.049437,0.464091,-0.278656,0.165188,0.545509,0.582277,0.022609,0.247403,-0.429672,-0.005163,0.702170,-0.527773,-0.104840,-0.172970,-0.409806,0.299614,0.492573,0.650586,0.020093,-0.080782,-0.281895,-0.295114,0.001416,0.150799
-0.025908,-0.498589,-0.143624,0.189794,-0.081671,0.038237,0.443317,-0.278978,0.174490,0.540642,0.563717,0.018512,0.227180,-0.437699,0.009520,0.670134,-0.502166,-0.103887,-0.140463,-0.412639,0.311902,0.526758,0.712426,0.021107,-0.073133,-0.278137,-0.291707,-0.000383,0.149065
-0.039372,-0.492721,-0.120273,0.185292,-0.085522,0.026460,0.426481,-0.274297,0.184431,0.533722,0.539734,0.023628,0.212818,-0.437699,0.019589,0.639700,-0.476497,-0.094450,-0.100933,-0.412639,0.321430,0.557690,0.764234,0.013980,-0.066675,-0.274624,-0.289554,-0.000383,0.149065
-0.050613,-0.482106,-0.099550,0.182989,-0.078270,0.016899,0.407774,-0.243598,0.193572,0.525937,0.517239,0.033646,0.204924,-0.432871,0.024183,0.613622,-0.453343,-0.086391,-0.074084,-0.414073,0.330558,0.588315,0.802477,0.001385,-0.056932,-0.270453,-0.288182,-0.003131,0.148777
-0.060742,-0.469118,-0.080142,0.182186,-0.065468,0.008447,0.388133,-0.199891,0.202315,0.517718,0.495489,0.046117,0.200263,-0.424539,0.026040,0.589724,-0.431446,-0.079021,-0.053577,-0.417648,0.339487,0.618788,0.833937,-0.013942,-0.045546,-0.265953,-0.287720,-0.005842,0.149413
-0.071276,-0.450392,-0.066955,0.180796,-0.063440,0.003092,0.364170,-0.165561,0.203938,0.507983,0.498301,0.062969,0.205763,-0.411105,0.001786,0.566182,-0.412581,-0.074331,-0.060133,-0.418983,0.336600,0.658040,0.846715,-0.020847,-0.029476,-0.262639,-0.287720,-0.008153,0.153348
-0.083289,-0.431050,-0.055514,0.178842,-0.064538,-0.001441,0.337422,-0.137463,0.203292,0.499072,0.508685,0.080960,0.212877,-0.397180,-0.026335,0.542233,-0.394609,-0.070131,-0.063945,-0.415968,0.331056,0.696920,0.858015,-0.027862,-0.016253,-0.259743,-0.287683,-0.009107,0.156789
-0.098258,-0.410477,-0.047565,0.175764,-0.071885,-0.004333,0.305103,-0.121829,0.198106,0.491809,0.534212,0.101229,0.223221,-0.382276,-0.062190,0.517467,-0.378421,-0.066912,-0.063945,-0.404253,0.320197,0.735053,0.866358,-0.035098,-0.008723,-0.259743,-0.287683,-0.007346,0.156789
-0.114882,-0.385018,-0.043055,0.171533,-0.077775,-0.006124,0.267546,-0.109191,0.190452,0.487395,0.562959,0.124157,0.234522,-0.368161,-0.098185,0.494963,-0.363051,-0.064847,-0.062514,-0.384399,0.302950,0.768293,0.876886,-0.043450,-0.001987,-0.256858,-0.286551,-0.006357,0.154618
-0.132333,-0.357116,-0.040267,0.166726,-0.082936,-0.006951,0.227370,-0.098051,0.181563,0.484405,0.593314,0.148416,0.246301,-0.354442,-0.134251,0.473589,-0.348089,-0.063855,-0.061207,-0.360475,0.282508,0.799086,0.888506,-0.052359,0.004351,-0.253560,-0.285200,-0.006900,0.150135
-0.150246,-0.325565,-0.038254,0.159031,-0.085310,-0.008327,0.186628,-0.090511,0.170151,0.481940,0.620629,0.171221,0.258029,-0.343055,-0.163481,0.458022,-0.335749,-0.062532,-0.056550,-0.336575,0.259122,0.826710,0.900192,-0.048515,0.009278,-0.248678,-0.282723,-0.006900,0.146979
-0.167284,-0.294714,-0.035164,0.150666,-0.088757,-0.010320,0.148067,-0.086317,0.158586,0.477764,0.646043,0.192316,0.268257,-0.331531,-0.188287,0.444442,-0.325008,-0.062402,-0.052871,-0.313369,0.238539,0.854461,0.911939,-0.041095,0.012563,-0.244041,-0.279902,-0.007361,0.144426
-0.182569,-0.265262,-0.029920,0.140964,-0.094349,-0.013547,0.113872,-0.088814,0.146715,0.470165,0.667658,0.209995,0.275482,-0.319733,-0.204245,0.434832,-0.317463,-0.062402,-0.052871,-0.291550,0.223562,0.882468,0.923812,-0.026523,0.012563,-0.239896,-0.276396,-0.007361,0.144426
-0.196055,-0.237914,-0.020631,0.128687,-0.103408,-0.019150,0.084232,-0.094432,0.134060,0.457931,0.678582,0.223778,0.278197,-0.306830,-0.215097,0.428775,-0.312265,-0.063784,-0.054200,-0.273020,0.216566,0.909832,0.936872,-0.013257,0.009489,-0.236124,-0.273075,-0.006016,0.141753
-0.208642,-0.211619,-0.009319,0.115123,-0.114199,-0.025941,0.056871,-0.101611,0.121015,0.443379,0.684160,0.235611,0.278504,-0.293376,-0.223397,0.424493,-0.308239,-0.064414,-0.057056,-0.256136,0.213011,0.936875,0.950527,-0.000645,0.004587,-0.232539,-0.269848,-0.004726,0.138416
-0.219745,-0.186143,0.005132,0.104815,-0.121959,-0.032763,0.037089,-0.108184,0.106601,0.427111,0.664162,0.242605,0.273775,-0.281532,-0.225087,0.421732,-0.304122,-0.067975,-0.062847,-0.240463,0.213011,0.967074,0.965868,0.009313,-0.002560,-0.229398,-0.267558,-0.002111,0.132498
-0.229064,-0.161574,0.020515,0.095917,-0.127632,-0.039223,0.019507,-0.112566,0.092924,0.409892,0.638607,0.248549,0.267962,-0.270002,-0.219642,0.418259,-0.300225,-0.072479,-0.064307,-0.223660,0.213093,0.997591,0.979482,0.018874,-0.009885,-0.226190,-0.265195,0.001112,0.126923
-0.234813,-0.138818,0.037765,0.089840,-0.129130,-0.044960,0.006327,-0.112566,0.080723,0.390770,0.601940,0.252393,0.259982,-0.259099,-0.199929,0.413363,-0.296769,-0.078871,-0.057104,-0.204599,0.213093,1.028748,0.989646,0.027641,-0.017566,-0.222847,-0.262683,0.005551,0.122032
-0.243394,-0.116772,0.055556,0.081837,-0.127491,-0.053105,-0.005553,-0.104131,0.068957,0.375905,0.551975,0.254543,0.250545,-0.250834,-0.173325,0.407483,-0.294032,-0.082627,-0.037232,-0.183171,0.215174,1.057732,0.995936,0.029763,-0.027841,-0.220449,-0.260971,0.008649,0.117138
-0.253391,-0.095080,0.073618,0.072871,-0.124284,-0.062453,-0.016783,-0.090217,0.057408,0.363168,0.495361,0.256822,0.240380,-0.243886,-0.143276,0.401111,-0.291653,-0.085065,-0.011025,-0.160559,0.217347,1.085630,1.000289,0.028564,-0.039412,-0.219056,-0.260767,0.011077,0.112243
-0.264594,-0.080338,0.087020,0.063504,-0.128120,-0.073379,-0.024586,-0.090217,0.049734,0.355877,0.448101,0.256822,0.230344,-0.237495,-0.153419,0.394850,-0.290394,-0.089249,0.014178,-0.140628,0.219354,1.104290,0.993982,0.019066,-0.052349,-0.219056,-0.260767,0.009456,0.107585
-0.276060,-0.067467,0.099297,0.055337,-0.132438,-0.084344,-0.030388,-0.092387,0.043576,0.350551,0.405384,0.257069,0.220204,-0.231789,-0.167483,0.388908,-0.288838,-0.094289,0.033752,-0.123102,0.222486,1.120411,0.985577,0.009783,-0.064544,-0.219589,-0.261916,0.007550,0.102932
-0.288055,-0.058340,0.109326,0.049569,-0.137718,-0.095388,-0.032185,-0.101860,0.040450,0.349153,0.371756,0.257069,0.209860,-0.227450,-0.189388,0.383605,-0.288838,-0.101041,0.042066,-0.110384,0.227868,1.131454,0.972975,0.000930,-0.075254,-0.219589,-0.263349,0.007550,0.098288
-0.301294,-0.050703,0.116459,0.044982,-0.142857,-0.105264,-0.032363,-0.115453,0.038053,0.352114,0.341094,0.254719,0.199618,-0.223723,-0.211267,0.378239,-0.288121,-0.107666,0.044327,-0.103193,0.234285,1.139082,0.960124,-0.006053,-0.082507,-0.218978,-0.264981,0.005946,0.093906
-0.315156,-0.043811,0.122143,0.040983,-0.147925,-0.114557,-0.032363,-0.131105,0.036021,0.357255,0.311915,0.252291,0.189427,-0.220302,-0.233132,0.372843,-0.288121,-0.114228,0.044327,-0.098765,0.241218,1.145003,0.947149,-0.012101,-0.088030,-0.218978,-0.266713,0.005946,0.089655
-0.327767,-0.038845,0.125171,0.038389,-0.151104,-0.120574,-0.032294,-0.146042,0.035349,0.364186,0.287615,0.247044,0.180754,-0.217572,-0.252907,0.366886,-0.287053,-0.123107,0.047770,-0.100215,0.246642,1.147548,0.936205,-0.013460,-0.090672,-0.218200,-0.266713,0.004619,0.087088
-0.338203,-0.034044,0.128545,0.037534,-0.152307,-0.124956,-0.033175,-0.158503,0.035232,0.369802,0.264861,0.240553,0.173453,-0.213091,-0.269603,0.360521,-0.285980,-0.132114,0.051323,-0.099948,0.250795,1.149244,0.925566,-0.013304,-0.094243,-0.218210,-0.265714,0.004428,0.084521
-0.344291,-0.029576,0.132612,0.040157,-0.149558,-0.124956,-0.034762,-0.166010,0.036894,0.369802,0.245200,0.231577,0.168898,-0.205108,-0.280138,0.353342,-0.284345,-0.141379,0.054074,-0.096245,0.252407,1.149244,0.915535,-0.010117,-0.099673,-0.219427,-0.265714,0.004428,0.081953
-0.343785,-0.026139,0.137203,0.046616,-0.142706,-0.121733,-0.036059,-0.167692,0.039625,0.361601,0.228257,0.220254,0.166062,-0.193278,-0.283649,0.344671,-0.282405,-0.150981,0.052186,-0.090113,0.253121,1.149596,0.908467,-0.007774,-0.104643,-0.220101,-0.265051,0.005451,0.078490
-0.339983,-0.023218,0.142057,0.054993,-0.133803,-0.116343,-0.036974,-0.166460,0.042890,0.347808,0.212673,0.207758,0.164086,-0.179525,-0.283957,0.335256,-0.279416,-0.160752,0.047978,-0.082766,0.253296,1.149855,0.903571,-0.005853,-0.110022,-0.219915,-0.265067,0.007033,0.074580
-0.329992,-0.021690,0.144613,0.069192,-0.118858,-0.104145,-0.036974,-0.159175,0.046820,0.325807,0.201420,0.195755,0.162745,-0.167167,-0.278865,0.323748,-0.279416,-0.174106,0.041182,-0.078302,0.255233,1.147342,0.903571,-0.005853,-0.110022,-0.219915,-0.265067,0.007033,0.072138
-0.319036,-0.021534,0.145736,0.084223,-0.103781,-0.090526,-0.035759,-0.152168,0.050480,0.302621,0.193186,0.184508,0.161018,-0.160618,-0.274299,0.311747,-0.279419,-0.185088,0.034336,-0.075925,0.258079,1.144051,0.905690,-0.005653,-0.111451,-0.219174,-0.264190,0.008746,0.069609
-0.306149,-0.024125,0.143995,0.100917,-0.088439,-0.074065,-0.031672,-0.145718,0.053600,0.277064,0.190991,0.174771,0.161018,-0.165684,-0.270783,0.298759,-0.279419,-0.191327,0.027393,-0.077722,0.262747,1.139205,0.909973,-0.003810,-0.113822,-0.219174,-0.262241,0.011132,0.069609
-0.294698,-0.027670,0.138377,0.115910,-0.075664,-0.058925,-0.022492,-0.139823,0.056986,0.257436,0.193282,0.167829,0.159323,-0.179822,-0.268902,0.287534,-0.281592,-0.192262,0.019574,-0.083158,0.267641,1.132518,0.914953,-0.000196,-0.116154,-0.218632,-0.260257,0.013936,0.067167
-0.283964,-0.031692,0.130823,0.130051,-0.064172,-0.044446,-0.010764,-0.134205,0.060505,0.240773,0.197815,0.162285,0.158462,-0.198495,-0.267778,0.277189,-0.284205,-0.190547,0.011319,-0.090414,0.272647,1.124909,0.920284,0.004303,-0.118465,-0.218862,-0.258255,0.016949,0.064856
-0.280042,-0.035462,0.117767,0.132194,-0.059037,-0.036298,0.000315,-0.128001,0.065136,0.252100,0.203125,0.158833,0.154697,-0.215856,-0.267778,0.271584,-0.284205,-0.206626,0.004763,-0.104693,0.275617,1.117911,0.927088,0.009872,-0.115954,-0.218862,-0.256264,0.019586,0.061220
-0.273875,-0.037563,0.103960,0.129916,-0.054782,-0.028604,0.004791,-0.121461,0.069637,0.267123,0.207287,0.155797,0.151384,-0.236269,-0.266484,0.266502,-0.285229,-0.218253,-0.001065,-0.119619,0.276759,1.112273,0.933810,0.015645,-0.113386,-0.219347,-0.253940,0.022015,0.057781
-0.263216,-0.036322,0.088651,0.118799,-0.052286,-0.021815,-0.003937,-0.114250,0.073877,0.289539,0.209151,0.153593,0.148977,-0.262784,-0.263846,0.262469,-0.285229,-0.220974,-0.005436,-0.135840,0.274246,1.112273,0.940367,0.021825,-0.110703,-0.219347,-0.250953,0.024026,0.054734
-0.251474,-0.035269,0.077086,0.107599,-0.049492,-0.014778,-0.008316,-0.104803,0.075004,0.315242,0.208660,0.151729,0.149926,-0.290382,-0.260352,0.258234,-0.286464,-0.216067,-0.008430,-0.148453,0.268966,1.113958,0.944465,0.030166,-0.109999,-0.218989,-0.247017,0.023842,0.052852
-0.239190,-0.034628,0.067393,0.096357,-0.046548,-0.007617,-0.010521,-0.094238,0.074718,0.342589,0.206992,0.150035,0.152553,-0.318522,-0.256431,0.253900,-0.287380,-0.207346,-0.010735,-0.159262,0.262302,1.117944,0.946374,0.039588,-0.110189,-0.218198,-0.242607,0.022987,0.051986
-0.228223,-0.038758,0.062830,0.086565,-0.042761,-0.000600,-0.005122,-0.081425,0.069012,0.362690,0.204909,0.150035,0.158242,-0.340307,-0.254375,0.249161,-0.289620,-0.204314,-0.010735,-0.166439,0.255118,1.121112,0.946374,0.048202,-0.108548,-0.218198,-0.237383,0.020569,0.054426
-0.216738,-0.043615,0.059215,0.079124,-0.038390,0.006554,0.005439,-0.068307,0.062348,0.376587,0.202099,0.149919,0.163765,-0.355633,-0.251507,0.244385,-0.292517,-0.202311,-0.010370,-0.172997,0.249824,1.122382,0.944574,0.054701,-0.105776,-0.217356,-0.231748,0.018550,0.057172
-0.204221,-0.049927,0.057496,0.076385,-0.032848,0.013978,0.026323,-0.054579,0.053768,0.378074,0.197833,0.151593,0.168956,-0.358042,-0.247012,0.239537,-0.296730,-0.202311,-0.010370,-0.178316,0.248307,1.119853,0.942057,0.056966,-0.100745,-0.215609,-0.225293,0.017325,0.060526
-0.189381,-0.055608,0.054614,0.081769,-0.025523,0.022555,0.058493,-0.041948,0.044752,0.362794,0.191668,0.153285,0.172694,-0.357560,-0.241197,0.235127,-0.301337,-0.179539,-0.007472,-0.185150,0.249206,1.116533,0.939678,0.058132,-0.099068,-0.211445,-0.217515,0.016917,0.062009
-0.173381,-0.061370,0.051150,0.091215,-0.017306,0.031708,0.096306,-0.029864,0.035518,0.339130,0.184553,0.154985,0.175705,-0.355632,-0.234721,0.230937,-0.306142,-0.145352,-0.004100,-0.192743,0.251843,1.113621,0.937368,0.058542,-0.098986,-0.206072,-0.209074,0.016720,0.062373
-0.159010,-0.061370,0.043593,0.093403,-0.015324,0.035707,0.116726,-0.018398,0.028046,0.306622,0.170301,0.151594,0.177779,-0.335309,-0.228089,0.227862,-0.310241,-0.127233,0.000741,-0.206628,0.251843,1.113621,0.932744,0.069256,-0.105286,-0.194867,-0.197138,0.016720,0.059991
-0.146337,-0.061769,0.036453,0.095836,-0.013193,0.039370,0.133742,-0.007738,0.020665,0.277785,0.156414,0.147078,0.180132,-0.316395,-0.220287,0.224880,-0.313766,-0.116167,0.005091,-0.219507,0.251144,1.116184,0.928843,0.083679,-0.110491,-0.183736,-0.186216,0.015131,0.057679
-0.137060,-0.061769,0.030146,0.095836,-0.013193,0.042358,0.143949,0.001309,0.013465,0.256290,0.143259,0.140313,0.183046,-0.300298,-0.210145,0.222085,-0.313766,-0.119207,0.008463,-0.230374,0.247451,1.121463,0.926390,0.105523,-0.113504,-0.172752,-0.177322,0.009907,0.055506
-0.127053,-0.057979,0.023699,0.096749,-0.012383,0.044555,0.151631,0.008874,0.008733,0.238423,0.130723,0.133208,0.184993,-0.289125,-0.200730,0.219882,-0.312824,-0.125334,0.010989,-0.239504,0.242950,1.125762,0.926708,0.131993,-0.113684,-0.163326,-0.170580,0.002473,0.054782
-0.116680,-0.053215,0.017181,0.096688,-0.012571,0.046903,0.158049,0.015698,0.005236,0.222369,0.118497,0.125932,0.186740,-0.280414,-0.191678,0.217974,-0.310223,-0.133004,0.013092,-0.247766,0.238044,1.129571,0.928413,0.160777,-0.112896,-0.154678,-0.164914,-0.006066,0.054403
-0.109122,-0.051686,0.012112,0.094160,-0.014237,0.046903,0.164003,0.022261,0.001014,0.209886,0.111208,0.119727,0.186740,-0.273718,-0.187023,0.216232,-0.305342,-0.128850,0.017026,-0.254436,0.231299,1.131254,0.932463,0.184295,-0.112896,-0.150577,-0.160056,-0.009997,0.056873
-0.101923,-0.051520,0.007292,0.091295,-0.016210,0.047912,0.169886,0.028299,-0.003113,0.197550,0.106174,0.113863,0.187026,-0.267123,-0.183257,0.214327,-0.300396,-0.122941,0.021745,-0.260116,0.224162,1.132377,0.935728,0.206318,-0.115357,-0.146923,-0.154705,-0.013192,0.060478
-0.095440,-0.054080,0.002969,0.087753,-0.018800,0.049298,0.175628,0.033286,-0.007048,0.185507,0.106174,0.108682,0.187026,-0.260729,-0.181269,0.212097,-0.295318,-0.113526,0.028036,-0.263814,0.216243,1.132377,0.937426,0.225354,-0.121395,-0.146923,-0.148369,-0.013192,0.066355
-0.089548,-0.055818,-0.001194,0.084634,-0.021161,0.050644,0.180202,0.037768,-0.009233,0.176997,0.107634,0.103198,0.187177,-0.257078,-0.180607,0.209457,-0.290300,-0.106993,0.032117,-0.265869,0.207233,1.132399,0.937504,0.237511,-0.130177,-0.145427,-0.142634,-0.012366,0.073835
-0.083953,-0.057296,-0.005277,0.081726,-0.023408,0.051780,0.184192,0.041997,-0.009916,0.170254,0.110086,0.097563,0.187241,-0.254496,-0.180577,0.206611,-0.285313,-0.101900,0.035095,-0.266692,0.197677,1.133061,0.936715,0.246229,-0.140330,-0.144142,-0.137200,-0.010266,0.082117
-0.078898,-0.057296,-0.007945,0.079075,-0.025266,0.051780,0.187464,0.047589,-0.009916,0.167467,0.114519,0.092269,0.187241,-0.254496,-0.180577,0.203847,-0.279997,-0.099873,0.036946,-0.263659,0.188153,1.134643,0.936715,0.248238,-0.151328,-0.144142,-0.134237,-0.007763,0.089580
-0.073774,-0.058082,-0.010812,0.076176,-0.027449,0.051116,0.190131,0.052027,-0.008249,0.165219,0.120745,0.087132,0.186050,-0.254116,-0.182229,0.201223,-0.274659,-0.097287,0.039212,-0.260498,0.178987,1.136162,0.936858,0.248674,-0.161731,-0.142850,-0.131565,-0.005568,0.095494
-0.068511,-0.058082,-0.014079,0.072778,-0.030284,0.049692,0.191589,0.054155,-0.005134,0.164048,0.130556,0.082312,0.183636,-0.254116,-0.185495,0.198883,-0.269279,-0.093581,0.039212,-0.257078,0.170534,1.137553,0.938192,0.245963,-0.170942,-0.141099,-0.131565,-0.003990,0.098312
-0.063961,-0.059735,-0.017001,0.070031,-0.033086,0.048015,0.192982,0.054350,-0.001131,0.165367,0.143047,0.077965,0.180067,-0.254487,-0.189396,0.196909,-0.264172,-0.089350,0.041487,-0.253136,0.163790,1.138999,0.940666,0.241254,-0.177818,-0.138261,-0.130868,-0.003463,0.097873
-0.059768,-0.061264,-0.019750,0.067609,-0.035871,0.046213,0.194632,0.053836,0.003315,0.167932,0.156878,0.073855,0.175922,-0.254937,-0.193613,0.194305,-0.259201,-0.084857,0.043841,-0.248933,0.157900,1.140471,0.943711,0.235545,-0.183803,-0.134880,-0.131581,-0.003333,0.095807
-0.056462,-0.064174,-0.022740,0.065524,-0.038171,0.044165,0.194632,0.053836,0.007024,0.171330,0.172752,0.070072,0.170711,-0.256285,-0.198713,0.194305,-0.254197,-0.082401,0.043841,-0.245843,0.152941,1.144369,0.947863,0.231119,-0.183803,-0.132677,-0.131581,-0.003333,0.091515
-0.052954,-0.067512,-0.025394,0.063172,-0.040515,0.041920,0.195883,0.054698,0.010358,0.173486,0.188546,0.066144,0.165403,-0.257158,-0.203970,0.193491,-0.249464,-0.079969,0.044873,-0.244719,0.148732,1.148529,0.951918,0.227520,-0.183265,-0.130276,-0.131452,-0.004674,0.087691
-0.049039,-0.071704,-0.027380,0.060288,-0.042950,0.039283,0.195883,0.054698,0.012944,0.173486,0.204181,0.061923,0.159900,-0.257158,-0.209544,0.193491,-0.245275,-0.077590,0.046498,-0.244719,0.146019,1.153216,0.955775,0.225575,-0.180819,-0.130276,-0.131452,-0.004674,0.084802
-0.045218,-0.076133,-0.028559,0.057502,-0.045315,0.036484,0.197315,0.056508,0.014680,0.172103,0.218880,0.058172,0.154938,-0.256575,-0.214807,0.193800,-0.241454,-0.075181,0.048694,-0.247142,0.144128,1.156698,0.959295,0.224927,-0.179375,-0.128857,-0.131218,-0.006903,0.083114
-0.040457,-0.080679,-0.028381,0.054765,-0.047645,0.033604,0.199666,0.058258,0.015991,0.169859,0.233111,0.054656,0.150248,-0.256019,-0.219914,0.195098,-0.237818,-0.072757,0.051177,-0.249373,0.143051,1.159577,0.962646,0.224783,-0.178321,-0.129107,-0.130946,-0.008926,0.081580
-0.040457,-0.085290,-0.028381,0.052924,-0.049282,0.030565,0.199666,0.058258,0.015991,0.169859,0.244454,0.051926,0.146337,-0.256019,-0.224412,0.195098,-0.234491,-0.071214,0.053452,-0.251238,0.143051,1.159577,0.965570,0.224783,-0.178321,-0.129107,-0.130946,-0.011172,0.081580
-0.039839,-0.089532,-0.026825,0.051281,-0.050844,0.027688,0.200652,0.059052,0.016118,0.170223,0.255029,0.049684,0.142260,-0.256022,-0.228623,0.196622,-0.231340,-0.069791,0.055528,-0.253442,0.144086,1.158874,0.968893,0.224862,-0.177367,-0.130417,-0.130739,-0.013087,0.079952
-0.039839,-0.093036,-0.026825,0.050034,-0.052254,0.025136,0.200652,0.059052,0.016118,0.172316,0.264065,0.048420,0.137851,-0.256022,-0.232260,0.196622,-0.228540,-0.068607,0.057206,-0.253442,0.145984,1.155927,0.973016,0.224862,-0.175787,-0.132140,-0.130739,-0.014339,0.079952
-0.041204,-0.095333,-0.024905,0.049277,-0.053153,0.022980,0.199705,0.058450,0.016333,0.175185,0.270395,0.047522,0.133377,-0.257530,-0.234875,0.197772,-0.226072,-0.067423,0.058712,-0.255313,0.149324,1.151956,0.977502,0.224514,-0.174482,-0.133646,-0.129596,-0.014601,0.078985
-0.042697,-0.096680,-0.023315,0.048936,-0.053582,0.021023,0.197234,0.057138,0.015627,0.178442,0.275371,0.047215,0.128872,-0.258783,-0.237411,0.198214,-0.223769,-0.066633,0.060332,-0.256680,0.153385,1.147473,0.982170,0.222923,-0.173720,-0.134255,-0.128486,-0.013671,0.079553
-0.044188,-0.096680,-0.020762,0.048936,-0.053582,0.019332,0.197234,0.057138,0.015627,0.181142,0.275371,0.047215,0.124882,-0.258783,-0.237411,0.198214,-0.222072,-0.066633,0.060332,-0.256680,0.158603,1.144604,0.987110,0.222923,-0.173720,-0.134255,-0.128486,-0.013671,0.079553
-0.046131,-0.095814,-0.018153,0.049915,-0.053103,0.017802,0.195599,0.056442,0.014497,0.183456,0.274308,0.047321,0.120929,-0.259414,-0.237044,0.197585,-0.220360,-0.066247,0.061534,-0.256880,0.163388,1.143219,0.992396,0.222618,-0.174930,-0.133154,-0.127378,-0.012413,0.080884
-0.046131,-0.094255,-0.015434,0.049915,-0.053103,0.016593,0.195599,0.056442,0.012969,0.184997,0.271074,0.047321,0.117052,-0.259414,-0.237044,0.197585,-0.218618,-0.066247,0.061534,-0.256880,0.167308,1.144803,0.998372,0.224194,-0.178513,-0.130824,-0.126128,-0.010962,0.082733
-0.047081,-0.091382,-0.013347,0.051214,-0.052058,0.015492,0.194192,0.055140,0.011583,0.186409,0.266139,0.046843,0.113168,-0.259461,-0.234900,0.196157,-0.216801,-0.065908,0.062668,-0.257432,0.170131,1.148694,1.004534,0.226671,-0.183514,-0.128235,-0.124543,-0.010086,0.084245
-0.047479,-0.087854,-0.011105,0.052750,-0.050971,0.014554,0.192531,0.054431,0.010000,0.188137,0.260352,0.046429,0.109282,-0.259137,-0.232879,0.194539,-0.214946,-0.066502,0.063273,-0.257912,0.172807,1.153738,1.010789,0.229600,-0.189222,-0.125036,-0.122792,-0.009694,0.085141
-0.047479,-0.083378,-0.011105,0.052750,-0.050971,0.014554,0.192531,0.053057,0.010000,0.188137,0.252894,0.046429,0.105835,-0.259137,-0.229752,0.194539,-0.213076,-0.066502,0.063273,-0.259327,0.172807,1.159858,1.016252,0.231068,-0.193241,-0.125036,-0.121251,-0.009694,0.085141
-0.047834,-0.078752,-0.010399,0.054020,-0.049783,0.014315,0.190782,0.051555,0.008510,0.189928,0.245107,0.047303,0.102888,-0.258525,-0.226270,0.193048,-0.211229,-0.067249,0.064118,-0.260870,0.172500,1.165359,1.020976,0.232734,-0.196530,-0.125196,-0.119284,-0.009186,0.085575
-0.047834,-0.073823,-0.010399,0.055264,-0.049783,0.014315,0.190782,0.049796,0.008510,0.189928,0.236661,0.049007,0.100940,-0.258525,-0.222077,0.193048,-0.209431,-0.067249,0.064118,-0.262668,0.172500,1.169628,1.024224,0.232734,-0.198359,-0.127118,-0.119284,-0.007054,0.085575
-0.048835,-0.068925,-0.010259,0.056537,-0.048487,0.014243,0.188908,0.047878,0.006824,0.191851,0.227470,0.051273,0.099986,-0.258044,-0.217568,0.191775,-0.207869,-0.068070,0.064806,-0.264807,0.171276,1.172926,1.026163,0.234045,-0.198148,-0.130198,-0.117988,-0.004341,0.084194
