Lukebird17/AI3618-SONIC/reference/reference/example/tired_one_leg_jumping_R_001__A359_M/joint_pos.csv
joint_0,joint_1,joint_2,joint_3,joint_4,joint_5,joint_6,joint_7,joint_8,joint_9,joint_10,joint_11,joint_12,joint_13,joint_14,joint_15,joint_16,joint_17,joint_18,joint_19,joint_20,joint_21,joint_22,joint_23,joint_24,joint_25,joint_26,joint_27,joint_28
0.181954,0.198151,-0.055335,-0.011812,0.013943,0.025311,0.236378,0.003921,0.216289,0.070272,0.070721,-0.007908,-0.061737,-0.185938,-0.181864,0.203917,-0.206187,0.023533,-0.003879,-0.463999,0.451963,1.180883,1.258326,-0.143057,0.003308,0.080138,0.039476,0.025877,-0.070982
0.184008,0.199794,-0.055335,-0.011812,0.013943,0.025311,0.236378,0.003921,0.219415,0.068933,0.070721,-0.016477,-0.070001,-0.185938,-0.181864,0.198563,-0.200975,0.023533,-0.003879,-0.463999,0.453749,1.191131,1.270368,-0.159199,0.011495,0.081944,0.039476,0.028716,-0.082627
0.185939,0.201240,-0.056183,-0.012138,0.013623,0.026330,0.236989,0.004047,0.222635,0.068498,0.070593,-0.023009,-0.076081,-0.186283,-0.182479,0.194711,-0.197136,0.023399,-0.003004,-0.465551,0.455387,1.197964,1.278912,-0.172680,0.018482,0.083748,0.040142,0.031298,-0.092379
0.185939,0.201240,-0.056183,-0.012138,0.013623,0.026330,0.236989,0.004047,0.226045,0.069872,0.072244,-0.023009,-0.076081,-0.186283,-0.182479,0.194711,-0.197136,0.023399,-0.003004,-0.465551,0.456731,1.197964,1.280459,-0.180836,0.023072,0.083748,0.040142,0.033364,-0.098346
0.186176,0.200886,-0.058067,-0.011870,0.013329,0.027354,0.237803,0.004552,0.228786,0.071541,0.074427,-0.023996,-0.077224,-0.186839,-0.183212,0.194427,-0.196771,0.023373,-0.002373,-0.467573,0.457179,1.198064,1.281458,-0.186198,0.026531,0.084579,0.040120,0.034992,-0.102459
0.185253,0.200183,-0.059624,-0.011883,0.012720,0.027800,0.238586,0.004553,0.231193,0.073358,0.076876,-0.024165,-0.078265,-0.188173,-0.183792,0.194168,-0.196572,0.023614,-0.002169,-0.469381,0.458044,1.197174,1.281492,-0.190164,0.029425,0.084809,0.040007,0.037213,-0.105644
0.185253,0.198814,-0.061218,-0.011883,0.012720,0.027800,0.238586,0.004553,0.233125,0.075071,0.079773,-0.024165,-0.078265,-0.188173,-0.185352,0.194168,-0.196572,0.023614,-0.002169,-0.470913,0.458044,1.197174,1.281492,-0.192059,0.030760,0.084809,0.040007,0.037213,-0.106913
0.184369,0.197251,-0.063277,-0.012021,0.012377,0.028580,0.239193,0.004078,0.235051,0.077031,0.082288,-0.024276,-0.079512,-0.189034,-0.186918,0.194075,-0.196660,0.024473,-0.001904,-0.472876,0.458320,1.196847,1.281042,-0.193784,0.032126,0.085327,0.040253,0.038025,-0.108450
0.184369,0.197251,-0.063277,-0.012021,0.012377,0.028580,0.239193,0.004078,0.236966,0.077031,0.084039,-0.024276,-0.079512,-0.189034,-0.186918,0.194075,-0.196660,0.024473,-0.001904,-0.472876,0.458320,1.196847,1.281042,-0.195169,0.032126,0.085327,0.040253,0.038025,-0.108450
0.184548,0.197140,-0.065220,-0.012228,0.011964,0.029336,0.239484,0.004781,0.239184,0.077848,0.084146,-0.025263,-0.081152,-0.189728,-0.187444,0.193965,-0.196921,0.024846,-0.001544,-0.474753,0.458354,1.196668,1.280080,-0.196471,0.033480,0.085607,0.040289,0.039059,-0.109921
0.185950,0.198672,-0.066169,-0.012454,0.011921,0.030191,0.240160,0.005823,0.241554,0.076772,0.083669,-0.025978,-0.082440,-0.189891,-0.186690,0.193913,-0.197420,0.024790,-0.001252,-0.476153,0.458573,1.197413,1.279368,-0.198288,0.035090,0.085333,0.039551,0.040077,-0.111286
0.185950,0.198672,-0.066169,-0.012454,0.011921,0.030191,0.240160,0.005823,0.244264,0.076772,0.082338,-0.027531,-0.083730,-0.189891,-0.186690,0.193913,-0.197420,0.024790,-0.001252,-0.477977,0.460604,1.197413,1.279368,-0.198288,0.035090,0.085333,0.039551,0.040077,-0.111286
0.187404,0.200273,-0.066147,-0.012936,0.011627,0.031024,0.241059,0.006873,0.247162,0.075390,0.080885,-0.029232,-0.085214,-0.189766,-0.185572,0.193638,-0.198258,0.024796,-0.000619,-0.479786,0.463280,1.198459,1.279001,-0.199466,0.036438,0.085037,0.039193,0.041105,-0.111871
0.188948,0.202098,-0.066147,-0.012936,0.011627,0.031024,0.241059,0.006873,0.250437,0.075390,0.079185,-0.031228,-0.087086,-0.189766,-0.185572,0.193638,-0.198258,0.024796,-0.000619,-0.481566,0.467247,1.198459,1.279001,-0.199466,0.036438,0.085037,0.039193,0.041105,-0.111871
0.190319,0.203686,-0.065212,-0.013432,0.011332,0.031872,0.242093,0.008129,0.253546,0.074767,0.077693,-0.033114,-0.088888,-0.189673,-0.185245,0.192922,-0.199119,0.025224,-0.000206,-0.483057,0.470683,1.199547,1.279285,-0.200431,0.037648,0.084639,0.039217,0.041491,-0.111409
0.190319,0.205155,-0.065212,-0.013432,0.011332,0.031872,0.242093,0.008129,0.256573,0.074767,0.076306,-0.034943,-0.090656,-0.189673,-0.185245,0.192922,-0.199119,0.025224,-0.000206,-0.483057,0.473853,1.199547,1.279285,-0.200431,0.037648,0.084639,0.039217,0.041491,-0.111409
0.191585,0.205967,-0.063430,-0.013442,0.011301,0.032618,0.243162,0.009255,0.259453,0.075045,0.075399,-0.036815,-0.092874,-0.189386,-0.183953,0.192059,-0.199953,0.025384,0.000246,-0.484725,0.477785,1.200050,1.280321,-0.200556,0.038242,0.084650,0.039211,0.042457,-0.110806
0.191995,0.207327,-0.061601,-0.013663,0.010949,0.033259,0.244010,0.009721,0.262263,0.075292,0.074076,-0.038705,-0.095338,-0.188915,-0.183121,0.191230,-0.200906,0.025331,0.000244,-0.486122,0.481844,1.199780,1.281486,-0.200443,0.038445,0.084996,0.039297,0.042835,-0.110533
0.191995,0.207327,-0.061601,-0.013663,0.010949,0.033259,0.244010,0.009721,0.264930,0.075292,0.072829,-0.040632,-0.098292,-0.188915,-0.183121,0.191230,-0.200906,0.025331,0.000244,-0.488002,0.486153,1.199780,1.282806,-0.200443,0.038445,0.084996,0.039297,0.042835,-0.110533
0.192293,0.208742,-0.060220,-0.013926,0.010628,0.033598,0.244382,0.010480,0.267603,0.075292,0.071408,-0.042307,-0.100986,-0.188619,-0.182635,0.190522,-0.201672,0.025450,0.000492,-0.489434,0.489325,1.199069,1.283379,-0.201019,0.039150,0.085180,0.039071,0.043069,-0.110297
0.192792,0.210190,-0.059443,-0.014141,0.010550,0.033765,0.244129,0.010891,0.270279,0.074971,0.069900,-0.044725,-0.103548,-0.188318,-0.182541,0.189692,-0.202273,0.025825,0.001044,-0.490819,0.491928,1.198266,1.283512,-0.201623,0.039981,0.085131,0.038685,0.043064,-0.110300
0.192792,0.210190,-0.059443,-0.014141,0.010550,0.033765,0.244129,0.010891,0.272414,0.074971,0.068217,-0.044725,-0.106341,-0.188318,-0.182541,0.189692,-0.202273,0.025825,0.001044,-0.490819,0.494164,1.198266,1.283512,-0.201623,0.039981,0.085131,0.038685,0.043064,-0.110300
0.192245,0.210226,-0.058506,-0.015052,0.009824,0.033676,0.243734,0.010600,0.274731,0.074506,0.067469,-0.046037,-0.109140,-0.188587,-0.183840,0.188962,-0.202598,0.026316,0.001647,-0.491974,0.496418,1.197183,1.283174,-0.200892,0.040594,0.085110,0.038739,0.043300,-0.109987
0.190758,0.208588,-0.058506,-0.015052,0.009824,0.033676,0.243734,0.010600,0.274731,0.074506,0.067469,-0.046037,-0.111952,-0.188587,-0.183840,0.188962,-0.202598,0.026316,0.001647,-0.491974,0.498708,1.197183,1.283174,-0.200892,0.040594,0.085110,0.038739,0.043300,-0.109987
0.188219,0.205567,-0.057974,-0.015482,0.009381,0.033161,0.243126,0.010226,0.275625,0.075000,0.069481,-0.046028,-0.114375,-0.188284,-0.185940,0.188698,-0.203040,0.027092,0.001956,-0.492548,0.499471,1.195477,1.282253,-0.199219,0.040845,0.084674,0.038913,0.043214,-0.109741
0.185156,0.201854,-0.057039,-0.015933,0.008795,0.032576,0.242209,0.010303,0.274699,0.075625,0.071941,-0.044674,-0.116604,-0.188878,-0.187695,0.189208,-0.202885,0.028015,0.001974,-0.492593,0.499274,1.193901,1.281520,-0.198408,0.040480,0.083923,0.038825,0.043241,-0.109654
0.179525,0.194908,-0.057039,-0.015933,0.008795,0.032576,0.242209,0.010303,0.274699,0.078286,0.077523,-0.044674,-0.118513,-0.190796,-0.190462,0.189208,-0.202885,0.028015,0.001974,-0.492593,0.499274,1.190988,1.280227,-0.198408,0.040480,0.083923,0.038825,0.043241,-0.109654
0.172639,0.186445,-0.056018,-0.016039,0.008068,0.032081,0.241306,0.010232,0.273119,0.081872,0.084520,-0.042995,-0.120522,-0.192746,-0.193833,0.190486,-0.202736,0.029175,0.002379,-0.491597,0.499075,1.187601,1.278575,-0.198395,0.040359,0.082992,0.038626,0.043689,-0.109865
0.163246,0.174952,-0.054262,-0.016039,0.008068,0.032081,0.241306,0.010232,0.270899,0.087310,0.094346,-0.040667,-0.122727,-0.194760,-0.198411,0.190486,-0.202736,0.029175,0.002379,-0.489666,0.499075,1.183263,1.278575,-0.198395,0.040359,0.082992,0.038626,0.043689,-0.109865
0.151815,0.160816,-0.052319,-0.016245,0.006735,0.031885,0.240460,0.009959,0.268278,0.094552,0.107138,-0.037774,-0.124369,-0.197194,-0.203750,0.192403,-0.202700,0.030795,0.002700,-0.487766,0.499091,1.178712,1.276492,-0.198729,0.039685,0.082012,0.038303,0.043985,-0.110362
0.139364,0.145360,-0.050284,-0.016245,0.006735,0.031885,0.240460,0.009959,0.265457,0.102695,0.121413,-0.034599,-0.125730,-0.199838,-0.209468,0.194103,-0.202700,0.030795,0.002700,-0.485882,0.499091,1.174054,1.274552,-0.198729,0.039685,0.082012,0.038303,0.043985,-0.110362
0.122481,0.125677,-0.048367,-0.016619,0.004963,0.031012,0.239177,0.009163,0.261534,0.113486,0.137982,-0.030748,-0.126232,-0.203529,-0.215305,0.196475,-0.203211,0.033623,0.003158,-0.484612,0.498215,1.168739,1.271021,-0.197449,0.037610,0.080177,0.037729,0.043253,-0.110873
0.104680,0.105534,-0.046667,-0.016321,0.003365,0.030695,0.237933,0.008746,0.257691,0.125160,0.154430,-0.026445,-0.126183,-0.207546,-0.220927,0.199178,-0.204212,0.035460,0.003778,-0.482975,0.497114,1.162893,1.266325,-0.196075,0.035843,0.078892,0.036989,0.042306,-0.111309
0.085041,0.084472,-0.045400,-0.016321,0.003365,0.030695,0.236666,0.008746,0.254006,0.138603,0.170637,-0.021238,-0.126183,-0.212218,-0.226119,0.202542,-0.205699,0.037040,0.003778,-0.482975,0.495487,1.155985,1.259301,-0.194782,0.033538,0.077614,0.036989,0.042306,-0.111309
0.063928,0.063642,-0.044469,-0.014987,0.002303,0.030496,0.235360,0.007336,0.250858,0.153672,0.185000,-0.014878,-0.123046,-0.217390,-0.230370,0.206455,-0.208162,0.038385,0.004772,-0.480409,0.491673,1.147910,1.248005,-0.193502,0.030607,0.076179,0.036456,0.041559,-0.112462
0.042080,0.042928,-0.044502,-0.014086,0.002305,0.031571,0.234035,0.006635,0.247976,0.169554,0.198440,-0.007941,-0.119168,-0.222812,-0.234149,0.210642,-0.211115,0.039613,0.005826,-0.477745,0.486766,1.139252,1.234573,-0.192653,0.027363,0.075171,0.035265,0.040900,-0.113395
0.017062,0.022506,-0.044502,-0.011649,0.002305,0.031571,0.231438,0.005264,0.246670,0.189768,0.209317,0.000505,-0.111427,-0.229376,-0.235910,0.215814,-0.216358,0.041141,0.005826,-0.474705,0.478287,1.129252,1.212962,-0.190695,0.020742,0.073401,0.035265,0.040900,-0.115589
-0.008453,0.001845,-0.045442,-0.009050,0.003716,0.032854,0.228626,0.003378,0.246493,0.210559,0.220238,0.009184,-0.103349,-0.236128,-0.237577,0.221046,-0.221965,0.042754,0.006666,-0.471362,0.469767,1.119326,1.190450,-0.188669,0.012857,0.071271,0.033829,0.040600,-0.117905
-0.034962,-0.019292,-0.045442,-0.006123,0.003716,0.034290,0.225386,0.003378,0.246493,0.232500,0.231245,0.018329,-0.094597,-0.243256,-0.239056,0.226399,-0.228299,0.044540,0.006666,-0.467414,0.461164,1.109548,1.166135,-0.186504,0.002443,0.068421,0.033829,0.040600,-0.120468
-0.062894,-0.042707,-0.046552,-0.003088,0.005593,0.035659,0.222397,0.001510,0.249531,0.256127,0.245573,0.027590,-0.085943,-0.250835,-0.241725,0.231764,-0.234732,0.046382,0.007467,-0.463473,0.451762,1.099960,1.141267,-0.184861,-0.007573,0.065467,0.033234,0.041473,-0.122746
-0.091537,-0.067262,-0.047298,0.000002,0.007422,0.036990,0.219535,0.000614,0.253045,0.280596,0.261561,0.036910,-0.077337,-0.258640,-0.244990,0.237135,-0.241213,0.048253,0.007924,-0.459537,0.441959,1.090466,1.116122,-0.183939,-0.017389,0.062460,0.031931,0.042297,-0.124883
-0.121297,-0.095723,-0.047298,0.003488,0.007422,0.036990,0.218058,0.000614,0.260065,0.308053,0.285286,0.047687,-0.069078,-0.267652,-0.251195,0.242163,-0.247359,0.050191,0.007924,-0.454246,0.431064,1.080071,1.091193,-0.183939,-0.025642,0.059969,0.031931,0.044477,-0.126570
-0.152704,-0.126668,-0.046469,0.007049,0.008902,0.036838,0.216661,0.000880,0.267709,0.337559,0.312440,0.058574,-0.062026,-0.277402,-0.258667,0.247482,-0.253394,0.052245,0.008673,-0.449962,0.421252,1.069280,1.067835,-0.183443,-0.033179,0.057412,0.030730,0.046817,-0.128295
-0.187406,-0.162578,-0.046469,0.010761,0.008902,0.036838,0.216661,0.000880,0.276604,0.371162,0.346454,0.069679,-0.057387,-0.288626,-0.268672,0.253380,-0.259207,0.054528,0.008673,-0.447691,0.413606,1.057701,1.047621,-0.183443,-0.039286,0.054723,0.029367,0.049477,-0.130091
-0.226332,-0.203473,-0.043745,0.015093,0.009796,0.035282,0.216803,0.002312,0.286466,0.411231,0.387554,0.080679,-0.054671,-0.302574,-0.282377,0.259503,-0.264548,0.056876,0.010033,-0.446095,0.406636,1.044707,1.030282,-0.183265,-0.043629,0.052346,0.027129,0.051225,-0.132268
-0.267371,-0.246862,-0.040952,0.019736,0.010120,0.034320,0.218029,0.003721,0.296811,0.454533,0.432198,0.091626,-0.052916,-0.317884,-0.297931,0.265738,-0.269655,0.059255,0.010982,-0.444838,0.400004,1.031006,1.014380,-0.183054,-0.046602,0.049380,0.024453,0.052515,-0.134636
-0.311808,-0.294026,-0.038091,0.025110,0.010120,0.032668,0.218029,0.003721,0.310905,0.508002,0.487490,0.101171,-0.052916,-0.338323,-0.317890,0.272755,-0.274364,0.062248,0.012413,-0.444838,0.393162,1.015836,1.000512,-0.181656,-0.046602,0.049380,0.019884,0.050677,-0.137654
-0.357427,-0.341229,-0.035359,0.030845,0.009892,0.031153,0.218083,0.003662,0.326746,0.565476,0.545109,0.109937,-0.053659,-0.360033,-0.339517,0.279875,-0.279259,0.065394,0.013971,-0.443583,0.386021,0.999756,0.986148,-0.179845,-0.043991,0.048429,0.014501,0.048558,-0.140638
-0.405407,-0.388510,-0.032883,0.037301,0.009892,0.031153,0.216237,0.003662,0.346080,0.630959,0.607380,0.117146,-0.053659,-0.384287,-0.364483,0.287201,-0.284524,0.068847,0.015784,-0.443583,0.378283,0.981858,0.970791,-0.177209,-0.037617,0.048429,0.007489,0.045877,-0.143554
-0.454929,-0.438498,-0.030231,0.042630,0.009229,0.029916,0.214097,0.002068,0.367222,0.699578,0.676104,0.121688,-0.057395,-0.409957,-0.391248,0.294490,-0.290600,0.074425,0.018905,-0.441003,0.372253,0.964963,0.955297,-0.174560,-0.025896,0.047371,-0.002232,0.043720,-0.147220
-0.505221,-0.489841,-0.027492,0.047394,0.007453,0.029093,0.210816,0.000935,0.389267,0.769766,0.748056,0.124897,-0.061776,-0.436335,-0.418912,0.301762,-0.297080,0.081064,0.022681,-0.438037,0.367815,0.948569,0.939734,-0.171607,-0.011502,0.046518,-0.013309,0.041585,-0.151261
-0.554129,-0.544022,-0.022934,0.048791,0.003128,0.026278,0.210816,0.000935,0.411954,0.836857,0.824961,0.120960,-0.073657,-0.462956,-0.441954,0.308801,-0.304367,0.087620,0.026053,-0.438037,0.367815,0.937500,0.930867,-0.171607,0.006739,0.044286,-0.026275,0.041585,-0.158145
-0.603093,-0.597883,-0.017780,0.050719,-0.001302,0.023052,0.210289,0.002098,0.434995,0.904959,0.901989,0.114365,-0.088915,-0.488697,-0.465262,0.315936,-0.311455,0.094494,0.029061,-0.438239,0.370149,0.928707,0.925908,-0.172065,0.023950,0.041993,-0.038770,0.041344,-0.165679
-0.652168,-0.651106,-0.011433,0.050719,-0.005941,0.019003,0.211687,0.004738,0.458741,0.975081,0.979261,0.102457,-0.110928,-0.512677,-0.489101,0.323264,-0.318146,0.102005,0.031339,-0.438239,0.374940,0.924464,0.928768,-0.174335,0.039102,0.039577,-0.050324,0.041344,-0.174512
-0.698083,-0.700852,-0.005775,0.051086,-0.010232,0.014179,0.213556,0.009403,0.482456,1.042273,1.053547,0.084402,-0.140535,-0.534463,-0.511370,0.329651,-0.323153,0.109958,0.033757,-0.439778,0.380125,0.928060,0.939055,-0.177856,0.053668,0.036303,-0.061093,0.042799,-0.184466
-0.742417,-0.748858,0.000153,0.050457,-0.014347,0.008968,0.215658,0.015080,0.506156,1.107999,1.126340,0.063275,-0.173939,-0.555151,-0.532854,0.335568,-0.327317,0.118133,0.036244,-0.441129,0.385507,0.935574,0.953057,-0.182001,0.067940,0.032601,-0.071471,0.043721,-0.194982
-0.781194,-0.790731,0.000153,0.044818,-0.019354,0.003396,0.217850,0.022857,0.514462,1.161193,1.187741,0.035704,-0.210349,-0.576124,-0.554551,0.338424,-0.325690,0.127377,0.037781,-0.452544,0.390599,0.963145,0.975790,-0.192261,0.081057,0.026803,-0.076234,0.048103,-0.208016
-0.816266,-0.828603,-0.000904,0.039196,-0.023808,-0.001984,0.220542,0.031005,0.520000,1.210328,1.244367,0.004808,-0.245315,-0.596060,-0.574859,0.339489,-0.321393,0.136358,0.039671,-0.465979,0.391140,0.996480,0.994382,-0.204430,0.090990,0.021248,-0.078939,0.053208,-0.222707
-0.843931,-0.858472,-0.005917,0.033605,-0.027158,-0.006980,0.224234,0.039893,0.520000,1.251347,1.291446,-0.032736,-0.277391,-0.613919,-0.592388,0.336973,-0.311755,0.144811,0.042271,-0.483455,0.382577,1.041346,1.004692,-0.220418,0.094553,0.016179,-0.077528,0.059762,-0.240712
-0.861771,-0.878799,-0.011933,0.030025,-0.028694,-0.011716,0.229314,0.048925,0.520000,1.283655,1.328397,-0.075998,-0.299783,-0.630116,-0.606509,0.331610,-0.299943,0.151536,0.044719,-0.498493,0.367822,1.087159,0.986284,-0.237326,0.085157,0.012966,-0.074295,0.065846,-0.262354
-0.875497,-0.894356,-0.019060,0.027452,-0.029113,-0.016322,0.235088,0.058028,0.520000,1.311607,1.360284,-0.122120,-0.317333,-0.645482,-0.618926,0.324823,-0.287043,0.157396,0.047092,-0.512310,0.349972,1.133447,0.953517,-0.254695,0.069282,0.010680,-0.071021,0.071695,-0.285815
-0.875497,-0.899786,-0.019060,0.024152,-0.032943,-0.022175,0.242436,0.065301,0.520000,1.325571,1.380576,-0.179664,-0.319407,-0.656741,-0.625161,0.316414,-0.284109,0.161165,0.050475,-0.524386,0.359117,1.174438,0.876770,-0.283217,0.045119,0.006270,-0.071021,0.078698,-0.319300
-0.872624,-0.900980,-0.020468,0.018905,-0.039675,-0.028520,0.249330,0.071070,0.520000,1.334457,1.396675,-0.238283,-0.319531,-0.665866,-0.630024,0.309242,-0.284565,0.164956,0.054582,-0.537475,0.376679,1.207192,0.799708,-0.312320,0.018528,0.001124,-0.075715,0.087497,-0.352860
-0.861607,-0.893701,-0.022865,0.009765,-0.052212,-0.035847,0.255318,0.073831,0.520000,1.333184,1.404391,-0.299054,-0.315756,-0.670721,-0.632144,0.304545,-0.291799,0.168793,0.060135,-0.552588,0.411076,1.223475,0.722018,-0.342582,-0.012916,-0.005494,-0.087183,0.099890,-0.386573
-0.842523,-0.881005,-0.030444,-0.003464,-0.068179,-0.042537,0.260211,0.076309,0.520000,1.323002,1.409305,-0.357664,-0.301646,-0.672339,-0.625336,0.302460,-0.298608,0.173373,0.066830,-0.565897,0.433147,1.212350,0.661618,-0.360011,-0.091335,-0.014648,-0.093282,0.117824,-0.423270
-0.819405,-0.865601,-0.040614,-0.018737,-0.085863,-0.048908,0.264557,0.078645,0.520000,1.308365,1.412817,-0.415195,-0.282367,-0.672264,-0.614065,0.301940,-0.305203,0.178324,0.074094,-0.578303,0.449056,1.187521,0.609864,-0.371022,-0.193241,-0.025070,-0.096697,0.138529,-0.461460
-0.789233,-0.852472,-0.054280,-0.035457,-0.097607,-0.050688,0.267496,0.087699,0.520000,1.287471,1.422988,-0.476793,-0.248785,-0.666272,-0.579938,0.306834,-0.307743,0.182856,0.084226,-0.596710,0.441863,1.125253,0.599933,-0.361083,-0.268554,-0.038473,-0.086614,0.145418,-0.486839
-0.758929,-0.845220,-0.066808,-0.050161,-0.105860,-0.050025,0.269985,0.097289,0.515226,1.266031,1.437870,-0.537886,-0.209085,-0.658555,-0.531221,0.314566,-0.313960,0.188247,0.087883,-0.620687,0.435077,1.050122,0.603674,-0.347668,-0.325461,-0.052510,-0.077668,0.150161,-0.508876
-0.728364,-0.849722,-0.077062,-0.060836,-0.105860,-0.044478,0.271572,0.107950,0.500905,1.243501,1.462174,-0.597973,-0.157146,-0.647389,-0.453321,0.327977,-0.327531,0.195359,0.078591,-0.655805,0.429107,0.949264,0.634758,-0.327301,-0.345558,-0.067814,-0.070994,0.150161,-0.524230
-0.692322,-0.870398,-0.086223,-0.064394,-0.094247,-0.033301,0.270036,0.116808,0.480818,1.220385,1.506505,-0.653935,-0.090679,-0.633573,-0.331671,0.356200,-0.354731,0.199766,0.051551,-0.697070,0.419933,0.816690,0.672575,-0.291596,-0.351394,-0.081041,-0.057324,0.153767,-0.511572
-0.653541,-0.899161,-0.094837,-0.064629,-0.076194,-0.019309,0.266938,0.124766,0.457848,1.196975,1.560848,-0.707837,-0.016947,-0.618433,-0.188144,0.391829,-0.388746,0.203452,0.015635,-0.741408,0.409156,0.668255,0.713759,-0.248220,-0.350100,-0.094107,-0.040157,0.158953,-0.484908
-0.603757,-0.913900,-0.100386,-0.062367,-0.064947,0.002381,0.259962,0.117166,0.438460,1.171477,1.620021,-0.770643,0.076603,-0.607531,-0.162355,0.444715,-0.442832,0.203452,0.003524,-0.784031,0.382082,0.489898,0.744704,-0.203815,-0.367657,-0.094107,0.007662,0.173826,-0.389283
-0.553214,-0.929856,-0.104968,-0.059423,-0.058306,0.025332,0.252918,0.105772,0.418078,1.142412,1.683800,-0.839281,0.173801,-0.596040,-0.147065,0.498646,-0.497476,0.204454,-0.005913,-0.824790,0.346321,0.317524,0.775457,-0.167481,-0.381464,-0.093899,0.055585,0.191502,-0.287843
-0.501155,-0.948245,-0.107614,-0.055118,-0.058306,0.050804,0.245737,0.086788,0.395709,1.106213,1.756793,-0.919581,0.278291,-0.583369,-0.152772,0.554668,-0.553233,0.204454,-0.010004,-0.861821,0.293186,0.157119,0.805826,-0.147289,-0.387769,-0.090646,0.103714,0.214787,-0.174777
-0.452589,-0.973174,-0.110951,-0.044424,-0.054451,0.076135,0.236226,0.064750,0.369684,1.060243,1.831240,-1.002993,0.384996,-0.563611,-0.156443,0.604759,-0.601203,0.201574,-0.009790,-0.892722,0.225162,0.029089,0.824465,-0.138119,-0.390823,-0.092006,0.143776,0.240834,-0.079497
-0.405769,-1.001373,-0.114634,-0.030536,-0.047383,0.101393,0.225550,0.041183,0.341831,1.009388,1.906415,-1.087962,0.492807,-0.540308,-0.159097,0.651885,-0.645280,0.196697,-0.007423,-0.920559,0.149696,-0.082752,0.837239,-0.134460,-0.391776,-0.095673,0.179805,0.268262,0.006889
-0.357099,-1.027174,-0.121680,-0.009046,-0.034570,0.123243,0.211746,0.014657,0.315778,0.932467,1.967036,-1.152763,0.585697,-0.499238,-0.168077,0.673507,-0.674536,0.183000,-0.004146,-0.934144,0.078323,-0.146560,0.843832,-0.132342,-0.407011,-0.101880,0.199115,0.291788,0.048177
-0.303018,-1.049081,-0.131757,0.010294,-0.026719,0.143044,0.196937,-0.012096,0.292215,0.839409,2.021039,-1.205893,0.669222,-0.448356,-0.175720,0.686437,-0.700263,0.168341,-0.001389,-0.943887,0.013114,-0.201703,0.852966,-0.129464,-0.421807,-0.106514,0.213197,0.314481,0.076115
-0.238114,-1.063200,-0.147898,0.025335,-0.026719,0.158746,0.180118,-0.039303,0.273635,0.714080,2.061806,-1.235679,0.734018,-0.377854,-0.180689,0.681982,-0.718930,0.151759,0.000327,-0.945948,-0.039769,-0.239516,0.867181,-0.125070,-0.435723,-0.108000,0.216828,0.335510,0.076115
-0.169198,-1.072727,-0.170482,0.039503,-0.038710,0.175280,0.161075,-0.070124,0.257172,0.561892,2.091879,-1.244417,0.780572,-0.285943,-0.187687,0.664882,-0.733523,0.132227,-0.001077,-0.943312,-0.080496,-0.268467,0.881096,-0.120282,-0.433132,-0.106012,0.213620,0.353426,0.055521
-0.098276,-1.079958,-0.196287,0.053235,-0.055660,0.192231,0.140920,-0.102751,0.241767,0.396276,2.116604,-1.242629,0.818004,-0.183329,-0.195698,0.641458,-0.746079,0.111221,-0.004042,-0.937489,-0.115145,-0.292986,0.894860,-0.115296,-0.422289,-0.102286,0.206991,0.369787,0.024012
-0.062659,-1.082973,-0.228711,0.073962,-0.075389,0.205449,0.147776,-0.133393,0.228456,0.263585,2.125115,-1.223130,0.834220,-0.005975,-0.203490,0.611809,-0.753204,0.072752,-0.009144,-0.937489,-0.145398,-0.308706,0.896832,-0.105990,-0.374484,-0.097254,0.194901,0.379678,-0.010430
-0.040452,-1.084368,-0.259738,0.096645,-0.091753,0.216778,0.163780,-0.161558,0.216336,0.152949,2.128103,-1.200399,0.846850,0.174300,-0.207034,0.583712,-0.759951,0.026605,-0.013493,-0.939475,-0.175770,-0.325043,0.895268,-0.096195,-0.322158,-0.092223,0.182594,0.387443,-0.035493
-0.045064,-1.082522,-0.287970,0.123240,-0.101387,0.224331,0.198083,-0.184769,0.206601,0.086421,2.120047,-1.171203,0.852305,0.360414,-0.202081,0.558722,-0.765940,-0.034899,-0.016334,-0.947949,-0.206378,-0.342612,0.886632,-0.085426,-0.260788,-0.087196,0.169853,0.390958,-0.041798
-0.052773,-1.089097,-0.306571,0.146585,-0.104598,0.228385,0.229522,-0.199769,0.202188,0.061024,2.123950,-1.144205,0.858456,0.456379,-0.196818,0.539910,-0.774162,-0.056111,-0.018779,-0.962361,-0.231026,-0.361767,0.872792,-0.076823,-0.212986,-0.082265,0.160393,0.391917,-0.036089
-0.062029,-1.099882,-0.320357,0.168304,-0.104906,0.230691,0.259530,-0.210663,0.200437,0.056192,2.133832,-1.118307,0.864953,0.507270,-0.191399,0.524189,-0.783499,-0.056821,-0.021027,-0.979742,-0.252695,-0.381713,0.856350,-0.069303,-0.171969,-0.077382,0.152572,0.391706,-0.024375
-0.071012,-1.113146,-0.324124,0.177322,-0.099844,0.227323,0.267553,-0.208500,0.208725,0.096676,2.153252,-1.094885,0.877365,0.499088,-0.188810,0.516089,-0.797155,-0.035732,-0.023424,-1.000039,-0.262333,-0.403972,0.832066,-0.062314,-0.141453,-0.071742,0.146877,0.388755,-0.009506
-0.078460,-1.125377,-0.325598,0.182158,-0.092960,0.223526,0.267913,-0.204538,0.219835,0.137154,2.172200,-1.069990,0.890142,0.491037,-0.187896,0.509983,-0.811823,-0.020631,-0.024794,-1.018986,-0.266635,-0.426082,0.807176,-0.054916,-0.113795,-0.065867,0.141365,0.384663,0.003386
-0.082836,-1.135545,-0.322487,0.178628,-0.082431,0.218875,0.252946,-0.196981,0.236590,0.177622,2.190206,-1.042149,0.903651,0.483243,-0.190332,0.507861,-0.828514,-0.017503,-0.024794,-1.035230,-0.260269,-0.447894,0.781075,-0.046697,-0.091855,-0.059522,0.136222,0.378287,0.012325
-0.084295,-1.149129,-0.315243,0.171651,-0.068496,0.217324,0.234452,-0.190240,0.252708,0.198007,2.206038,-1.005599,0.917287,0.472693,-0.192065,0.507967,-0.849271,-0.026856,-0.025316,-1.046751,-0.243975,-0.465482,0.751736,-0.036930,-0.077263,-0.053533,0.131384,0.371102,0.014174
-0.084295,-1.164420,-0.305933,0.162950,-0.052858,0.217324,0.214194,-0.183907,0.268508,0.208350,2.220785,-0.964694,0.930986,0.460763,-0.193448,0.507967,-0.872061,-0.042449,-0.025316,-1.055910,-0.222719,-0.480959,0.720778,-0.026389,-0.066345,-0.047722,0.126699,0.363512,0.012478
-0.084636,-1.186574,-0.296317,0.160665,-0.033571,0.220828,0.210662,-0.183907,0.279300,0.196455,2.232392,-0.903848,0.943733,0.448631,-0.191332,0.520502,-0.899151,-0.069643,-0.028153,-1.057273,-0.199240,-0.490189,0.679366,-0.011795,-0.064221,-0.042148,0.121971,0.355140,0.003891
-0.078809,-1.211322,-0.288055,0.157664,-0.014044,0.221622,0.210882,-0.184581,0.290064,0.187887,2.247725,-0.836300,0.956595,0.383106,-0.191967,0.538442,-0.925532,-0.070215,-0.030617,-1.055224,-0.176512,-0.500673,0.633220,0.004699,-0.066059,-0.036791,0.116696,0.347089,-0.007377
-0.060536,-1.241260,-0.282500,0.153229,0.005962,0.217473,0.218606,-0.187221,0.300769,0.185974,2.270515,-0.755352,0.969686,0.210794,-0.198107,0.568820,-0.950494,-0.017543,-0.033836,-1.046350,-0.155283,-0.513668,0.577607,0.024993,-0.075822,-0.031868,0.110327,0.339677,-0.024004
-0.067355,-1.255266,-0.275781,0.142099,0.022808,0.204387,0.217619,-0.181796,0.315470,0.228646,2.279959,-0.679887,0.973812,0.061442,-0.206097,0.593502,-0.962300,0.037987,-0.036194,-1.032611,-0.136841,-0.516872,0.526851,0.041404,-0.084543,-0.028019,0.103769,0.335613,-0.039134
-0.086719,-1.261308,-0.268481,0.127622,0.038075,0.186832,0.212277,-0.172337,0.332169,0.293609,2.282732,-0.607164,0.973575,-0.076433,-0.215620,0.615336,-0.967530,0.094947,-0.038123,-1.016439,-0.119792,-0.515179,0.478522,0.055876,-0.092742,-0.024708,0.097116,0.333222,-0.053517
-0.149982,-1.255367,-0.265110,0.111082,0.045677,0.155264,0.208453,-0.156569,0.348289,0.414103,2.268363,-0.525037,0.952501,-0.165974,-0.215620,0.629280,-0.943443,0.130093,-0.033303,-0.978504,-0.095896,-0.497364,0.437353,0.079079,-0.098425,-0.019304,0.085619,0.330243,-0.073912
-0.220435,-1.251003,-0.259188,0.091845,0.050105,0.119458,0.204754,-0.138713,0.364434,0.539655,2.255160,-0.438921,0.917302,-0.251679,-0.217922,0.630952,-0.907433,0.162509,-0.030772,-0.930142,-0.063176,-0.469331,0.408505,0.121335,-0.104152,-0.009277,0.067797,0.322437,-0.104844
-0.305271,-1.251003,-0.248159,0.067214,0.048189,0.075173,0.201303,-0.116681,0.380628,0.675328,2.244286,-0.344822,0.853853,-0.329714,-0.223004,0.608079,-0.847575,0.189467,-0.030772,-0.860921,-0.012810,-0.420865,0.404300,0.201701,-0.109964,0.009999,0.037327,0.304974,-0.156854
-0.374040,-1.245069,-0.224040,0.040093,0.045381,0.038485,0.203365,-0.094703,0.396949,0.763231,2.224435,-0.257879,0.776805,-0.382188,-0.234840,0.559508,-0.771624,0.209970,-0.041962,-0.786319,0.036006,-0.361205,0.428208,0.279990,-0.106977,0.023036,0.004240,0.293114,-0.214507
-0.434778,-1.236775,-0.193375,0.011726,0.042128,0.005593,0.208182,-0.072751,0.413336,0.827251,2.200095,-0.174511,0.692955,-0.421881,-0.250053,0.498086,-0.687623,0.228106,-0.057724,-0.709025,0.084048,-0.295946,0.466173,0.357242,-0.099589,0.032954,-0.030157,0.284054,-0.274982
-0.489943,-1.221297,-0.153210,0.004980,0.058786,-0.005060,0.210647,-0.067915,0.429404,0.877686,2.168860,-0.091917,0.571132,-0.454816,-0.266127,0.437829,-0.598103,0.228106,-0.065749,-0.636457,0.141731,-0.240249,0.569747,0.327427,-0.049975,0.009784,-0.074522,0.317897,-0.354570
-0.542520,-1.204081,-0.112030,0.000965,0.079971,-0.011216,0.213915,-0.063003,0.444992,0.927268,2.141302,-0.013888,0.438073,-0.482779,-0.278569,0.382824,-0.509775,0.231090,-0.069981,-0.569170,0.198507,-0.182912,0.695829,0.279692,0.004263,-0.018941,-0.117816,0.360700,-0.423854
-0.589920,-1.183387,-0.068821,0.000965,0.110211,-0.008376,0.218788,-0.057938,0.459619,0.975142,2.121097,0.055011,0.282540,-0.500799,-0.283747,0.338325,-0.423829,0.237462,-0.066629,-0.512442,0.253468,-0.122295,0.866929,0.196118,0.067749,-0.058776,-0.158970,0.421424,-0.472529
-0.629442,-1.161728,-0.027650,-0.002246,0.130789,-0.000935,0.225841,-0.047788,0.473565,1.017707,2.112790,0.101528,0.129066,-0.513083,-0.286973,0.307127,-0.350966,0.244923,-0.070433,-0.471633,0.300145,-0.053187,1.028684,0.160361,0.119478,-0.083981,-0.185720,0.474718,-0.494583
-0.665026,-1.139588,0.012503,-0.007785,0.146535,0.008804,0.233985,-0.035094,0.487171,1.057617,2.110430,0.136854,-0.023379,-0.522500,-0.289223,0.282580,-0.284643,0.252929,-0.077814,-0.438784,0.342680,0.020168,1.185766,0.148511,0.165329,-0.101872,-0.205268,0.524296,-0.503326
-0.687819,-1.116967,0.047810,-0.016437,0.151269,0.019249,0.244550,-0.017864,0.504638,1.088151,2.116897,0.129381,-0.175486,-0.531158,-0.293406,0.284876,-0.238292,0.258252,-0.091313,-0.444746,0.386167,0.089226,1.289841,0.123057,0.253347,-0.137053,-0.222051,0.596117,-0.523250
-0.709000,-1.097106,0.076759,-0.025093,0.154933,0.029270,0.254558,-0.001081,0.517026,1.117082,2.123447,0.117518,-0.317210,-0.540192,-0.297248,0.292784,-0.198636,0.261800,-0.101652,-0.452374,0.414652,0.153030,1.365658,0.098037,0.335644,-0.171822,-0.239236,0.659651,-0.546287
-0.726955,-1.082767,0.092992,-0.033757,0.156455,0.038447,0.263451,0.014806,0.519256,1.142807,2.130164,0.096873,-0.438166,-0.549978,-0.300408,0.311917,-0.172372,0.261800,-0.105674,-0.463334,0.413134,0.206321,1.384956,0.073883,0.406500,-0.205766,-0.257224,0.706613,-0.575553
-0.741951,-1.074242,0.096619,-0.043602,0.154413,0.048755,0.268724,0.026460,0.520000,1.165451,2.133344,0.067999,-0.553111,-0.558336,-0.303672,0.334296,-0.151986,0.261800,-0.105304,-0.463848,0.399089,0.246228,1.375978,0.070581,0.442680,-0.230543,-0.268731,0.746189,-0.598062
-0.755467,-1.068622,0.093943,-0.054038,0.150590,0.059629,0.272186,0.035997,0.520000,1.186555,2.134756,0.035010,-0.665050,-0.565980,-0.306989,0.358298,-0.134538,0.261800,-0.102738,-0.459139,0.378781,0.279441,1.352860,0.077706,0.461523,-0.250736,-0.276997,0.782072,-0.617191
-0.767006,-1.071459,0.092593,-0.065225,0.147605,0.070140,0.270432,0.041484,0.520000,1.202551,2.127782,-0.014727,-0.793779,-0.569502,-0.315206,0.395963,-0.116620,0.261800,-0.098166,-0.445790,0.400713,0.290893,1.338604,0.088650,0.434159,-0.271832,-0.269423,0.822596,-0.622187
-0.776376,-1.076308,0.093535,-0.075569,0.146395,0.080372,0.268352,0.046918,0.518273,1.216778,2.119460,-0.065621,-0.923022,-0.572484,-0.320135,0.438799,-0.098747,0.261800,-0.092491,-0.427439,0.431126,0.293546,1.323260,0.098731,0.406636,-0.291343,-0.263465,0.859425,-0.620527
-0.781410,-1.085179,0.099059,-0.084228,0.148731,0.090043,0.265622,0.052246,0.513091,1.227467,2.108438,-0.118824,-1.053290,-0.574383,-0.318487,0.491974,-0.080963,0.261800,-0.084614,-0.399087,0.478498,0.278601,1.305738,0.107088,0.378797,-0.307680,-0.260736,0.888867,-0.605559
-0.780467,-1.097299,0.109127,-0.088732,0.154137,0.101037,0.264541,0.057933,0.503203,1.234524,2.099923,-0.172712,-1.175486,-0.578912,-0.312506,0.553771,-0.065904,0.261800,-0.077776,-0.361591,0.525005,0.245143,1.273252,0.121130,0.339515,-0.322584,-0.259088,0.912322,-0.588326
-0.776537,-1.111043,0.121466,-0.090632,0.161078,0.112694,0.264370,0.063799,0.490962,1.240624,2.092660,-0.226941,-1.293643,-0.584755,-0.304359,0.619879,-0.051418,0.261800,-0.071459,-0.319523,0.571078,0.202430,1.233284,0.138015,0.294513,-0.336770,-0.258349,0.932783,-0.569961
-0.765283,-1.129123,0.135959,-0.090632,0.171106,0.126634,0.267594,0.070322,0.472061,1.240624,2.095142,-0.287739,-1.386681,-0.590936,-0.292365,0.696867,-0.051418,0.261800,-0.065583,-0.276144,0.603092,0.134083,1.158120,0.148880,0.224049,-0.351989,-0.248565,0.943911,-0.561380
-0.750911,-1.147230,0.148938,-0.090641,0.177476,0.139081,0.271071,0.075476,0.451798,1.239229,2.100643,-0.352900,-1.468991,-0.596310,-0.281419,0.778814,-0.058907,0.260915,-0.060359,-0.236554,0.634620,0.061259,1.070077,0.154314,0.153094,-0.366275,-0.236220,0.952330,-0.550252
-0.730304,-1.165392,0.158888,-0.092246,0.177476,0.148539,0.275055,0.077893,0.428813,1.232462,2.112181,-0.426791,-1.529842,-0.600072,-0.272566,0.870677,-0.083735,0.258259,-0.056439,-0.204545,0.665178,-0.020515,0.956272,0.148889,0.081160,-0.378693,-0.218754,0.955330,-0.534029
-0.703840,-1.182847,0.164578,-0.095047,0.170789,0.152680,0.277011,0.075550,0.403002,1.221209,2.126195,-0.509926,-1.571611,-0.599389,-0.265927,0.971877,-0.133048,0.254209,-0.051310,-0.184804,0.704994,-0.097810,0.822191,0.144104,0.018620,-0.385997,-0.198751,0.954098,-0.511882
-0.674449,-1.199947,0.168137,-0.098444,0.161232,0.153669,0.277639,0.070827,0.375779,1.207712,2.141448,-0.597682,-1.603836,-0.596485,-0.260394,1.077744,-0.194604,0.249463,-0.045577,-0.171197,0.749438,-0.172865,0.677974,0.139639,-0.039222,-0.390742,-0.177481,0.950750,-0.486772
-0.639907,-1.214334,0.158570,-0.096072,0.152169,0.149560,0.271655,0.057077,0.344347,1.189520,2.152888,-0.684399,-1.633541,-0.588122,-0.264155,1.191520,-0.281536,0.247515,-0.038751,-0.176801,0.815131,-0.235849,0.537162,0.141339,-0.068748,-0.392811,-0.163511,0.943331,-0.474966
-0.603620,-1.229663,0.145176,-0.091388,0.143872,0.145322,0.263600,0.041825,0.312915,1.167866,2.164174,-0.764032,-1.662034,-0.577796,-0.266013,1.306020,-0.377971,0.245204,-0.032949,-0.187405,0.883854,-0.296162,0.399832,0.142979,-0.093716,-0.395023,-0.152397,0.936548,-0.469338
-0.563845,-1.246875,0.124125,-0.082081,0.137104,0.140830,0.251402,0.023571,0.281483,1.139289,2.175149,-0.829502,-1.688105,-0.563546,-0.264066,1.421970,-0.493411,0.242163,-0.029193,-0.208008,0.958640,-0.351132,0.269465,0.144497,-0.109568,-0.395023,-0.146993,0.931037,-0.476065
-0.519891,-1.265010,0.097470,-0.067019,0.135869,0.139132,0.238253,0.004657,0.254201,1.099631,2.187829,-0.864984,-1.704399,-0.544932,-0.261437,1.537568,-0.619229,0.236597,-0.027762,-0.230037,1.027627,-0.399519,0.162515,0.145863,-0.125139,-0.396572,-0.147719,0.928688,-0.492200
-0.473849,-1.283606,0.068014,-0.049079,0.137399,0.138931,0.224629,-0.014586,0.228993,1.054433,2.201360,-0.885473,-1.715806,-0.524136,-0.258466,1.652990,-0.750236,0.229766,-0.027583,-0.252779,1.093712,-0.444615,0.067273,0.146723,-0.140569,-0.397290,-0.151508,0.928177,-0.513039
-0.415729,-1.298466,0.038847,-0.026218,0.144845,0.140503,0.211667,-0.035700,0.213857,0.974091,2.216934,-0.851787,-1.677753,-0.483687,-0.251048,1.764523,-0.919468,0.216180,-0.024912,-0.258202,1.121664,-0.478194,-0.008767,0.150767,-0.175688,-0.398873,-0.157597,0.930100,-0.542410
-0.353241,-1.311114,0.016329,-0.004379,0.150802,0.143911,0.198029,-0.057265,0.202100,0.877843,2.232901,-0.805644,-1.602227,-0.434443,-0.243731,1.863275,-1.112252,0.201252,-0.023131,-0.255088,1.112027,-0.506892,-0.094932,0.157347,-0.218560,-0.399261,-0.159515,0.929603,-0.567327
-0.282023,-1.319338,0.007107,0.015414,0.153782,0.150992,0.183037,-0.079730,0.197099,0.749788,2.249656,-0.734591,-1.451760,-0.367609,-0.236614,1.936462,-1.352128,0.183642,-0.023131,-0.234904,1.027213,-0.525823,-0.201345,0.168996,-0.276935,-0.399261,-0.153093,0.924263,-0.583334
-0.211760,-1.327112,0.001871,0.034595,0.147032,0.173914,0.165872,-0.103702,0.194169,0.606615,2.270295,-0.652418,-1.273138,-0.286371,-0.231542,1.968834,-1.533715,0.163027,-0.023819,-0.215384,0.910160,-0.530473,-0.235688,0.181105,-0.311535,-0.395027,-0.135307,0.911797,-0.572842
-0.141973,-1.335568,-0.001372,0.053470,0.135417,0.204757,0.147620,-0.128428,0.192275,0.455882,2.292876,-0.564684,-1.080438,-0.197932,-0.227492,1.980798,-1.686840,0.140909,-0.024783,-0.196196,0.776986,-0.527981,-0.233993,0.193443,-0.334247,-0.389677,-0.111839,0.895767,-0.549099
-0.095255,-1.335568,-0.030151,0.071757,0.110638,0.224595,0.155895,-0.144586,0.190215,0.309817,2.307518,-0.422446,-0.942444,-0.037228,-0.228973,1.961315,-1.686840,0.109250,-0.032792,-0.148529,0.682671,-0.495784,-0.130448,0.205198,-0.327382,-0.381604,-0.062364,0.869609,-0.471858
-0.070151,-1.332140,-0.063296,0.089788,0.083711,0.237325,0.173584,-0.156090,0.191152,0.194288,2.313966,-0.277479,-0.820429,0.145184,-0.230396,1.936155,-1.677973,0.069182,-0.040873,-0.098406,0.603520,-0.458895,-0.030040,0.214802,-0.326325,-0.374258,-0.010681,0.844768,-0.387930
-0.088273,-1.319138,-0.105171,0.107311,0.052489,0.235840,0.210100,-0.156090,0.198084,0.139833,2.304025,-0.127052,-0.730372,0.371011,-0.231702,1.899640,-1.649322,0.012296,-0.049101,-0.043373,0.554696,-0.412627,0.064094,0.220106,-0.336883,-0.368367,0.045416,0.822561,-0.290628
-0.114367,-1.314338,-0.130014,0.122534,0.028091,0.226707,0.228004,-0.160013,0.210216,0.129399,2.300711,-0.002870,-0.629898,0.477213,-0.233008,1.862844,-1.637295,-0.007045,-0.056228,-0.004387,0.517476,-0.372819,0.142253,0.220974,-0.354062,-0.364298,0.076152,0.809615,-0.231256
-0.144447,-1.313873,-0.146342,0.136608,0.007103,0.213749,0.236601,-0.164801,0.224949,0.140977,2.300930,0.108191,-0.524214,0.523600,-0.235272,1.825906,-1.632929,-0.007424,-0.062804,0.026574,0.486058,-0.336241,0.212424,0.219624,-0.374551,-0.361140,0.094208,0.801301,-0.190851
-0.165390,-1.311778,-0.138301,0.142100,0.000470,0.199107,0.225032,-0.169946,0.248982,0.171973,2.300930,0.197027,-0.392065,0.523600,-0.235272,1.784910,-1.632929,0.007786,-0.065814,0.047142,0.447657,-0.305563,0.257584,0.217055,-0.380306,-0.357219,0.096507,0.795144,-0.176911
-0.184146,-1.308245,-0.126231,0.144646,-0.002487,0.186019,0.206804,-0.174806,0.274005,0.203573,2.299877,0.284513,-0.255753,0.519040,-0.237285,1.741747,-1.627116,0.017263,-0.068451,0.065618,0.404149,-0.277093,0.291061,0.215342,-0.381118,-0.352630,0.097005,0.787918,-0.164762
-0.198529,-1.301834,-0.106100,0.141303,0.001906,0.176038,0.175257,-0.179093,0.301011,0.236383,2.295951,0.369307,-0.111107,0.505922,-0.240450,1.694243,-1.611631,0.015278,-0.070342,0.079913,0.350426,-0.253033,0.301174,0.215342,-0.372047,-0.346706,0.093903,0.778553,-0.156192
-0.207602,-1.298319,-0.084376,0.131328,0.010254,0.166562,0.138300,-0.182405,0.324138,0.255342,2.292098,0.461872,0.025314,0.480224,-0.242189,1.639963,-1.587870,-0.001500,-0.072093,0.092492,0.299317,-0.235317,0.281405,0.217491,-0.357956,-0.341510,0.089271,0.767341,-0.144878
-0.214020,-1.296252,-0.061857,0.118038,0.020579,0.157339,0.098637,-0.185228,0.345325,0.267375,2.288282,0.558323,0.157620,0.448236,-0.242874,1.582296,-1.559971,-0.025673,-0.074353,0.104212,0.249517,-0.220218,0.246696,0.220820,-0.341356,-0.336152,0.083876,0.755205,-0.132193
-0.215649,-1.296252,-0.044305,0.104802,0.033245,0.144835,0.085007,-0.187381,0.357387,0.265689,2.284522,0.663161,0.263283,0.415741,-0.242874,1.505083,-1.518193,-0.087676,-0.074353,0.115398,0.216783,-0.220218,0.179245,0.227478,-0.322148,-0.336152,0.075858,0.742204,-0.118667
-0.218498,-1.295148,-0.028594,0.097228,0.044919,0.132842,0.088726,-0.190690,0.366878,0.265624,2.280535,0.761229,0.357957,0.389980,-0.244712,1.422970,-1.471089,-0.136896,-0.076164,0.122015,0.189464,-0.221749,0.110833,0.235486,-0.301679,-0.336668,0.067139,0.728928,-0.106852
-0.223792,-1.292208,-0.016566,0.100976,0.054611,0.121873,0.127142,-0.196308,0.371227,0.268801,2.276093,0.845756,0.430653,0.377684,-0.249257,1.331053,-1.413331,-0.160548,-0.079863,0.119495,0.172976,-0.228012,0.040501,0.246194,-0.278688,-0.339791,0.057020,0.715102,-0.098461
-0.220835,-1.290408,-0.005133,0.101120,0.063699,0.112391,0.159769,-0.201722,0.374751,0.283883,2.277980,0.908315,0.487364,0.255526,-0.254564,1.234830,-1.345678,-0.096854,-0.083964,0.102763,0.159417,-0.229692,-0.023878,0.259201,-0.254557,-0.344739,0.046495,0.701296,-0.094032
-0.213753,-1.289178,0.006002,0.099460,0.072485,0.103652,0.189501,-0.207035,0.377864,0.304919,2.283032,0.959892,0.536083,0.078436,-0.260251,1.136453,-1.273076,0.010513,-0.088268,0.078924,0.147324,-0.229284,-0.085280,0.273358,-0.229856,-0.350599,0.035767,0.687499,-0.091583
-0.252652,-1.273557,0.017579,0.089219,0.082285,0.090254,0.200368,-0.192457,0.392026,0.414180,2.275950,0.968555,0.563693,-0.073141,-0.259000,1.038905,-1.185305,0.087861,-0.085128,0.039147,0.132000,-0.208232,-0.128866,0.287200,-0.210281,-0.357400,0.026656,0.677314,-0.098340
-0.303895,-1.264268,0.028683,0.077269,0.090279,0.074540,0.212726,-0.172500,0.405722,0.531663,2.268005,0.959788,0.581266,-0.206401,-0.257561,0.942943,-1.090420,0.152251,-0.082226,-0.002033,0.117712,-0.176988,-0.163384,0.301159,-0.192409,-0.364532,0.017130,0.668864,-0.111811
-0.379822,-1.267641,0.038841,0.061899,0.094659,0.054197,0.228065,-0.141783,0.418490,0.665591,2.258337,0.916161,0.581266,-0.303021,-0.257561,0.850158,-0.981307,0.190722,-0.079798,-0.046021,0.105496,-0.125357,-0.179764,0.315352,-0.177941,-0.372326,0.006777,0.663886,-0.138709
-0.465753,-1.280675,0.044955,0.035591,0.086792,0.029542,0.240700,-0.107642,0.429284,0.780554,2.248198,0.844635,0.547925,-0.369286,-0.264116,0.761015,-0.856893,0.221266,-0.080985,-0.085697,0.102554,-0.058197,-0.161268,0.328048,-0.168670,-0.378424,-0.005784,0.669195,-0.187247
-0.556684,-1.298540,0.049047,0.003814,0.072801,0.002733,0.251983,-0.071788,0.439091,0.886036,2.237824,0.759159,0.499166,-0.420375,-0.274856,0.673692,-0.724829,0.247848,-0.083980,-0.123218,0.104249,0.016727,-0.125333,0.339996,-0.161997,-0.383673,-0.019449,0.679646,-0.246605
-0.611944,-1.283319,0.046836,-0.013131,0.063275,-0.005369,0.256278,-0.061174,0.462502,0.939293,2.204925,0.645656,0.390871,-0.442453,-0.291279,0.589097,-0.594285,0.253401,-0.085695,-0.169973,0.119120,0.109139,-0.012797,0.300451,-0.153926,-0.397024,-0.036526,0.728768,-0.331002
-0.658324,-1.262379,0.046477,-0.023654,0.061745,-0.008681,0.260160,-0.055275,0.486487,0.984906,2.169693,0.530374,0.270317,-0.460475,-0.305248,0.507461,-0.471986,0.257898,-0.085880,-0.215642,0.135122,0.203437,0.124425,0.246011,-0.135620,-0.409540,-0.058166,0.769026,-0.414686
-0.686948,-1.230000,0.049824,-0.021335,0.076207,-0.002413,0.263218,-0.058809,0.511622,1.015236,2.129794,0.411522,0.125236,-0.470385,-0.314308,0.431738,-0.366171,0.260281,-0.085880,-0.259144,0.153384,0.301514,0.311031,0.161777,-0.096842,-0.420386,-0.088937,0.791563,-0.496948
-0.718727,-1.211310,0.058741,-0.019788,0.092754,0.002193,0.268054,-0.056511,0.520000,1.039216,2.100019,0.308325,-0.011089,-0.479057,-0.323137,0.373902,-0.284318,0.261438,-0.084495,-0.295067,0.171546,0.384589,0.488426,0.119537,-0.086259,-0.421252,-0.106482,0.790342,-0.551158
-0.752082,-1.198945,0.070443,-0.018000,0.110344,0.005969,0.273779,-0.051298,0.520000,1.060022,2.075307,0.212958,-0.143033,-0.487109,-0.332328,0.325010,-0.214447,0.261800,-0.084067,-0.327198,0.189658,0.460162,0.661214,0.098295,-0.089774,-0.417126,-0.117414,0.777241,-0.591340
-0.787910,-1.198945,0.091442,-0.018000,0.123180,0.010403,0.277675,-0.042974,0.520000,1.079475,2.065195,0.120182,-0.277018,-0.492375,-0.332328,0.313603,-0.181788,0.261800,-0.091698,-0.370978,0.257141,0.505676,0.775716,0.123926,-0.084646,-0.408672,-0.130393,0.777241,-0.630681
-0.819095,-1.195544,0.112907,-0.016454,0.134667,0.014576,0.281824,-0.033524,0.520000,1.098521,2.058440,0.034447,-0.408866,-0.497791,-0.333654,0.312373,-0.154525,0.261800,-0.097607,-0.413272,0.332546,0.539335,0.875056,0.150367,-0.074901,-0.401870,-0.143296,0.785318,-0.664901
-0.840996,-1.186899,0.135304,-0.014858,0.143458,0.018224,0.286478,-0.021820,0.520000,1.116750,2.058440,-0.037201,-0.536433,-0.503508,-0.336197,0.331497,-0.138057,0.261800,-0.100068,-0.452593,0.423791,0.549281,0.944063,0.178429,-0.055925,-0.398373,-0.156047,0.808065,-0.688879
-0.852378,-1.174689,0.150438,-0.013818,0.151829,0.021726,0.291937,-0.008455,0.520000,1.135181,2.064322,-0.096487,-0.664990,-0.511107,-0.336681,0.361192,-0.115581,0.261800,-0.099456,-0.464766,0.488686,0.544032,0.996431,0.198268,-0.060591,-0.400160,-0.158280,0.833991,-0.692220
-0.858501,-1.160697,0.161940,-0.013310,0.159988,0.025154,0.297797,0.005740,0.520000,1.153712,2.073166,-0.149591,-0.794036,-0.519647,-0.336318,0.396172,-0.090103,0.261800,-0.096697,-0.463363,0.540404,0.531185,1.040478,0.213996,-0.077079,-0.404589,-0.155254,0.861505,-0.685242
-0.854057,-1.147135,0.170139,-0.011279,0.169310,0.033399,0.303175,0.017835,0.520000,1.173432,2.082794,-0.197217,-0.908370,-0.529872,-0.339611,0.445759,-0.073860,0.261800,-0.096697,-0.424134,0.558737,0.501811,1.036474,0.224429,-0.107598,-0.411290,-0.151380,0.889831,-0.659100
-0.845908,-1.135806,0.180476,-0.008816,0.177530,0.042530,0.308410,0.028414,0.520000,1.192160,2.091901,-0.245850,-1.018608,-0.540060,-0.340766,0.500318,-0.065330,0.261800,-0.097076,-0.376163,0.576500,0.461437,1.020411,0.234354,-0.135898,-0.418016,-0.148160,0.918487,-0.636827
-0.830347,-1.128943,0.195089,-0.005492,0.183545,0.053433,0.313358,0.035963,0.520000,1.208906,2.099964,-0.296497,-1.120657,-0.550172,-0.337643,0.564822,-0.072223,0.261800,-0.097076,-0.310711,0.593125,0.399064,0.980228,0.243263,-0.159761,-0.424790,-0.146244,0.947804,-0.622293
-0.807976,-1.127703,0.210608,-0.002086,0.189475,0.062716,0.317953,0.040107,0.520000,1.221035,2.105841,-0.354633,-1.217241,-0.560707,-0.333854,0.645583,-0.097913,0.261800,-0.098066,-0.240561,0.620257,0.320407,0.921817,0.250167,-0.184130,-0.432423,-0.143301,0.972004,-0.620199
-0.782201,-1.129273,0.226580,0.001361,0.195363,0.071187,0.322371,0.042548,0.520000,1.230857,2.110626,-0.416512,-1.311093,-0.571452,-0.329731,0.734471,-0.133000,0.261800,-0.098066,-0.168063,0.652643,0.233609,0.854294,0.256069,-0.208753,-0.440487,-0.139843,0.993646,-0.624326
-0.752999,-1.142652,0.236415,0.004965,0.206086,0.076305,0.323316,0.038606,0.497182,1.236416,2.114709,-0.483402,-1.383753,-0.580976,-0.325213,0.850103,-0.194129,0.261800,-0.091594,-0.119797,0.705015,0.151358,0.771468,0.260524,-0.234679,-0.448087,-0.133180,1.006180,-0.633662
-0.722029,-1.158483,0.241890,0.008290,0.216615,0.080942,0.323619,0.033167,0.470049,1.239444,2.119888,-0.552604,-1.451821,-0.588815,-0.320716,0.972682,-0.263572,0.261800,-0.084379,-0.085763,0.762461,0.074028,0.689006,0.262908,-0.261432,-0.454315,-0.124689,1.017479,-0.643536
-0.687525,-1.179219,0.238643,0.011056,0.226754,0.084614,0.321695,0.024734,0.434284,1.237409,2.127259,-0.626427,-1.510700,-0.593285,-0.316263,1.109152,-0.349643,0.261800,-0.075360,-0.080192,0.830052,0.006543,0.607277,0.262908,-0.289841,-0.457797,-0.112543,1.026309,-0.654485
-0.648471,-1.201232,0.224187,0.013836,0.231313,0.086694,0.318054,0.014426,0.397170,1.227575,2.137351,-0.701137,-1.569708,-0.592447,-0.313845,1.249353,-0.450186,0.261800,-0.068931,-0.105873,0.912859,-0.053034,0.540348,0.258316,-0.314629,-0.459658,-0.102558,1.035685,-0.668877
-0.607144,-1.223882,0.204126,0.016623,0.233081,0.087976,0.313555,0.003181,0.359382,1.213843,2.148803,-0.776289,-1.628777,-0.588956,-0.313845,1.391413,-0.557961,0.261800,-0.063796,-0.147179,1.003270,-0.108654,0.480823,0.252308,-0.337606,-0.459658,-0.093655,1.045332,-0.684990
-0.557820,-1.245166,0.168194,0.021209,0.230259,0.089536,0.301914,-0.011797,0.325101,1.185444,2.165520,-0.836502,-1.685318,-0.579254,-0.311221,1.525018,-0.672803,0.255630,-0.061248,-0.208968,1.106313,-0.165361,0.454919,0.248001,-0.356197,-0.462187,-0.090527,1.051061,-0.703707
-0.506497,-1.265989,0.129056,0.027409,0.227788,0.090576,0.287924,-0.027932,0.293433,1.150806,2.183903,-0.890569,-1.739825,-0.566261,-0.308827,1.657466,-0.784445,0.248124,-0.057688,-0.269518,1.212667,-0.226406,0.439204,0.246028,-0.376898,-0.464093,-0.086775,1.053238,-0.720621
-0.451181,-1.285891,0.083508,0.036838,0.227788,0.090576,0.269237,-0.046382,0.266991,1.103691,2.205617,-0.932342,-1.790263,-0.546688,-0.305029,1.787595,-0.889683,0.237648,-0.052101,-0.327590,1.325639,-0.296127,0.443870,0.248725,-0.401822,-0.466150,-0.081777,1.048309,-0.733926
-0.393864,-1.305588,0.038130,0.052202,0.228820,0.076249,0.249363,-0.067891,0.248192,1.042410,2.230611,-0.955942,-1.798613,-0.516398,-0.300076,1.929724,-0.987259,0.223177,-0.047359,-0.368340,1.377978,-0.383018,0.459813,0.255824,-0.430567,-0.466836,-0.075157,1.035907,-0.732760
-0.335545,-1.325183,-0.007164,0.070534,0.231254,0.055080,0.228896,-0.090930,0.233215,0.974045,2.257245,-0.970456,-1.785918,-0.480750,-0.294546,2.077856,-1.081004,0.206707,-0.042085,-0.401346,1.400000,-0.478496,0.481395,0.265124,-0.461224,-0.466893,-0.067726,1.019768,-0.724357
-0.276106,-1.346573,-0.020087,0.088469,0.227604,0.044377,0.208611,-0.115039,0.222489,0.873860,2.288877,-0.976085,-1.707901,-0.425606,-0.285609,2.182042,-1.233621,0.182017,-0.042085,-0.401346,1.400000,-0.586062,0.474266,0.277735,-0.489766,-0.462381,-0.062672,0.995609,-0.686299
-0.213834,-1.367138,0.007143,0.103371,0.220028,0.056172,0.187496,-0.138790,0.216692,0.755247,2.320006,-1.025491,-1.505626,-0.357059,-0.274298,2.250967,-1.505503,0.154733,-0.040427,-0.417729,1.277939,-0.712893,0.408298,0.293364,-0.504554,-0.455109,-0.059801,0.962330,-0.631315
-0.145895,-1.386052,0.114680,0.112206,0.204600,0.112966,0.164721,-0.161825,0.220755,0.599775,2.350126,-1.162452,-1.054825,-0.261707,-0.258243,2.249369,-2.015928,0.122259,-0.038322,-0.464133,0.911747,-0.878260,0.224648,0.315027,-0.491831,-0.442315,-0.061296,0.910807,-0.542479
-0.099704,-1.405547,0.212273,0.123131,0.179932,0.178135,0.147838,-0.182890,0.197507,0.459299,2.377016,-1.292119,-0.582918,-0.134840,-0.244015,2.192655,-2.193294,0.081510,-0.031385,-0.551916,0.583112,-0.978908,0.389722,0.328055,-0.414003,-0.430765,-0.058981,0.866555,-0.433984
-0.064386,-1.425335,0.304897,0.135101,0.150644,0.247492,0.133902,-0.202971,0.160603,0.326316,2.402289,-1.418141,-0.100447,0.007787,-0.230702,2.108382,-2.204138,0.036622,-0.022032,-0.660391,0.273247,-1.047199,0.729160,0.336766,-0.303621,-0.419836,-0.054763,0.825937,-0.315656
-0.087072,-1.415840,0.337859,0.153989,0.118683,0.288933,0.123677,-0.214411,0.137905,0.246909,2.386528,-1.409378,0.202061,0.294119,-0.228733,2.067321,-2.139840,-0.028845,-0.020250,-0.670161,0.105458,-1.047200,0.993895,0.352711,-0.247215,-0.430330,-0.038559,0.802510,-0.262080
-0.112936,-1.412973,0.367329,0.177198,0.088643,0.325334,0.127236,-0.226608,0.119273,0.192921,2.376963,-1.382988,0.483725,0.492725,-0.228420,2.041984,-2.062761,-0.068103,-0.021045,-0.670337,-0.052069,-1.047200,1.227811,0.368210,-0.200432,-0.439555,-0.026527,0.784922,-0.220267
-0.145154,-1.423366,0.389816,0.209051,0.062445,0.351655,0.158362,-0.240318,0.108773,0.189765,2.379791,-1.321343,0.723712,0.515881,-0.231418,2.048095,-1.960121,-0.054940,-0.026993,-0.651331,-0.189082,-1.047200,1.400098,0.382815,-0.172893,-0.446242,-0.022840,0.779008,-0.201976
-0.166355,-1.436127,0.402697,0.222569,0.042233,0.369681,0.184801,-0.245814,0.110130,0.189318,2.384901,-1.238642,0.919033,0.523600,-0.231552,2.065680,-1.835238,-0.034143,-0.029270,-0.635380,-0.305601,-1.035793,1.501342,0.393144,-0.150435,-0.445654,-0.023832,0.778039,-0.186654
-0.182047,-1.450071,0.410774,0.226918,0.025014,0.383558,0.208895,-0.247202,0.117416,0.189922,2.391394,-1.145416,1.092017,0.523600,-0.230254,2.089001,-1.699235,-0.009529,-0.029565,-0.620956,-0.411869,-1.018683,1.567061,0.401335,-0.130518,-0.441428,-0.027164,0.779543,-0.172818
-0.199552,-1.458012,0.376877,0.208420,0.017650,0.395120,0.189184,-0.245357,0.154274,0.211262,2.391394,-0.997431,1.126207,0.523600,-0.227098,2.078619,-1.583012,-0.017384,-0.024452,-0.598259,-0.443728,-0.893739,1.565171,0.404124,-0.114839,-0.434113,-0.029048,0.782719,-0.155208
-0.214972,-1.464121,0.329770,0.188441,0.012741,0.401056,0.164261,-0.244697,0.192656,0.229110,2.389410,-0.805041,1.149000,0.523600,-0.225815,2.050504,-1.480795,-0.029751,-0.020169,-0.546232,-0.470785,-0.741647,1.543975,0.406472,-0.097620,-0.425665,-0.029386,0.786811,-0.132638
-0.226221,-1.466565,0.256242,0.165501,0.012741,0.395742,0.128912,-0.244697,0.234083,0.239976,2.382734,-0.523843,1.149000,0.523600,-0.228278,1.986924,-1.406583,-0.051139,-0.017544,-0.435550,-0.488238,-0.535261,1.484170,0.406472,-0.077321,-0.414951,-0.029386,0.792736,-0.100150
-0.228091,-1.467134,0.176886,0.150266,0.015551,0.374712,0.113892,-0.248866,0.271987,0.232199,2.373594,-0.202463,1.142575,0.513797,-0.230147,1.889221,-1.346057,-0.072359,-0.019130,-0.279105,-0.494652,-0.340013,1.383499,0.405407,-0.060676,-0.405778,-0.028467,0.798867,-0.066537
-0.225991,-1.466889,0.094614,0.138884,0.020178,0.345822,0.109037,-0.254265,0.308130,0.215100,2.363223,0.139012,1.132938,0.499092,-0.231970,1.774454,-1.292373,-0.093495,-0.022820,-0.099776,-0.495248,-0.150335,1.262393,0.403077,-0.045858,-0.398068,-0.028064,0.805379,-0.032361
-0.225991,-1.461501,0.036944,0.135929,0.026720,0.300455,0.123531,-0.262906,0.334174,0.212672,2.351435,0.411216,1.088027,0.486694,-0.231970,1.624099,-1.230560,-0.111249,-0.028228,0.054034,-0.450945,-0.057553,1.124104,0.403077,-0.024117,-0.398068,-0.036402,0.805379,-0.018463
-0.222184,-1.459357,-0.010207,0.132424,0.033655,0.256143,0.134885,-0.271516,0.355342,0.213109,2.345340,0.652207,1.048757,0.435070,-0.234126,1.467564,-1.162097,-0.104124,-0.034110,0.181367,-0.407701,0.006733,0.984831,0.404837,0.006418,-0.401289,-0.047847,0.804081,-0.012038
-0.208608,-1.463704,-0.036321,0.127817,0.041378,0.213942,0.139959,-0.280060,0.366759,0.219280,2.350633,0.830780,1.020765,0.305000,-0.239844,1.298669,-1.080334,-0.047245,-0.040939,0.255751,-0.366572,0.014032,0.843587,0.410135,0.054540,-0.408869,-0.065507,0.799348,-0.020556
-0.214451,-1.457714,-0.045347,0.122659,0.055241,0.180147,0.132775,-0.281300,0.378075,0.273192,2.348652,0.942776,1.006066,0.137108,-0.245472,1.143564,-0.988238,0.010974,-0.045129,0.276276,-0.336866,0.016465,0.712825,0.418194,0.107231,-0.413372,-0.084664,0.793848,-0.039613
-0.230003,-1.446553,-0.045347,0.117226,0.072174,0.150556,0.119462,-0.278888,0.389342,0.350977,2.343033,1.021481,0.998012,-0.049695,-0.251055,0.995356,-0.890978,0.069863,-0.048000,0.269869,-0.312874,0.016465,0.587304,0.427635,0.162205,-0.416337,-0.104568,0.787965,-0.063941
-0.287788,-1.423283,-0.037395,0.110559,0.085189,0.124983,0.125720,-0.258529,0.410207,0.497266,2.325231,1.020905,0.981718,-0.175459,-0.255404,0.877751,-0.786127,0.104073,-0.052609,0.244980,-0.295239,0.061427,0.497569,0.457821,0.219229,-0.409635,-0.132829,0.778523,-0.102796
-0.350422,-1.405448,-0.027374,0.100984,0.093025,0.096135,0.139016,-0.233485,0.431031,0.638153,2.308248,1.001158,0.956482,-0.285435,-0.261921,0.769641,-0.679877,0.136162,-0.058778,0.222148,-0.274138,0.115407,0.421471,0.482508,0.267413,-0.402970,-0.159825,0.775586,-0.142367
-0.422755,-1.398482,-0.013857,0.085590,0.090503,0.060734,0.166390,-0.199074,0.451771,0.768234,2.292901,0.943648,0.913360,-0.363836,-0.272777,0.680519,-0.570830,0.164007,-0.068067,0.203435,-0.246107,0.187402,0.372645,0.496197,0.297920,-0.396375,-0.184291,0.785657,-0.183372
-0.492855,-1.393196,0.000250,0.068776,0.081476,0.026724,0.188723,-0.170728,0.473967,0.868095,2.269057,0.859899,0.845893,-0.419645,-0.287279,0.614674,-0.473033,0.182530,-0.077612,0.184120,-0.206936,0.260776,0.347941,0.445587,0.340508,-0.393771,-0.214992,0.820637,-0.253280
-0.561836,-1.388750,0.014651,0.051254,0.069195,-0.006589,0.208534,-0.146138,0.496889,0.952841,2.240966,0.763034,0.766255,-0.464155,-0.303604,0.560471,-0.380866,0.196811,-0.087284,0.164505,-0.162197,0.334837,0.335301,0.362828,0.389136,-0.394193,-0.248810,0.868071,-0.337636
-0.619403,-1.369018,0.027996,0.049706,0.057856,-0.019683,0.213974,-0.146138,0.510756,1.006393,2.192258,0.644088,0.660233,-0.485230,-0.325963,0.542200,-0.334471,0.196811,-0.088838,0.120156,-0.083175,0.437524,0.358260,0.280357,0.430222,-0.394193,-0.264427,0.880775,-0.410268
-0.675632,-1.349915,0.042354,0.051570,0.047185,-0.029770,0.216194,-0.151159,0.520000,1.055804,2.143324,0.512509,0.545429,-0.502017,-0.345287,0.532699,-0.301788,0.194938,-0.089874,0.061474,0.005234,0.559550,0.394009,0.206355,0.456790,-0.390100,-0.278013,0.881316,-0.477160
-0.729187,-1.332067,0.058737,0.060257,0.037851,-0.033844,0.211974,-0.164056,0.520000,1.096933,2.093938,0.355659,0.413051,-0.510228,-0.358541,0.540734,-0.296527,0.188064,-0.089874,-0.025878,0.112420,0.720259,0.455339,0.149285,0.456790,-0.375338,-0.287537,0.857530,-0.532576
-0.774534,-1.320785,0.072618,0.066975,0.026703,-0.042772,0.208107,-0.172736,0.520000,1.127503,2.057184,0.201895,0.276299,-0.516490,-0.366541,0.550840,-0.300767,0.184223,-0.090583,-0.124972,0.212767,0.867229,0.509831,0.087726,0.393210,-0.364764,-0.295078,0.804453,-0.562398
-0.815777,-1.312786,0.085250,0.072708,0.014648,-0.054129,0.204416,-0.179308,0.520000,1.152792,2.026746,0.049673,0.137357,-0.521777,-0.371914,0.561982,-0.309758,0.181899,-0.092457,-0.229939,0.309695,1.007331,0.560905,0.023920,0.299070,-0.355886,-0.301626,0.736730,-0.579424
-0.842044,-1.307953,0.080148,0.076718,0.003613,-0.071695,0.198605,-0.180592,0.520000,1.175607,2.016318,-0.081612,0.020010,-0.528899,-0.381030,0.567358,-0.315896,0.183512,-0.092457,-0.335932,0.359974,1.109754,0.560905,-0.029757,0.208895,-0.355886,-0.300141,0.693974,-0.593879
-0.863724,-1.303436,0.075324,0.082118,-0.006159,-0.087165,0.192005,-0.181875,0.520000,1.199344,2.009790,-0.207802,-0.089486,-0.536584,-0.390209,0.565945,-0.322026,0.185232,-0.094121,-0.424705,0.396684,1.190520,0.552094,-0.081124,0.131582,-0.355053,-0.298618,0.657975,-0.608508
-0.876231,-1.299550,0.071056,0.090297,-0.013407,-0.098444,0.183826,-0.183155,0.520000,1.224927,2.011062,-0.323806,-0.183286,-0.545394,-0.399513,0.550954,-0.328143,0.187165,-0.098026,-0.479037,0.406257,1.227969,0.524050,-0.127871,0.079989,-0.353756,-0.297020,0.635490,-0.623489
-0.879638,-1.301298,0.069787,0.102918,-0.015822,-0.108011,0.178918,-0.183291,0.520000,1.248854,2.016603,-0.421268,-0.260619,-0.558026,-0.405994,0.538806,-0.342995,0.190220,-0.100210,-0.509204,0.402627,1.197528,0.466862,-0.166454,0.044540,-0.360204,-0.297452,0.623284,-0.641080
-0.879638,-1.305865,0.069787,0.117760,-0.015822,-0.116722,0.175646,-0.183291,0.520000,1.271952,2.024279,-0.509458,-0.329719,-0.572568,-0.411062,0.528080,-0.362215,0.193836,-0.100210,-0.527290,0.392397,1.133142,0.395100,-0.200954,0.017161,-0.370526,-0.298899,0.616216,-0.659978
-0.864529,-1.318146,0.068584,0.133922,-0.007952,-0.123136,0.175646,-0.179780,0.520000,1.290609,2.033369,-0.604352,-0.373824,-0.587578,-0.413268,0.538775,-0.407917,0.197906,-0.099639,-0.560346,0.376482,1.028733,0.275920,-0.178573,0.005511,-0.389814,-0.295079,0.620161,-0.683669
-0.845801,-1.330970,0.068390,0.150993,-0.000187,-0.128985,0.177064,-0.177632,0.520000,1.307320,2.041282,-0.706444,-0.411390,-0.602317,-0.414269,0.550002,-0.465034,0.201888,-0.097353,-0.593609,0.355775,0.922761,0.146419,-0.137704,0.000323,-0.410766,-0.289159,0.628929,-0.708436
-0.818309,-1.344877,0.070522,0.169881,0.008281,-0.133703,0.179775,-0.177632,0.520000,1.320139,2.046844,-0.822938,-0.435879,-0.616518,-0.412858,0.562291,-0.544983,0.205695,-0.093403,-0.627287,0.325486,0.813661,-0.003734,-0.059854,0.008056,-0.435045,-0.279034,0.647343,-0.735355
-0.781859,-1.357050,0.071798,0.190172,0.013022,-0.141216,0.182212,-0.180785,0.520000,1.326385,2.049350,-0.940220,-0.466905,-0.628113,-0.411032,0.570370,-0.637623,0.205506,-0.089094,-0.640709,0.283472,0.693094,-0.139413,0.012151,0.023028,-0.452798,-0.269086,0.671814,-0.754752
-0.740930,-1.368355,0.072363,0.211164,0.015901,-0.150127,0.184512,-0.185535,0.520000,1.329344,2.050002,-1.057893,-0.501199,-0.638406,-0.408998,0.576346,-0.736608,0.203317,-0.084606,-0.644003,0.235595,0.566793,-0.267852,0.081233,0.041618,-0.467960,-0.259225,0.699312,-0.770388
-0.692033,-1.379710,0.062565,0.232930,0.013315,-0.162896,0.189090,-0.188983,0.520000,1.320292,2.046014,-1.176772,-0.562298,-0.641964,-0.412399,0.594836,-0.854246,0.194060,-0.075805,-0.642717,0.192489,0.424995,-0.339533,0.127226,0.053992,-0.467960,-0.252328,0.715297,-0.784016
-0.643065,-1.394203,0.049579,0.254415,0.009572,-0.174662,0.193672,-0.191281,0.512457,1.306479,2.043356,-1.295236,-0.630011,-0.644336,-0.415343,0.618989,-0.976745,0.182572,-0.065751,-0.649159,0.166143,0.291223,-0.387868,0.168762,0.061416,-0.466039,-0.247509,0.730176,-0.800414
-0.593959,-1.414971,0.030218,0.275339,0.003514,-0.184424,0.198258,-0.191281,0.489830,1.283146,2.043356,-1.412872,-0.710950,-0.644336,-0.417374,0.654464,-1.108959,0.166620,-0.053190,-0.671055,0.173318,0.173507,-0.387868,0.201387,0.058938,-0.458258,-0.247509,0.742845,-0.822350
-0.542196,-1.436441,0.013724,0.296985,-0.001584,-0.188139,0.205637,-0.190247,0.465086,1.249713,2.049423,-1.531192,-0.791923,-0.638279,-0.420450,0.700409,-1.248665,0.148545,-0.037165,-0.717616,0.212992,0.112815,-0.349693,0.229433,0.041116,-0.450647,-0.246858,0.765085,-0.842242
-0.489107,-1.458261,-0.001335,0.318992,-0.006203,-0.188600,0.214411,-0.188176,0.439285,1.211232,2.057859,-1.649849,-0.872912,-0.628705,-0.424048,0.751586,-1.392111,0.129408,-0.019408,-0.776506,0.268913,0.080636,-0.291610,0.255190,0.015623,-0.443123,-0.246427,0.792108,-0.861112
-0.426846,-1.474976,-0.002620,0.337239,-0.013547,-0.174413,0.232920,-0.184262,0.418340,1.150404,2.079338,-1.750971,-0.935785,-0.605465,-0.428009,0.807348,-1.538712,0.111962,-0.006258,-0.880177,0.348659,0.154207,-0.206609,0.269926,-0.067029,-0.430166,-0.222154,0.838235,-0.856291
-0.363206,-1.490800,0.006561,0.353264,-0.022957,-0.151734,0.253314,-0.181109,0.396417,1.082035,2.105922,-1.848800,-0.966381,-0.578342,-0.430649,0.863007,-1.687176,0.096130,0.005504,-1.001437,0.413998,0.239057,-0.123660,0.280415,-0.160027,-0.409837,-0.188158,0.867127,-0.839304
-0.296803,-1.504844,0.036673,0.364849,-0.036497,-0.112070,0.277483,-0.181109,0.372535,0.998579,2.142714,-1.940051,-0.932426,-0.543452,-0.430649,0.918461,-1.839375,0.083523,0.014490,-1.157887,0.450528,0.346471,-0.044809,0.280415,-0.273724,-0.374763,-0.134716,0.861552,-0.797984
-0.231828,-1.517189,0.085952,0.370730,-0.049573,-0.044939,0.300893,-0.182054,0.343866,0.896920,2.182822,-2.003716,-0.839022,-0.494862,-0.428033,0.939582,-1.976176,0.070648,0.025374,-1.286023,0.443283,0.451575,0.058247,0.285426,-0.339137,-0.335258,-0.091143,0.816036,-0.739326
-0.167569,-1.528685,0.144811,0.373760,-0.062415,0.035922,0.323923,-0.184289,0.312805,0.786162,2.224587,-2.053586,-0.715898,-0.439423,-0.424688,0.943536,-2.105273,0.057640,0.037207,-1.400000,0.414153,0.555523,0.173403,0.291945,-0.380407,-0.293538,-0.052507,0.750552,-0.672002
-0.117659,-1.547251,0.176158,0.369497,-0.076045,0.115677,0.338023,-0.190276,0.275315,0.652680,2.267998,-1.986409,-0.577644,-0.349622,-0.410556,0.985350,-2.168752,0.029957,0.048636,-1.400000,0.352590,0.604164,0.324235,0.310013,-0.356574,-0.266667,-0.039099,0.685471,-0.597816
-0.078580,-1.561703,0.192712,0.366827,-0.088397,0.170605,0.349894,-0.199096,0.245136,0.526735,2.307897,-1.909199,-0.447304,-0.227834,-0.397237,1.036276,-2.199349,-0.010527,0.055377,-1.400000,0.295148,0.648415,0.474294,0.320051,-0.335710,-0.244991,-0.027610,0.635772,-0.533215
-0.061169,-1.567926,0.179676,0.366827,-0.098192,0.175872,0.357307,-0.213581,0.229585,0.415876,2.340771,-1.811923,-0.332801,-0.042074,-0.385547,1.105426,-2.164179,-0.076613,0.055377,-1.400000,0.245954,0.683879,0.622799,0.314023,-0.320787,-0.233706,-0.019961,0.616840,-0.487790
-0.074616,-1.570000,0.172120,0.363706,-0.100560,0.170694,0.324328,-0.227152,0.228149,0.339786,2.363218,-1.667505,-0.179761,0.177836,-0.370287,1.197266,-2.100688,-0.133823,0.054864,-1.293554,0.172547,0.689323,0.781305,0.289957,-0.315017,-0.224250,-0.011520,0.608543,-0.450824
-0.103494,-1.570000,0.167303,0.358765,-0.100452,0.160294,0.271151,-0.240267,0.233771,0.281079,2.380453,-1.499510,-0.007447,0.414830,-0.353243,1.300455,-2.023034,-0.186598,0.055614,-1.133880,0.087031,0.679756,0.944816,0.256869,-0.313825,-0.215707,-0.001908,0.605564,-0.418085
-0.130611,-1.570000,0.146207,0.353357,-0.100452,0.147867,0.229043,-0.247457,0.267829,0.295416,2.415831,-1.252058,0.153992,0.460295,-0.341635,1.428386,-1.921059,-0.175834,0.055614,-0.910560,-0.004386,0.662354,1.052098,0.221270,-0.297731,-0.208931,-0.001908,0.588217,-0.384720
-0.166987,-1.570000,0.122278,0.349130,-0.105095,0.137608,0.196729,-0.251400,0.305015,0.339775,2.451818,-1.009417,0.308184,0.473090,-0.328117,1.519076,-1.814076,-0.158293,0.055192,-0.710326,-0.092096,0.679093,1.146158,0.181673,-0.279296,-0.201339,-0.001598,0.561985,-0.346950
-0.221880,-1.570000,0.092684,0.347264,-0.116658,0.131686,0.184007,-0.248846,0.348456,0.444179,2.489024,-0.776414,0.447868,0.420538,-0.310777,1.535274,-1.697085,-0.127197,0.055192,-0.556281,-0.172384,0.764117,1.213768,0.134083,-0.256179,-0.192117,-0.001598,0.517981,-0.300371
-0.276744,-1.570000,0.055612,0.344298,-0.128095,0.122946,0.178968,-0.247087,0.389862,0.536479,2.517115,-0.545391,0.543167,0.366049,-0.294334,1.524811,-1.578969,-0.102055,0.050309,-0.444018,-0.209571,0.850934,1.256007,0.079045,-0.233306,-0.181699,-0.002064,0.462157,-0.247874
-0.331596,-1.570000,0.014801,0.340783,-0.139468,0.112796,0.177771,-0.245725,0.430252,0.622729,2.540648,-0.315356,0.616274,0.310590,-0.278340,1.501016,-1.460291,-0.079890,0.044194,-0.352645,-0.225208,0.938648,1.285561,0.020284,-0.210554,-0.170685,-0.002064,0.400424,-0.192418
-0.353619,-1.570000,-0.017379,0.331177,-0.128952,0.083793,0.182035,-0.252728,0.450991,0.608598,2.543626,-0.105536,0.632196,0.273868,-0.271936,1.437369,-1.347358,-0.070591,0.037622,-0.288447,-0.192893,0.987641,1.273341,-0.021032,-0.184242,-0.156890,-0.001435,0.350262,-0.138191
-0.369409,-1.570000,-0.044312,0.324773,-0.113521,0.055167,0.192481,-0.263270,0.462979,0.571820,2.540329,0.085513,0.644697,0.240671,-0.265985,1.360902,-1.235312,-0.069435,0.034070,-0.224743,-0.168480,1.019822,1.252295,-0.054524,-0.159798,-0.143998,-0.000241,0.307168,-0.086992
-0.372730,-1.570000,-0.060753,0.324773,-0.088260,0.027293,0.215292,-0.280890,0.457465,0.489755,2.524485,0.239017,0.650357,0.214521,-0.260942,1.258799,-1.125045,-0.084567,0.034070,-0.162027,-0.159877,1.018382,1.213599,-0.072371,-0.139090,-0.132912,0.001007,0.278209,-0.041851
-0.378885,-1.564301,-0.070989,0.326223,-0.064044,0.010485,0.240243,-0.297327,0.444884,0.409074,2.499937,0.355282,0.671613,0.220329,-0.258909,1.142970,-1.013702,-0.120122,0.035852,-0.109299,-0.170683,0.995250,1.161821,-0.088589,-0.116830,-0.127839,-0.002049,0.258187,-0.014590
-0.386456,-1.555753,-0.078123,0.327974,-0.040351,-0.000789,0.266841,-0.313174,0.428770,0.329085,2.471037,0.452924,0.700668,0.242117,-0.258557,1.020279,-0.901823,-0.165890,0.037283,-0.061567,-0.191194,0.961273,1.103502,-0.103992,-0.093793,-0.125772,-0.007256,0.242636,0.003730
-0.391485,-1.525981,-0.076610,0.324975,-0.017507,-0.004286,0.266841,-0.321932,0.419848,0.282064,2.435807,0.516202,0.752832,0.298333,-0.266357,0.896983,-0.787598,-0.184259,0.032704,-0.032281,-0.221077,0.924812,1.017500,-0.109532,-0.041960,-0.131745,-0.021248,0.240104,-0.013631
-0.397112,-1.496434,-0.072522,0.318670,0.004533,-0.009037,0.260090,-0.324806,0.417269,0.269589,2.406704,0.571549,0.803607,0.274664,-0.274468,0.777697,-0.675622,-0.165312,0.027829,-0.008309,-0.246472,0.891036,0.931634,-0.109224,0.010931,-0.138379,-0.036752,0.241275,-0.033581
-0.403934,-1.467340,-0.063286,0.305757,0.024962,-0.016295,0.238105,-0.315910,0.427378,0.326197,2.389859,0.611035,0.851605,0.091242,-0.283199,0.666435,-0.568146,-0.071741,0.022362,0.005033,-0.262890,0.862631,0.846042,-0.097220,0.065937,-0.146339,-0.055282,0.249852,-0.058705
-0.450069,-1.433318,-0.054816,0.291739,0.044052,-0.032513,0.227981,-0.292177,0.452297,0.460626,2.369464,0.636490,0.884620,-0.071380,-0.290741,0.567612,-0.464499,0.013672,0.018075,0.018219,-0.266824,0.832648,0.766579,-0.084559,0.126222,-0.154842,-0.077979,0.264609,-0.085941
-0.515858,-1.396834,-0.046728,0.277170,0.062470,-0.053211,0.223787,-0.261028,0.484620,0.633960,2.347296,0.654927,0.910144,-0.223596,-0.297687,0.475012,-0.362772,0.095004,0.014379,0.031327,-0.264515,0.801876,0.690182,-0.071569,0.189143,-0.163616,-0.102759,0.282456,-0.114230
-0.609829,-1.387059,-0.035938,0.242256,0.070191,-0.072805,0.220415,-0.215519,0.505848,0.793142,2.332793,0.630299,0.899095,-0.310470,-0.304101,0.410721,-0.286730,0.134149,0.004567,0.021099,-0.214928,0.796674,0.659594,-0.076612,0.280260,-0.178226,-0.123306,0.320323,-0.153022
-0.699185,-1.375978,-0.021301,0.207939,0.080856,-0.083163,0.215131,-0.174796,0.520000,0.931342,2.312741,0.599147,0.870822,-0.381626,-0.311129,0.354510,-0.230667,0.163375,-0.006154,-0.000199,-0.142212,0.796450,0.653087,-0.085013,0.358503,-0.191907,-0.139248,0.354041,-0.188827
-0.779310,-1.362287,0.001027,0.174818,0.097409,-0.075050,0.206021,-0.143643,0.520000,1.027580,2.281592,0.554948,0.808105,-0.421348,-0.319385,0.314457,-0.214557,0.172764,-0.018692,-0.043632,-0.023247,0.806178,0.694737,-0.100128,0.411000,-0.203728,-0.145981,0.379460,-0.218658
-0.835604,-1.335746,0.027288,0.155490,0.121748,-0.062851,0.203886,-0.123605,0.520000,1.097403,2.244453,0.496960,0.704530,-0.453555,-0.331462,0.291033,-0.216789,0.179223,-0.029216,-0.112838,0.113867,0.833850,0.773502,-0.120983,0.448121,-0.221260,-0.160920,0.411205,-0.255000
-0.879983,-1.302779,0.055516,0.143058,0.149981,-0.048609,0.205238,-0.109126,0.520000,1.154020,2.204318,0.432076,0.580524,-0.482005,-0.345450,0.275923,-0.228192,0.184216,-0.038733,-0.194932,0.260058,0.870495,0.870825,-0.144707,0.477556,-0.241650,-0.179963,0.446115,-0.294598
-0.917291,-1.278688,0.079933,0.137117,0.173344,-0.046415,0.209950,-0.099450,0.520000,1.189390,2.168789,0.348009,0.442560,-0.498896,-0.358260,0.275923,-0.236327,0.185434,-0.045516,-0.266473,0.365986,0.918674,0.937709,-0.117008,0.410793,-0.253406,-0.190838,0.470928,-0.319234
-0.955915,-1.259690,0.100145,0.129512,0.190183,-0.047202,0.214089,-0.090918,0.520000,1.220221,2.137408,0.262894,0.305368,-0.512227,-0.368997,0.280083,-0.245409,0.185565,-0.052764,-0.327846,0.454614,0.959313,0.993932,-0.085945,0.336930,-0.262508,-0.196960,0.492625,-0.347198
-0.997164,-1.250882,0.111947,0.118578,0.193969,-0.053950,0.217085,-0.084673,0.520000,1.241972,2.114330,0.175693,0.169733,-0.518437,-0.375591,0.291752,-0.256381,0.185565,-0.060939,-0.368878,0.508634,0.984872,1.028828,-0.048156,0.248872,-0.266299,-0.193573,0.508088,-0.381816
-1.028825,-1.237273,0.115046,0.106187,0.190799,-0.062256,0.219418,-0.081633,0.520000,1.258997,2.099828,0.088996,0.034280,-0.524501,-0.381383,0.309779,-0.265917,0.185570,-0.064664,-0.404778,0.549165,1.008121,1.075693,-0.037137,0.189332,-0.273159,-0.191223,0.515530,-0.416965
-1.055690,-1.221264,0.113793,0.093068,0.184152,-0.071339,0.221420,-0.080675,0.520000,1.273658,2.090550,0.002560,-0.101072,-0.530492,-0.386775,0.330984,-0.274734,0.186255,-0.066162,-0.438111,0.582949,1.030214,1.128539,-0.039503,0.144057,-0.281551,-0.189392,0.518961,-0.452377
-1.064800,-1.199369,0.098441,0.084046,0.181299,-0.083011,0.227626,-0.079108,0.520000,1.285940,2.090550,-0.094586,-0.224615,-0.537014,-0.392215,0.361035,-0.278084,0.193251,-0.066162,-0.492568,0.610359,1.076880,1.175397,-0.059255,0.140216,-0.292576,-0.185436,0.516122,-0.470156
-1.070873,-1.180211,0.085255,0.075677,0.181093,-0.092581,0.234185,-0.075965,0.520000,1.297640,2.094832,-0.197417,-0.345014,-0.543204,-0.395841,0.389574,-0.280316,0.200186,-0.066002,-0.546170,0.636471,1.125080,1.217689,-0.077840,0.145101,-0.302838,-0.183204,0.511228,-0.481021
-1.070873,-1.166531,0.076402,0.068615,0.186178,-0.097947,0.241445,-0.069669,0.520000,1.308174,2.104874,-0.311608,-0.459114,-0.548728,-0.395841,0.415087,-0.280316,0.206998,-0.066002,-0.598059,0.659983,1.176346,1.250846,-0.094089,0.167437,-0.311572,-0.183204,0.502226,-0.481021
-1.065399,-1.158646,0.079525,0.062640,0.193028,-0.099407,0.249055,-0.062155,0.520000,1.315983,2.116396,-0.420209,-0.568810,-0.553170,-0.394350,0.428501,-0.277234,0.211534,-0.068096,-0.605639,0.667821,1.188109,1.267712,-0.114774,0.193448,-0.324665,-0.190353,0.495862,-0.478244
-1.057648,-1.154174,0.088634,0.057208,0.200759,-0.099078,0.256840,-0.054032,0.520000,1.322430,2.128656,-0.526007,-0.676296,-0.557770,-0.391120,0.435865,-0.272267,0.214930,-0.071730,-0.591063,0.668241,1.180121,1.276431,-0.137675,0.221295,-0.339937,-0.200467,0.490816,-0.475561
-1.044814,-1.154174,0.099227,0.055550,0.210407,-0.096101,0.264090,-0.046666,0.520000,1.325683,2.136117,-0.605785,-0.747384,-0.557770,-0.389540,0.451505,-0.273935,0.217083,-0.074387,-0.526611,0.618540,1.080317,1.181087,-0.161906,0.212985,-0.371099,-0.214595,0.512666,-0.504666
-1.030009,-1.155820,0.111146,0.055013,0.220368,-0.092058,0.271563,-0.039314,0.520000,1.326961,2.141754,-0.686329,-0.806630,-0.559090,-0.388487,0.467172,-0.280879,0.218309,-0.075563,-0.463877,0.565580,0.966245,1.049939,-0.167121,0.187215,-0.404224,-0.227310,0.540514,-0.547756
-1.011263,-1.159215,0.125719,0.056720,0.230954,-0.085881,0.279482,-0.031991,0.520000,1.324286,2.143742,-0.768400,-0.842187,-0.559090,-0.388487,0.482892,-0.298373,0.218309,-0.073778,-0.404584,0.506109,0.823646,0.847189,-0.134301,0.126528,-0.441276,-0.237201,0.580356,-0.618814
-0.986982,-1.159483,0.141603,0.059977,0.238528,-0.079305,0.286743,-0.026770,0.520000,1.317211,2.143885,-0.860373,-0.881594,-0.559948,-0.398240,0.499098,-0.319421,0.218100,-0.069025,-0.360714,0.459833,0.668272,0.624078,-0.065025,0.045453,-0.458449,-0.231573,0.619540,-0.669488
-0.959933,-1.158619,0.158141,0.064008,0.244596,-0.072528,0.293674,-0.022911,0.520000,1.307936,2.143366,-0.957300,-0.922927,-0.560186,-0.413414,0.515547,-0.342246,0.218235,-0.062786,-0.324557,0.420156,0.506506,0.390783,0.022481,-0.045817,-0.465681,-0.218184,0.658395,-0.709969
-0.926055,-1.156109,0.170315,0.069261,0.249184,-0.067642,0.295820,-0.022911,0.520000,1.294046,2.150177,-1.075562,-0.994265,-0.558177,-0.429675,0.546488,-0.385473,0.214832,-0.047037,-0.322165,0.406459,0.344276,0.176561,0.077866,-0.098931,-0.456283,-0.195940,0.684397,-0.720962
-0.889687,-1.154871,0.179209,0.074929,0.255577,-0.063078,0.296801,-0.024543,0.520000,1.278080,2.162683,-1.201567,-1.076149,-0.555500,-0.441122,0.585314,-0.437300,0.209940,-0.026846,-0.331476,0.395052,0.190291,-0.018638,0.121347,-0.140646,-0.445441,-0.173009,0.709328,-0.732229
-0.848345,-1.156177,0.181544,0.081424,0.265577,-0.059158,0.295454,-0.028504,0.520000,1.257963,2.186579,-1.343046,-1.179117,-0.551486,-0.441122,0.639909,-0.506322,0.202070,0.002225,-0.364189,0.388225,0.052809,-0.175779,0.141019,-0.159560,-0.431708,-0.148706,0.732111,-0.744041
-0.805325,-1.164734,0.178256,0.089466,0.274847,-0.053313,0.292010,-0.036648,0.507097,1.234108,2.223799,-1.483934,-1.285415,-0.546923,-0.438812,0.703079,-0.587660,0.193169,0.029074,-0.413154,0.388566,-0.052683,-0.280027,0.150021,-0.169680,-0.419445,-0.129268,0.751026,-0.761609
-0.761465,-1.176919,0.172158,0.098282,0.283752,-0.046504,0.287516,-0.046884,0.487743,1.208384,2.267682,-1.624529,-1.393381,-0.542084,-0.434437,0.770539,-0.675158,0.183752,0.054814,-0.470247,0.392491,-0.142181,-0.357831,0.153689,-0.175404,-0.407916,-0.112263,0.768006,-0.782056
-0.716649,-1.202595,0.160727,0.112519,0.288244,-0.036191,0.282205,-0.062283,0.445220,1.173986,2.321493,-1.740077,-1.477422,-0.533324,-0.425648,0.837160,-0.770948,0.177309,0.065428,-0.548015,0.426330,-0.161447,-0.342049,0.159909,-0.178914,-0.400259,-0.096097,0.789001,-0.823423
-0.668994,-1.229339,0.148332,0.127914,0.291728,-0.024073,0.277393,-0.078555,0.401637,1.134314,2.374189,-1.843817,-1.548787,-0.522077,-0.414772,0.904598,-0.869951,0.171767,0.074444,-0.637779,0.475124,-0.154111,-0.298336,0.164497,-0.182364,-0.396673,-0.079892,0.813753,-0.863805
-0.615664,-1.258216,0.134013,0.145622,0.293197,-0.008343,0.273582,-0.096574,0.355937,1.084098,2.424654,-1.923943,-1.594800,-0.505859,-0.399724,0.973665,-0.975378,0.168027,0.080265,-0.751526,0.553825,-0.093580,-0.198766,0.165820,-0.185695,-0.401230,-0.063611,0.846018,-0.902216
-0.552863,-1.281049,0.120473,0.164673,0.292758,0.005126,0.268827,-0.117936,0.312266,1.017932,2.465140,-1.992538,-1.626931,-0.482673,-0.383363,1.044870,-1.106704,0.161712,0.087895,-0.892453,0.677172,-0.004340,-0.077613,0.160560,-0.195369,-0.404247,-0.044829,0.863726,-0.909215
-0.485325,-1.300861,0.107320,0.184396,0.291365,0.016766,0.263600,-0.140969,0.269608,0.943790,2.500637,-2.055371,-1.652122,-0.456003,-0.366343,1.117145,-1.250985,0.154110,0.095896,-1.046973,0.822845,0.099259,0.054334,0.152009,-0.208214,-0.406495,-0.024796,0.874156,-0.900508
-0.395056,-1.297465,0.135477,0.204092,0.288287,0.016766,0.257054,-0.167731,0.237554,0.819663,2.506348,-2.166577,-1.588207,-0.397403,-0.359181,1.083950,-1.551768,0.134878,0.095896,-1.258786,0.957968,0.249276,0.049399,0.152009,-0.255970,-0.365940,0.004903,0.794781,-0.801791
-0.304274,-1.295961,0.216382,0.223864,0.284933,0.037662,0.249624,-0.197923,0.200283,0.682115,2.507066,-2.262528,-1.357493,-0.328156,-0.353858,1.012682,-1.852145,0.111391,0.093648,-1.400000,0.950882,0.386382,0.091583,0.164035,-0.298602,-0.322463,0.028146,0.690953,-0.686830
-0.212483,-1.295961,0.402766,0.243786,0.281030,0.102439,0.240426,-0.234970,0.152585,0.517744,2.497801,-2.327953,-0.793231,-0.237626,-0.353858,0.865279,-2.151661,0.079401,0.088505,-1.400000,0.659393,0.497644,0.227997,0.198772,-0.330980,-0.273150,0.038473,0.538235,-0.539401
-0.149980,-1.304173,0.583540,0.264591,0.272993,0.171879,0.244623,-0.269252,0.077431,0.364068,2.478944,-2.396289,-0.237218,-0.071562,-0.351361,0.691207,-2.251500,0.035462,0.086019,-1.400000,0.413785,0.627867,0.544739,0.230115,-0.339473,-0.249351,0.046337,0.420779,-0.432509
-0.102120,-1.315353,0.761513,0.285840,0.262888,0.243651,0.255518,-0.302151,-0.011452,0.215735,2.455291,-2.466082,0.314686,0.132274,-0.349101,0.503796,-2.251500,-0.014452,0.085248,-1.400000,0.191112,0.767574,0.951654,0.259761,-0.336022,-0.237543,0.052969,0.320951,-0.345882
-0.122414,-1.311762,0.762906,0.305977,0.253147,0.288384,0.272346,-0.310442,-0.061803,0.188022,2.427418,-2.410289,0.421437,0.324555,-0.349101,0.469657,-2.238762,-0.059604,0.090389,-1.400000,0.113708,0.836030,1.056028,0.267966,-0.326994,-0.237543,0.054473,0.299666,-0.328857
-0.141675,-1.312919,0.746807,0.325439,0.244001,0.324194,0.284474,-0.320584,-0.097049,0.172570,2.408202,-2.340181,0.491258,0.466918,-0.349330,0.452091,-2.215117,-0.094307,0.095374,-1.400000,0.041717,0.893190,1.139114,0.274172,-0.318583,-0.236775,0.055300,0.284146,-0.317010
-0.158869,-1.323572,0.695719,0.343553,0.236047,0.342153,0.287200,-0.334427,-0.102080,0.181641,2.408202,-2.241448,0.487215,0.509429,-0.348027,0.467675,-2.169657,-0.108109,0.100047,-1.400000,-0.019442,0.927750,1.179619,0.276380,-0.311411,-0.236775,0.055300,0.280158,-0.315518
-0.176972,-1.335825,0.629030,0.348305,0.222656,0.362848,0.274893,-0.345180,-0.079897,0.202190,2.417705,-2.124498,0.511919,0.523600,-0.343075,0.509306,-2.120877,-0.098207,0.102972,-1.400000,-0.067050,0.960761,1.235467,0.280421,-0.304702,-0.235850,0.055125,0.278530,-0.311309
-0.195530,-1.348878,0.554542,0.346376,0.206547,0.384910,0.255068,-0.354388,-0.044105,0.228480,2.432911,-1.998439,0.550998,0.523600,-0.336299,0.563961,-2.070436,-0.076453,0.105021,-1.400000,-0.107882,0.992996,1.298988,0.285380,-0.298223,-0.235129,0.055615,0.278230,-0.305741
-0.229884,-1.359770,0.514239,0.326536,0.185004,0.436622,0.216893,-0.344902,-0.000385,0.277863,2.450152,-1.847949,0.779016,0.523600,-0.326370,0.725494,-1.998338,-0.050734,0.100207,-1.400000,-0.228152,0.940252,1.440114,0.301512,-0.280049,-0.232940,0.054269,0.289221,-0.275498
-0.257466,-1.374656,0.477466,0.307624,0.172290,0.480879,0.191917,-0.333103,0.048231,0.306404,2.464499,-1.700238,0.974627,0.523600,-0.316172,0.885176,-1.911948,-0.031911,0.093743,-1.400000,-0.329718,0.886732,1.545873,0.314463,-0.263049,-0.230959,0.052258,0.301051,-0.245506
-0.271503,-1.397529,0.447754,0.290570,0.177235,0.510220,0.191917,-0.316679,0.106634,0.293258,2.473054,-1.558095,1.105408,0.523600,-0.305438,1.041149,-1.796976,-0.026883,0.083978,-1.400000,-0.393870,0.831659,1.580890,0.321053,-0.248398,-0.229394,0.048919,0.314558,-0.216020
-0.273549,-1.418705,0.332811,0.285834,0.191194,0.494412,0.220092,-0.306258,0.207571,0.259906,2.476552,-1.117091,1.149000,0.514039,-0.294457,1.416842,-1.715894,-0.026619,0.076746,-1.106259,-0.404382,0.634426,1.506071,0.315523,-0.231658,-0.231001,0.040331,0.340288,-0.168595
-0.269601,-1.439033,0.175256,0.286783,0.209662,0.456031,0.261642,-0.298836,0.329772,0.216452,2.477197,-0.526669,1.149000,0.499696,-0.283354,1.902379,-1.651755,-0.028737,0.070779,-0.665659,-0.388075,0.366125,1.376336,0.303934,-0.213872,-0.234194,0.029119,0.371434,-0.112202
-0.283898,-1.463081,0.114105,0.286783,0.223461,0.414672,0.295361,-0.295685,0.363617,0.194521,2.475653,-0.167834,1.146082,0.452718,-0.282073,1.827170,-1.567970,-0.044537,0.061752,-0.444956,-0.361547,0.473867,1.257789,0.275968,-0.205163,-0.238745,0.020090,0.371434,-0.087351
-0.300450,-1.484916,0.054881,0.284672,0.235721,0.370252,0.320382,-0.293036,0.396953,0.176994,2.473110,0.159114,1.118410,0.414697,-0.281908,1.730782,-1.485980,-0.069978,0.052810,-0.242506,-0.328116,0.565850,1.144645,0.247713,-0.194529,-0.244908,0.010413,0.369449,-0.065175
-0.321511,-1.502324,-0.000490,0.278089,0.244902,0.319709,0.328007,-0.291392,0.429272,0.168276,2.468570,0.422293,1.041226,0.394587,-0.283977,1.592034,-1.407578,-0.114702,0.044038,-0.076559,-0.280877,0.626314,1.042301,0.218878,-0.180048,-0.254295,-0.000561,0.365577,-0.048350
-0.343839,-1.514782,-0.038533,0.267085,0.254326,0.268518,0.305252,-0.291650,0.459393,0.174507,2.464193,0.613426,0.947665,0.403133,-0.284666,1.441919,-1.313158,-0.147093,0.036259,0.039563,-0.235627,0.644652,0.963740,0.186151,-0.157645,-0.267371,-0.013497,0.361350,-0.034605
-0.366801,-1.524766,-0.067912,0.253870,0.263872,0.217000,0.267306,-0.292455,0.488417,0.188215,2.459898,0.768543,0.845911,0.426001,-0.283839,1.286112,-1.210721,-0.173316,0.028977,0.130777,-0.191370,0.641928,0.897065,0.151477,-0.131281,-0.282291,-0.027413,0.356945,-0.022401
-0.377639,-1.535181,-0.065633,0.237740,0.270820,0.180951,0.240897,-0.286830,0.507367,0.269001,2.471000,0.818821,0.800130,0.207508,-0.286516,1.136533,-1.095911,-0.064823,0.023868,0.134346,-0.180026,0.630048,0.850354,0.117261,-0.095749,-0.296184,-0.039829,0.355236,-0.027842
-0.411542,-1.544082,-0.058128,0.224327,0.277376,0.147599,0.224017,-0.275484,0.520000,0.387979,2.478220,0.850637,0.764561,0.004826,-0.288822,0.993232,-0.983724,0.034574,0.019279,0.129564,-0.165023,0.625870,0.807376,0.082070,-0.055750,-0.309632,-0.052477,0.354407,-0.042150
-0.491575,-1.549954,-0.040171,0.216348,0.283151,0.119638,0.226196,-0.252696,0.520000,0.583346,2.478220,0.845532,0.749416,-0.166238,-0.290388,0.862481,-0.876781,0.115780,0.015733,0.108078,-0.142699,0.637094,0.771862,0.044928,-0.006813,-0.322189,-0.065591,0.354407,-0.074195
-0.575026,-1.558617,-0.019189,0.203544,0.289050,0.083046,0.240588,-0.219189,0.520000,0.757762,2.473594,0.807267,0.703051,-0.287257,-0.294536,0.748959,-0.774990,0.169762,0.008332,0.067462,-0.101919,0.664453,0.759594,-0.034461,0.043479,-0.334995,-0.081095,0.367026,-0.122817
-0.660189,-1.568676,0.003307,0.188327,0.295011,0.042137,0.261088,-0.180323,0.520000,0.921710,2.466927,0.752422,0.641074,-0.383258,-0.299975,0.644048,-0.675771,0.210133,-0.000996,0.017281,-0.051910,0.699881,0.759164,-0.134976,0.094452,-0.347924,-0.097795,0.386346,-0.179729
-0.715988,-1.550171,0.021138,0.169424,0.297026,0.002149,0.280690,-0.138135,0.520000,1.003649,2.428545,0.650693,0.526053,-0.421725,-0.317089,0.570715,-0.578584,0.220186,-0.016273,-0.067879,0.011701,0.762946,0.816601,-0.298440,0.126450,-0.340301,-0.109309,0.386346,-0.216684
-0.764186,-1.523095,0.035159,0.157746,0.297669,-0.028643,0.297586,-0.103201,0.520000,1.070206,2.379809,0.533161,0.406672,-0.452156,-0.336477,0.500161,-0.485161,0.226268,-0.030196,-0.159230,0.078311,0.846460,0.874643,-0.421239,0.164466,-0.329601,-0.120190,0.381439,-0.250560
-0.797187,-1.478873,0.041562,0.160519,0.295566,-0.041045,0.309071,-0.082770,0.520000,1.106000,2.310365,0.384017,0.278557,-0.466516,-0.360413,0.435163,-0.399257,0.226268,-0.041413,-0.262972,0.150925,0.970878,0.933898,-0.462720,0.214522,-0.312746,-0.129804,0.364146,-0.278279
-0.833305,-1.439486,0.049385,0.166907,0.294061,-0.047934,0.315934,-0.064211,0.520000,1.126452,2.230122,0.237698,0.154940,-0.470642,-0.383591,0.375970,-0.325310,0.221126,-0.053032,-0.337640,0.226463,1.058261,0.943598,-0.437957,0.257319,-0.302221,-0.143224,0.362547,-0.315838
-0.870983,-1.402516,0.057918,0.175105,0.293256,-0.052068,0.320485,-0.046586,0.520000,1.139233,2.144477,0.092786,0.033567,-0.469981,-0.406389,0.319678,-0.257339,0.214342,-0.064852,-0.397775,0.303465,1.127130,0.928522,-0.380071,0.296488,-0.294861,-0.158547,0.368795,-0.358317
-0.908289,-1.361719,0.060952,0.188325,0.297497,-0.056487,0.316128,-0.028209,0.520000,1.146602,2.051847,-0.021065,-0.048367,-0.464123,-0.418600,0.293333,-0.210221,0.202243,-0.066736,-0.416195,0.352648,1.113641,0.839144,-0.298723,0.128524,-0.291786,-0.155885,0.402818,-0.423110
-0.940886,-1.316253,0.059633,0.198923,0.292750,-0.058399,0.309982,-0.012013,0.520000,1.150838,1.960114,-0.136845,-0.111887,-0.458633,-0.431050,0.274013,-0.173383,0.190781,-0.072390,-0.439584,0.396605,1.104292,0.736271,-0.233113,-0.060531,-0.288706,-0.141742,0.430124,-0.487798
-0.964069,-1.261444,0.049607,0.204279,0.270024,-0.055294,0.300257,-0.000179,0.520000,1.148806,1.870171,-0.256489,-0.138574,-0.453877,-0.443980,0.268744,-0.157108,0.180596,-0.085586,-0.472914,0.430112,1.104292,0.606400,-0.198983,-0.291783,-0.285614,-0.104631,0.443994,-0.552278
-0.980254,-1.206272,0.036016,0.204503,0.237676,-0.049827,0.289066,0.004704,0.520000,1.143661,1.785835,-0.381014,-0.146570,-0.452292,-0.459083,0.273121,-0.160404,0.173347,-0.098720,-0.520004,0.461159,1.118344,0.490053,-0.181413,-0.416773,-0.277549,-0.088639,0.446253,-0.593701
-0.992941,-1.150915,0.020643,0.202161,0.200515,-0.043179,0.277143,0.005641,0.520000,1.136959,1.704297,-0.507985,-0.145223,-0.452240,-0.475273,0.282323,-0.173484,0.168338,-0.111824,-0.573976,0.490979,1.139957,0.380463,-0.172121,-0.488640,-0.266997,-0.083205,0.442706,-0.623597
-0.996932,-1.102487,0.011730,0.200843,0.183856,-0.040025,0.268337,0.013374,0.520000,1.131603,1.630007,-0.619670,-0.114878,-0.450793,-0.479137,0.290337,-0.209050,0.168338,-0.107940,-0.605873,0.494314,1.155136,0.287021,-0.169909,-0.490683,-0.242556,-0.107037,0.421840,-0.625758
-0.998053,-1.056244,0.004944,0.201125,0.174156,-0.038515,0.260389,0.023934,0.520000,1.126850,1.557577,-0.720516,-0.082345,-0.448850,-0.481257,0.299255,-0.245909,0.170485,-0.099894,-0.629328,0.492689,1.161477,0.205697,-0.165920,-0.484343,-0.216942,-0.131560,0.401120,-0.618285
-0.993433,-1.014367,0.002413,0.204611,0.178374,-0.040291,0.254155,0.040154,0.520000,1.123305,1.488867,-0.799683,-0.045429,-0.448850,-0.481257,0.309980,-0.285357,0.174613,-0.083523,-0.635901,0.481143,1.150137,0.148609,-0.158377,-0.461237,-0.188980,-0.157468,0.380686,-0.591541
-0.983107,-0.975994,0.003185,0.210833,0.183812,-0.042211,0.248780,0.052902,0.520000,1.118103,1.423186,-0.864028,-0.011519,-0.447871,-0.480144,0.320016,-0.323687,0.177318,-0.070771,-0.643188,0.467620,1.128276,0.119326,-0.156736,-0.430891,-0.170077,-0.174263,0.373220,-0.557878
-0.969926,-0.939371,0.005608,0.218422,0.188965,-0.044204,0.243835,0.063917,0.520000,1.112072,1.359016,-0.920964,0.020890,-0.448030,-0.479487,0.329709,-0.361460,0.179311,-0.059829,-0.650833,0.453108,1.101151,0.103942,-0.157610,-0.396924,-0.156304,-0.186502,0.372565,-0.520752
-0.950438,-0.910168,0.011480,0.225993,0.188965,-0.047603,0.242486,0.066453,0.520000,1.099700,1.302184,-0.963263,0.044317,-0.445889,-0.480879,0.337356,-0.388541,0.176907,-0.055384,-0.657493,0.436695,1.070129,0.130582,-0.168323,-0.358658,-0.156304,-0.183470,0.383824,-0.487010
-0.929559,-0.884247,0.017237,0.232967,0.185340,-0.051472,0.243184,0.066319,0.520000,1.084329,1.249187,-1.000830,0.064087,-0.442396,-0.481234,0.344163,-0.410396,0.174314,-0.051243,-0.660670,0.420322,1.037432,0.168371,-0.172884,-0.318814,-0.157360,-0.175059,0.394054,-0.455018
-0.905897,-0.864894,0.022763,0.238749,0.177147,-0.056283,0.247976,0.060845,0.520000,1.062955,1.203860,-1.028936,0.076544,-0.436197,-0.479514,0.349290,-0.421798,0.171345,-0.047711,-0.656880,0.404029,1.001383,0.228462,-0.165141,-0.275812,-0.158720,-0.155890,0.402223,-0.426526
-0.879670,-0.848011,0.024765,0.241517,0.167090,-0.060835,0.254641,0.054110,0.520000,1.036814,1.163255,-1.049544,0.084417,-0.427801,-0.476919,0.353255,-0.427241,0.169260,-0.043966,-0.653591,0.390394,0.966585,0.299836,-0.149818,-0.241551,-0.155581,-0.131261,0.405803,-0.407369
-0.852158,-0.832362,0.024925,0.242358,0.156100,-0.065258,0.262242,0.046744,0.520000,1.008288,1.125010,-1.066403,0.090236,-0.418305,-0.473887,0.356640,-0.429703,0.167617,-0.040116,-0.651228,0.378088,0.932410,0.376857,-0.130705,-0.211658,-0.150191,-0.103902,0.407089,-0.392880
-0.819410,-0.814104,0.020116,0.238400,0.148862,-0.066871,0.267073,0.042429,0.520000,0.971258,1.086664,-1.072788,0.090236,-0.406823,-0.469508,0.356640,-0.426818,0.165195,-0.034238,-0.651228,0.372214,0.904645,0.464481,-0.117404,-0.194363,-0.146343,-0.074734,0.407089,-0.386606
-0.785907,-0.795600,0.015175,0.234745,0.143319,-0.067160,0.271761,0.039552,0.520000,0.933502,1.049329,-1.076282,0.090888,-0.395173,-0.464160,0.356002,-0.423403,0.162901,-0.027930,-0.653257,0.369099,0.879790,0.551081,-0.106071,-0.180061,-0.143206,-0.049097,0.407577,-0.381776
-0.750892,-0.776604,0.009973,0.231692,0.143319,-0.067160,0.276163,0.039552,0.520000,0.894288,1.014015,-1.076282,0.092130,-0.383185,-0.456871,0.353414,-0.418930,0.160860,-0.020757,-0.657319,0.369099,0.860752,0.635639,-0.098673,-0.171744,-0.143206,-0.030520,0.407577,-0.379835
-0.714602,-0.755563,0.004578,0.228755,0.143038,-0.064779,0.282185,0.043045,0.520000,0.855030,0.979909,-1.070592,0.095294,-0.370005,-0.450881,0.349273,-0.415058,0.157534,-0.014585,-0.664312,0.376977,0.846022,0.712366,-0.092774,-0.161798,-0.142389,-0.019770,0.408065,-0.376765
-0.677673,-0.733499,-0.000914,0.225876,0.142782,-0.062386,0.289015,0.047362,0.520000,0.815748,0.946406,-1.063201,0.099418,-0.356229,-0.445540,0.344354,-0.410515,0.153567,-0.008912,-0.672771,0.387592,0.833447,0.785181,-0.087623,-0.151038,-0.141711,-0.012935,0.407515,-0.373130
-0.637589,-0.708446,-0.007435,0.220620,0.142782,-0.060569,0.297982,0.054343,0.520000,0.775325,0.916739,-1.048712,0.109502,-0.343099,-0.438789,0.338586,-0.410515,0.148418,-0.004403,-0.684539,0.405410,0.826885,0.836365,-0.081805,-0.131995,-0.141711,-0.009966,0.407515,-0.361807
-0.597290,-0.682130,-0.014621,0.214061,0.141165,-0.058335,0.306963,0.062648,0.520000,0.735099,0.886592,-1.032829,0.121565,-0.330154,-0.431234,0.332829,-0.410564,0.143413,0.000460,-0.697617,0.423804,0.822846,0.879347,-0.075755,-0.112788,-0.140542,-0.006746,0.406228,-0.346688
-0.556556,-0.653283,-0.023137,0.204898,0.138394,-0.058335,0.315973,0.073601,0.520000,0.695265,0.855483,-1.014156,0.137586,-0.317579,-0.422068,0.327094,-0.413622,0.138695,0.006032,-0.713315,0.443353,0.822846,0.905930,-0.069243,-0.093249,-0.140542,-0.003022,0.404138,-0.323973
-0.516563,-0.619863,-0.033299,0.193683,0.133420,-0.057312,0.323862,0.085405,0.520000,0.657048,0.817853,-0.992653,0.156547,-0.304418,-0.408950,0.320244,-0.418021,0.133096,0.016376,-0.727684,0.461218,0.828122,0.919762,-0.061825,-0.081291,-0.138158,0.001262,0.400448,-0.295807
-0.476940,-0.584155,-0.044284,0.181443,0.127344,-0.057312,0.331192,0.097636,0.520000,0.619639,0.776963,-0.969735,0.176978,-0.290964,-0.393857,0.312836,-0.423090,0.127058,0.029106,-0.741389,0.478242,0.835534,0.927220,-0.053953,-0.073123,-0.135686,0.005826,0.395957,-0.264915
-0.437848,-0.542974,-0.055191,0.167372,0.118828,-0.059140,0.337165,0.111618,0.520000,0.582687,0.728251,-0.942888,0.199827,-0.277819,-0.376465,0.302553,-0.428563,0.120761,0.043089,-0.750560,0.493684,0.848120,0.920091,-0.043067,-0.077433,-0.131170,0.007120,0.387767,-0.234771
-0.399381,-0.500169,-0.066752,0.151959,0.107731,-0.061285,0.341832,0.124519,0.520000,0.546460,0.677779,-0.915511,0.222589,-0.264798,-0.357901,0.291821,-0.433912,0.114648,0.056006,-0.759486,0.508044,0.862422,0.909924,-0.032143,-0.082847,-0.126017,0.007144,0.378593,-0.207299
-0.362156,-0.454109,-0.079623,0.133858,0.091471,-0.064511,0.343890,0.135260,0.520000,0.511677,0.623780,-0.887070,0.245178,-0.252022,-0.336988,0.280192,-0.439014,0.108899,0.066791,-0.767924,0.520241,0.880157,0.893679,-0.021142,-0.090469,-0.119591,0.004628,0.367450,-0.185167
-0.328386,-0.406784,-0.093848,0.112422,0.068153,-0.069227,0.341960,0.140261,0.520000,0.480167,0.567053,-0.858507,0.266132,-0.240269,-0.318722,0.268157,-0.442285,0.103296,0.068235,-0.774973,0.527224,0.900614,0.876099,-0.012018,-0.096019,-0.112716,0.000837,0.355111,-0.168836
-0.296342,-0.358825,-0.108750,0.089319,0.041305,-0.074689,0.338037,0.142390,0.520000,0.450292,0.508960,-0.829881,0.286270,-0.229026,-0.301779,0.255919,-0.444641,0.097765,0.065009,-0.781326,0.531599,0.922433,0.857852,-0.003832,-0.100534,-0.105616,-0.003592,0.342174,-0.155404
-0.275380,-0.317177,-0.126969,0.065755,0.014066,-0.078740,0.326510,0.138494,0.505421,0.427850,0.458362,-0.793932,0.310243,-0.220737,-0.297994,0.242277,-0.441599,0.091582,0.075271,-0.789570,0.528206,0.947502,0.847780,0.001233,-0.099742,-0.098707,-0.010138,0.328056,-0.147502
-0.260977,-0.284061,-0.145219,0.048221,-0.006621,-0.078079,0.312570,0.129034,0.490229,0.413424,0.421298,-0.759120,0.332713,-0.213871,-0.297071,0.229360,-0.436615,0.084122,0.078194,-0.798672,0.522042,0.973335,0.840418,0.005229,-0.097480,-0.091799,-0.016955,0.313719,-0.140390
-0.259690,-0.268009,-0.163531,0.042750,-0.014202,-0.067994,0.293803,0.108448,0.473811,0.413424,0.411303,-0.726583,0.352175,-0.209852,-0.301870,0.217892,-0.427749,0.074108,0.066434,-0.809490,0.510334,1.000697,0.838477,0.007088,-0.093070,-0.084892,-0.024315,0.298943,-0.134860
-0.263751,-0.263396,-0.178186,0.045596,-0.011744,-0.053510,0.275745,0.090620,0.462997,0.422256,0.418538,-0.696786,0.362209,-0.209060,-0.301147,0.207216,-0.418225,0.064325,0.050701,-0.813475,0.499096,1.029757,0.843736,0.009305,-0.088171,-0.077545,-0.030103,0.284200,-0.130668
-0.270487,-0.263396,-0.191013,0.052602,-0.004266,-0.036826,0.258040,0.074172,0.454986,0.434700,0.434389,-0.668359,0.367530,-0.209060,-0.297664,0.196935,-0.408371,0.054657,0.032980,-0.813475,0.488093,1.059667,0.852593,0.011701,-0.083028,-0.069979,-0.035104,0.269473,-0.127144
-0.263437,-0.259622,-0.187052,0.059192,0.000499,-0.027175,0.255207,0.065052,0.451576,0.433719,0.441214,-0.631805,0.356840,-0.209538,-0.293289,0.187256,-0.401265,0.049159,0.026527,-0.797122,0.491858,1.085082,0.877677,0.016627,-0.077229,-0.062371,-0.036405,0.258990,-0.127066
-0.253525,-0.253485,-0.180479,0.064740,0.004887,-0.019528,0.253849,0.057681,0.446853,0.427429,0.444443,-0.591588,0.341131,-0.208028,-0.289212,0.178668,-0.393257,0.042659,0.019591,-0.778473,0.499228,1.110245,0.908026,0.020975,-0.071268,-0.055093,-0.036391,0.250046,-0.127608
-0.237888,-0.244096,-0.168683,0.068205,0.008520,-0.015892,0.255441,0.053809,0.439503,0.411498,0.440479,-0.544039,0.315382,-0.203704,-0.285730,0.172263,-0.383444,0.034153,0.011689,-0.755989,0.513807,1.134905,0.948909,0.024166,-0.064981,-0.048475,-0.033749,0.244181,-0.129471
-0.222466,-0.232299,-0.158042,0.071808,0.013892,-0.012095,0.254529,0.050986,0.428286,0.390016,0.427242,-0.494458,0.281792,-0.197070,-0.280192,0.168835,-0.368711,0.023379,0.003266,-0.736661,0.527382,1.161184,0.995821,0.021115,-0.058453,-0.042229,-0.026738,0.238359,-0.131653
-0.207151,-0.219299,-0.147978,0.075478,0.020135,-0.008216,0.252366,0.048688,0.415137,0.365759,0.409369,-0.443861,0.244284,-0.189281,-0.273625,0.166895,-0.351519,0.011471,-0.005415,-0.718911,0.540454,1.188271,1.045746,0.014943,-0.051803,-0.036170,-0.017544,0.232558,-0.133995
-0.192595,-0.204756,-0.140708,0.079981,0.026675,-0.002425,0.248209,0.045209,0.401254,0.342786,0.388151,-0.397010,0.212200,-0.184379,-0.265475,0.168159,-0.337711,-0.001371,-0.011872,-0.706916,0.540454,1.217040,1.081499,-0.000742,-0.044632,-0.030457,-0.007581,0.224177,-0.137902
-0.176812,-0.189457,-0.134023,0.083921,0.032492,0.003080,0.244555,0.041716,0.388299,0.320214,0.368187,-0.351487,0.181576,-0.179763,-0.257748,0.170472,-0.325048,-0.013578,-0.017807,-0.697201,0.539127,1.244036,1.113321,-0.015018,-0.033828,-0.023362,-0.000096,0.214633,-0.143505
-0.158575,-0.172644,-0.128505,0.086735,0.036863,0.008013,0.241906,0.038194,0.377200,0.298441,0.350727,-0.308617,0.153874,-0.175721,-0.250866,0.174883,-0.314674,-0.024515,-0.022700,-0.692046,0.534762,1.267488,1.137280,-0.026474,-0.015757,-0.013503,0.002433,0.202762,-0.152503
-0.143138,-0.158049,-0.124593,0.088799,0.040002,0.012209,0.240553,0.034820,0.366347,0.280707,0.336712,-0.267952,0.128892,-0.171499,-0.245895,0.181901,-0.305903,-0.032910,-0.027852,-0.687383,0.527977,1.284695,1.150868,-0.031921,0.012663,-0.000398,-0.001238,0.189332,-0.165113
-0.129103,-0.144563,-0.121387,0.090489,0.043501,0.016035,0.239495,0.031521,0.355618,0.264993,0.324421,-0.228394,0.105273,-0.167187,-0.241881,0.190222,-0.297934,-0.040034,-0.033133,-0.682966,0.519983,1.298778,1.159270,-0.034364,0.046256,0.014329,-0.008008,0.175125,-0.179529
-0.120734,-0.133956,-0.121387,0.092061,0.043501,0.020294,0.239495,0.025886,0.345647,0.257201,0.316335,-0.192107,0.087362,-0.163737,-0.239100,0.200764,-0.292231,-0.045193,-0.038116,-0.676787,0.507836,1.303564,1.151336,-0.031965,0.083827,0.029116,-0.021286,0.160735,-0.196954
-0.112330,-0.121719,-0.122165,0.094015,0.044969,0.024821,0.237768,0.019121,0.336843,0.251097,0.307480,-0.156832,0.071247,-0.160909,-0.236507,0.211527,-0.287003,-0.050664,-0.042641,-0.669927,0.495057,1.305850,1.139966,-0.029300,0.117802,0.042709,-0.035395,0.147382,-0.213789
-0.103855,-0.106220,-0.124792,0.096733,0.046443,0.029885,0.234353,0.010095,0.330371,0.248366,0.297083,-0.123578,0.058723,-0.160909,-0.234287,0.222735,-0.282726,-0.056761,-0.046251,-0.661706,0.481015,1.303138,1.121719,-0.026102,0.144584,0.053917,-0.051165,0.136105,-0.229443
-0.094521,-0.088886,-0.125414,0.099093,0.047561,0.034924,0.230728,0.001062,0.325836,0.247711,0.286556,-0.094283,0.047398,-0.160389,-0.232868,0.232079,-0.278716,-0.062765,-0.049113,-0.652591,0.470434,1.297966,1.104149,-0.024602,0.159497,0.060760,-0.063410,0.129145,-0.239927
-0.084758,-0.070634,-0.125161,0.102303,0.049052,0.039949,0.226999,-0.007976,0.322270,0.248603,0.275962,-0.066969,0.036672,-0.159461,-0.231617,0.240489,-0.274840,-0.068723,-0.051599,-0.643030,0.461583,1.291566,1.086916,-0.024938,0.168473,0.065419,-0.073892,0.124344,-0.247826
-0.076157,-0.052736,-0.122398,0.102303,0.049052,0.044627,0.220693,-0.015701,0.317726,0.248603,0.265021,-0.043611,0.026746,-0.159461,-0.231617,0.248777,-0.271239,-0.073047,-0.054235,-0.635479,0.460086,1.280312,1.072883,-0.024938,0.171316,0.067175,-0.082020,0.122486,-0.253825
-0.067990,-0.035957,-0.118336,0.103794,0.050535,0.049097,0.215145,-0.022636,0.312830,0.250135,0.255197,-0.022220,0.016178,-0.158190,-0.231046,0.256279,-0.267925,-0.076685,-0.056804,-0.627555,0.461398,1.268533,1.061047,-0.026124,0.172089,0.067613,-0.088326,0.121703,-0.258986
-0.060692,-0.021416,-0.111675,0.103794,0.050535,0.053149,0.211112,-0.027988,0.307229,0.250135,0.247607,-0.004759,0.004322,-0.158190,-0.231046,0.262211,-0.265186,-0.078952,-0.059241,-0.618884,0.468327,1.255703,1.053599,-0.027369,0.168724,0.067613,-0.090989,0.121703,-0.262470
-0.054014,-0.009050,-0.103702,0.105180,0.052069,0.056830,0.208223,-0.032416,0.301902,0.252016,0.242524,0.009009,-0.009167,-0.158288,-0.231949,0.266607,-0.262348,-0.080583,-0.061457,-0.610319,0.478749,1.243074,1.050259,-0.029417,0.161857,0.064553,-0.091005,0.123300,-0.264177
-0.047646,0.002229,-0.095073,0.105180,0.052069,0.060324,0.205906,-0.036381,0.296711,0.253493,0.238696,0.020931,-0.023471,-0.158288,-0.231949,0.270236,-0.259460,-0.081895,-0.063562,-0.601809,0.490919,1.230545,1.050259,-0.031867,0.153238,0.061063,-0.089697,0.125013,-0.264177
-0.041231,0.012641,-0.086137,0.108443,0.054644,0.063707,0.205576,-0.040118,0.291639,0.255521,0.235211,0.029008,-0.039018,-0.160222,-0.232191,0.270801,-0.255352,-0.083538,-0.065350,-0.592784,0.502404,1.220153,1.053660,-0.036604,0.140668,0.055474,-0.086470,0.127359,-0.262089
-0.034335,0.023885,-0.077341,0.111033,0.056604,0.066975,0.205246,-0.043640,0.286806,0.257364,0.230222,0.035798,-0.055139,-0.162154,-0.231081,0.270919,-0.250862,-0.085466,-0.067266,-0.584558,0.514742,1.210996,1.059835,-0.041631,0.127474,0.049409,-0.082648,0.129810,-0.258905
