Lukebird17/AI3618-SONIC/reference/reference/example/walking_quip_360_R_002__A428/joint_pos.csv
joint_0,joint_1,joint_2,joint_3,joint_4,joint_5,joint_6,joint_7,joint_8,joint_9,joint_10,joint_11,joint_12,joint_13,joint_14,joint_15,joint_16,joint_17,joint_18,joint_19,joint_20,joint_21,joint_22,joint_23,joint_24,joint_25,joint_26,joint_27,joint_28
0.023980,0.011114,-0.064733,0.014556,-0.052787,0.003075,0.144436,-0.287471,0.163664,0.158972,0.224041,-0.094461,-0.184835,-0.148155,-0.236363,0.261398,-0.155024,0.026216,0.043125,-0.720180,0.523527,0.964596,1.176074,0.100885,-0.037810,0.590095,0.012106,-0.053232,0.057681
0.023980,0.009838,-0.064733,0.014556,-0.052787,0.003075,0.144436,-0.287471,0.163664,0.158972,0.225635,-0.099380,-0.189229,-0.148155,-0.235156,0.256949,-0.152023,0.026216,0.044954,-0.720180,0.525090,0.970595,1.182544,0.100885,-0.037810,0.613276,0.010181,-0.058846,0.053372
0.022749,0.008988,-0.064170,0.014337,-0.052693,0.002947,0.143856,-0.287150,0.164177,0.159253,0.226044,-0.103173,-0.192599,-0.146574,-0.234869,0.253545,-0.150023,0.025553,0.045231,-0.720351,0.526771,0.975020,1.187574,0.101209,-0.038154,0.633615,0.008428,-0.063902,0.048952
0.022749,0.008988,-0.064170,0.014337,-0.052693,0.002947,0.143856,-0.287150,0.164177,0.159253,0.226044,-0.104716,-0.192599,-0.143489,-0.234869,0.252233,-0.150023,0.025553,0.045231,-0.720351,0.526771,0.976296,1.187574,0.101209,-0.038154,0.648269,0.007016,-0.067842,0.044308
0.022875,0.008236,-0.063966,0.013413,-0.053246,0.002567,0.143206,-0.287684,0.164003,0.157521,0.224991,-0.105818,-0.192713,-0.143293,-0.236171,0.251238,-0.150833,0.026060,0.044139,-0.720339,0.527411,0.976721,1.188291,0.101849,-0.038317,0.659642,0.005781,-0.071058,0.040790
0.022875,0.008236,-0.063966,0.013413,-0.053246,0.002567,0.143206,-0.287684,0.164003,0.154570,0.224991,-0.105818,-0.192713,-0.144542,-0.236171,0.251238,-0.150833,0.026060,0.044139,-0.720339,0.527411,0.976721,1.188291,0.101849,-0.038317,0.669376,0.005781,-0.073910,0.037834
0.024238,0.007897,-0.064887,0.012956,-0.053095,0.002384,0.142477,-0.287484,0.163802,0.152403,0.224964,-0.106405,-0.192388,-0.147406,-0.238212,0.250201,-0.152038,0.026521,0.044525,-0.721096,0.526849,0.976893,1.187901,0.102051,-0.038620,0.675923,0.004388,-0.075627,0.036079
0.024389,0.006850,-0.066307,0.012645,-0.053491,0.002344,0.142235,-0.288501,0.163370,0.151484,0.225336,-0.107030,-0.191776,-0.148648,-0.239051,0.249361,-0.152864,0.025916,0.044475,-0.721166,0.525899,0.976492,1.188011,0.101596,-0.038899,0.681699,0.003180,-0.077202,0.034138
0.022876,0.006850,-0.066307,0.012645,-0.053491,0.002344,0.142235,-0.288501,0.163370,0.151484,0.225336,-0.107030,-0.191776,-0.146646,-0.239051,0.249361,-0.152864,0.025916,0.044475,-0.721166,0.525899,0.976492,1.188011,0.101596,-0.038899,0.685934,0.003180,-0.078491,0.034138
0.021511,0.006278,-0.067036,0.012415,-0.054146,0.001934,0.142064,-0.289589,0.162810,0.152887,0.224558,-0.107715,-0.191386,-0.143278,-0.238229,0.248569,-0.153498,0.025412,0.044178,-0.720271,0.524570,0.976303,1.188085,0.099045,-0.039016,0.688990,0.002152,-0.079945,0.033368
0.020220,0.006278,-0.067036,0.012415,-0.054146,0.001934,0.142064,-0.289589,0.162810,0.154204,0.224558,-0.107715,-0.191386,-0.139228,-0.238229,0.248569,-0.153498,0.025412,0.044178,-0.720271,0.524570,0.976303,1.188085,0.096629,-0.039016,0.691456,0.002152,-0.081481,0.033368
0.020220,0.005952,-0.067353,0.012427,-0.054157,0.001960,0.141939,-0.290332,0.163139,0.154204,0.224373,-0.108753,-0.191228,-0.141762,-0.237580,0.247535,-0.153750,0.026129,0.044779,-0.720022,0.524179,0.975579,1.188229,0.095194,-0.038742,0.693616,0.001373,-0.082037,0.033228
0.019522,0.005389,-0.067145,0.012929,-0.053820,0.002798,0.141414,-0.290684,0.163896,0.155134,0.224999,-0.109352,-0.191683,-0.144137,-0.238243,0.246931,-0.153440,0.025960,0.044849,-0.719803,0.524730,0.975378,1.188731,0.094577,-0.038526,0.695683,0.001043,-0.082594,0.033074
0.019522,0.005389,-0.067145,0.012929,-0.053820,0.002798,0.141414,-0.290684,0.163896,0.155134,0.224999,-0.109352,-0.191683,-0.146191,-0.238243,0.246931,-0.153440,0.024387,0.044849,-0.719803,0.524730,0.975378,1.188731,0.094577,-0.038526,0.697563,0.001043,-0.082594,0.033074
0.019370,0.006089,-0.066372,0.012492,-0.053788,0.003126,0.140689,-0.290052,0.164751,0.156671,0.225370,-0.108904,-0.191934,-0.147252,-0.238920,0.245910,-0.152852,0.023589,0.044906,-0.720046,0.525031,0.976897,1.188809,0.095498,-0.038935,0.698694,0.000760,-0.082505,0.032663
0.019370,0.006089,-0.066372,0.012492,-0.053788,0.003126,0.140689,-0.290052,0.164751,0.157941,0.225370,-0.108904,-0.191934,-0.147252,-0.238920,0.245910,-0.152852,0.023589,0.044906,-0.720046,0.525031,0.976897,1.188809,0.095498,-0.038935,0.698694,0.000760,-0.082505,0.032663
0.019150,0.006357,-0.065336,0.012738,-0.053755,0.003583,0.141183,-0.289629,0.165756,0.158819,0.225565,-0.108867,-0.192222,-0.147628,-0.238427,0.245343,-0.151775,0.025249,0.044363,-0.720113,0.526286,0.977800,1.188543,0.096931,-0.039170,0.699721,0.001318,-0.082068,0.032386
0.019328,0.006159,-0.064810,0.013079,-0.054104,0.003850,0.142117,-0.289915,0.166521,0.160310,0.226638,-0.108097,-0.193186,-0.147190,-0.237567,0.245316,-0.150389,0.026538,0.043519,-0.720800,0.526984,0.977469,1.188953,0.097783,-0.039500,0.700598,0.001520,-0.082182,0.032001
0.019328,0.006159,-0.064810,0.013079,-0.054104,0.003850,0.142117,-0.289915,0.166521,0.160310,0.226638,-0.108097,-0.193186,-0.147190,-0.237567,0.245316,-0.150389,0.026538,0.043519,-0.720800,0.526984,0.977469,1.188953,0.097783,-0.039500,0.700598,0.001520,-0.082182,0.032001
0.018674,0.005844,-0.065207,0.013355,-0.054331,0.004333,0.142531,-0.289967,0.166460,0.160923,0.227166,-0.106398,-0.193306,-0.147629,-0.237275,0.246232,-0.149019,0.026466,0.043577,-0.720230,0.525316,0.976712,1.189083,0.097605,-0.040055,0.700952,0.001361,-0.082740,0.032573
0.018674,0.005844,-0.065207,0.013355,-0.054331,0.004333,0.142531,-0.289967,0.166460,0.160923,0.227166,-0.105010,-0.193306,-0.147629,-0.237275,0.246232,-0.149019,0.026466,0.043577,-0.720230,0.525316,0.976712,1.189083,0.097605,-0.040055,0.700952,0.001361,-0.082740,0.032573
0.019511,0.005407,-0.065062,0.013402,-0.053947,0.004649,0.142304,-0.289227,0.166261,0.159039,0.227346,-0.104388,-0.192872,-0.147634,-0.236537,0.247231,-0.147831,0.026323,0.044056,-0.720071,0.524473,0.976727,1.188674,0.099985,-0.040216,0.701573,0.001072,-0.082744,0.033366
0.020203,0.005534,-0.064790,0.012892,-0.054150,0.004872,0.142100,-0.288736,0.166115,0.157449,0.227345,-0.103443,-0.192659,-0.147246,-0.236472,0.247644,-0.147346,0.026558,0.044149,-0.720066,0.524207,0.977391,1.188512,0.102353,-0.040246,0.701986,0.000557,-0.082887,0.033877
0.020203,0.005534,-0.064790,0.012892,-0.054150,0.004872,0.142100,-0.288736,0.166115,0.157449,0.227345,-0.103443,-0.192659,-0.147246,-0.236472,0.247644,-0.147346,0.026558,0.044149,-0.720066,0.524207,0.977391,1.188512,0.102353,-0.040246,0.701986,0.000557,-0.082887,0.033877
0.020684,0.004928,-0.064566,0.012542,-0.054422,0.005198,0.141983,-0.288909,0.165982,0.156785,0.227614,-0.102925,-0.192395,-0.147605,-0.237090,0.248735,-0.146930,0.026069,0.043754,-0.719945,0.524316,0.977298,1.188631,0.102477,-0.039998,0.702144,0.000278,-0.083693,0.034213
0.020684,0.004928,-0.064566,0.012542,-0.054422,0.005198,0.141983,-0.288909,0.165982,0.156785,0.227614,-0.102925,-0.192395,-0.147605,-0.237090,0.248735,-0.146930,0.026069,0.043754,-0.719945,0.524316,0.977298,1.188631,0.102477,-0.039998,0.702144,0.000278,-0.083693,0.034213
0.020064,0.004483,-0.064760,0.012270,-0.054914,0.005243,0.141969,-0.289069,0.165917,0.156482,0.228190,-0.102729,-0.192020,-0.147370,-0.237239,0.249689,-0.147003,0.026886,0.043911,-0.720225,0.524342,0.977279,1.188793,0.104532,-0.040463,0.702773,0.000271,-0.083669,0.034374
0.020224,0.004695,-0.064356,0.011560,-0.055765,0.005062,0.142077,-0.289046,0.166176,0.156964,0.228432,-0.102695,-0.191492,-0.146785,-0.237162,0.250192,-0.147648,0.027803,0.044763,-0.720801,0.524712,0.977949,1.189253,0.108496,-0.040672,0.703247,0.000449,-0.082664,0.033705
0.020224,0.004695,-0.064356,0.011560,-0.055765,0.005062,0.142077,-0.289046,0.166176,0.156964,0.228432,-0.102695,-0.191492,-0.146785,-0.237162,0.250192,-0.147648,0.027803,0.044763,-0.720801,0.524712,0.977949,1.189253,0.115513,-0.040672,0.703247,0.000449,-0.081013,0.033705
0.020066,0.004546,-0.064951,0.011101,-0.056153,0.005018,0.141764,-0.289361,0.165989,0.156829,0.228596,-0.102364,-0.191189,-0.147050,-0.237235,0.250365,-0.148757,0.027582,0.044946,-0.720599,0.525270,0.977653,1.189554,0.122031,-0.040857,0.704028,0.000452,-0.080463,0.033276
0.020066,0.004546,-0.064951,0.011101,-0.056153,0.005018,0.141764,-0.289361,0.165989,0.156829,0.228596,-0.102364,-0.191189,-0.147050,-0.237235,0.250365,-0.148757,0.027582,0.044946,-0.720599,0.525270,0.977653,1.189554,0.128300,-0.040857,0.704028,0.000452,-0.080463,0.033276
0.019982,0.004638,-0.065125,0.010652,-0.056483,0.005492,0.141093,-0.289549,0.165634,0.156845,0.228272,-0.101993,-0.191254,-0.147304,-0.237953,0.250453,-0.149979,0.027874,0.044782,-0.719695,0.524791,0.977049,1.190250,0.130671,-0.041465,0.703948,0.000130,-0.081543,0.033319
0.020149,0.004846,-0.064770,0.010323,-0.056885,0.005166,0.141049,-0.289756,0.165719,0.156475,0.227891,-0.102886,-0.191947,-0.148047,-0.238441,0.250097,-0.151149,0.027806,0.045401,-0.719562,0.525283,0.977697,1.190081,0.132750,-0.041868,0.702526,0.000396,-0.082915,0.033310
0.020149,0.004846,-0.064770,0.010323,-0.056885,0.005166,0.141049,-0.289756,0.165719,0.156475,0.227891,-0.102886,-0.191947,-0.148047,-0.238441,0.250097,-0.151149,0.026122,0.045401,-0.719562,0.525283,0.977697,1.190081,0.134244,-0.041868,0.702526,0.000396,-0.084250,0.033310
0.019660,0.005342,-0.065517,0.009857,-0.056974,0.004948,0.140421,-0.290707,0.165990,0.156917,0.228278,-0.103757,-0.192328,-0.149536,-0.239068,0.249511,-0.152181,0.026103,0.045875,-0.718743,0.524322,0.978305,1.188725,0.135684,-0.042060,0.701572,0.001042,-0.085590,0.033068
0.019660,0.005342,-0.065517,0.009857,-0.056974,0.004948,0.140421,-0.290707,0.165990,0.156917,0.228278,-0.103757,-0.192328,-0.149536,-0.239068,0.249511,-0.152181,0.026103,0.045875,-0.718743,0.524322,0.978305,1.188725,0.135684,-0.042060,0.701572,0.001042,-0.086933,0.033068
0.018303,0.005172,-0.067251,0.009903,-0.057463,0.004557,0.139508,-0.291612,0.165553,0.158563,0.227459,-0.104084,-0.192524,-0.149482,-0.239221,0.249299,-0.152594,0.027312,0.045679,-0.720683,0.524051,0.978341,1.187925,0.140797,-0.042464,0.701175,0.001363,-0.086933,0.032877
0.017870,0.005502,-0.068049,0.009499,-0.057602,0.003867,0.138394,-0.291570,0.165668,0.158813,0.227467,-0.104741,-0.193233,-0.149657,-0.238680,0.248665,-0.152792,0.027027,0.045810,-0.721464,0.523741,0.978612,1.188051,0.145378,-0.041784,0.701134,0.001477,-0.086649,0.031922
0.017870,0.005502,-0.068049,0.009499,-0.057602,0.003867,0.138394,-0.291570,0.165668,0.158813,0.227467,-0.104741,-0.193233,-0.149657,-0.238680,0.248665,-0.152792,0.027027,0.045810,-0.721464,0.523741,0.978612,1.188051,0.150782,-0.041784,0.701134,0.001477,-0.086649,0.031922
0.018219,0.004874,-0.067370,0.009547,-0.057357,0.004026,0.138956,-0.290740,0.164895,0.158828,0.227936,-0.105029,-0.193359,-0.150522,-0.238348,0.247448,-0.152920,0.026773,0.046401,-0.720288,0.523311,0.979062,1.187776,0.153419,-0.041278,0.700321,0.001252,-0.088041,0.031147
0.018219,0.004874,-0.067370,0.009547,-0.057357,0.004026,0.140914,-0.290740,0.164895,0.158828,0.227936,-0.105029,-0.193359,-0.150522,-0.238348,0.247448,-0.152920,0.026773,0.046401,-0.720288,0.523311,0.979062,1.187776,0.154672,-0.041278,0.700321,0.001252,-0.090091,0.031147
0.018176,0.005142,-0.067489,0.009708,-0.057444,0.004423,0.141584,-0.289768,0.164643,0.159672,0.227346,-0.104619,-0.193735,-0.150642,-0.239139,0.245996,-0.152721,0.027967,0.046789,-0.717155,0.523483,0.978996,1.187831,0.151781,-0.041175,0.699361,0.001157,-0.092865,0.030603
0.019028,0.005597,-0.067485,0.009219,-0.057592,0.004205,0.141725,-0.289125,0.164893,0.159509,0.226911,-0.104815,-0.194224,-0.150661,-0.239470,0.245262,-0.152011,0.028463,0.047177,-0.715560,0.522549,0.978512,1.188293,0.147841,-0.040376,0.698938,0.001162,-0.095664,0.030233
0.019028,0.005597,-0.066226,0.009219,-0.057592,0.004205,0.141725,-0.289125,0.164893,0.158170,0.226911,-0.104815,-0.194224,-0.150661,-0.239470,0.245262,-0.152011,0.028463,0.047177,-0.715560,0.522549,0.978512,1.188293,0.141803,-0.040376,0.698938,0.001162,-0.098510,0.030233
0.020151,0.005599,-0.065949,0.008803,-0.057887,0.003340,0.141597,-0.288831,0.164649,0.156878,0.226524,-0.105386,-0.194368,-0.150524,-0.239571,0.244541,-0.151533,0.029556,0.047459,-0.715795,0.519800,0.978581,1.187599,0.136731,-0.040055,0.698996,0.000980,-0.100164,0.031056
0.020932,0.005163,-0.066091,0.008377,-0.057813,0.003544,0.141997,-0.287652,0.164398,0.154639,0.226738,-0.105463,-0.194745,-0.149857,-0.239660,0.243655,-0.150919,0.030687,0.047677,-0.714599,0.516085,0.979383,1.187577,0.132142,-0.040569,0.699628,0.001189,-0.100869,0.032454
0.020932,0.005163,-0.066091,0.008377,-0.057813,0.003544,0.141997,-0.287652,0.164398,0.154639,0.226738,-0.105463,-0.194745,-0.149857,-0.237643,0.243655,-0.150919,0.030687,0.050803,-0.714599,0.516085,0.979383,1.187577,0.129226,-0.040569,0.699628,0.001189,-0.100869,0.034906
0.020927,0.004604,-0.065727,0.007609,-0.058167,0.003571,0.141500,-0.286771,0.164306,0.153669,0.226948,-0.105788,-0.195678,-0.149525,-0.236964,0.243108,-0.150109,0.030125,0.052065,-0.713891,0.516152,0.979829,1.188497,0.126846,-0.041077,0.699915,0.001751,-0.099862,0.037040
0.020927,0.004604,-0.065727,0.007609,-0.058167,0.003571,0.141500,-0.286771,0.164306,0.153669,0.225642,-0.105788,-0.195678,-0.149525,-0.238961,0.243108,-0.150109,0.030125,0.049599,-0.713891,0.517527,0.979829,1.188497,0.125538,-0.041077,0.699915,0.001751,-0.099862,0.037040
0.020682,0.004433,-0.064989,0.006869,-0.058962,0.003113,0.142715,-0.287215,0.165191,0.153742,0.224517,-0.106311,-0.196406,-0.149779,-0.239324,0.242904,-0.149685,0.030145,0.048414,-0.712859,0.517857,0.979737,1.188520,0.124417,-0.041156,0.699801,0.002217,-0.098576,0.037540
0.020682,0.004433,-0.064989,0.006869,-0.058962,0.003113,0.144041,-0.287215,0.165191,0.153742,0.224517,-0.106311,-0.196406,-0.149779,-0.239324,0.242904,-0.149685,0.030145,0.048414,-0.712859,0.517857,0.979737,1.188520,0.124417,-0.041156,0.699801,0.002217,-0.098576,0.037540
0.020584,0.004210,-0.063044,0.006571,-0.059362,0.002376,0.144237,-0.286364,0.166345,0.151942,0.223228,-0.106808,-0.197196,-0.147115,-0.238424,0.242930,-0.148963,0.030819,0.049317,-0.712525,0.519751,0.979225,1.188144,0.124369,-0.041884,0.699755,0.002403,-0.096689,0.037328
0.021516,0.003142,-0.061083,0.005255,-0.060205,0.001351,0.144841,-0.285002,0.166953,0.148440,0.223145,-0.106668,-0.198714,-0.144640,-0.238298,0.243730,-0.148426,0.032080,0.050864,-0.712139,0.520423,0.978637,1.189014,0.125493,-0.042218,0.699833,0.002209,-0.095248,0.036116
0.022890,0.001348,-0.061083,0.003658,-0.061501,-0.000088,0.146064,-0.285002,0.166953,0.142671,0.223145,-0.106668,-0.198714,-0.144640,-0.238298,0.243730,-0.148426,0.033770,0.050864,-0.710428,0.520423,0.977441,1.189014,0.126951,-0.042218,0.699833,0.002209,-0.095248,0.034268
0.022156,-0.000907,-0.061186,0.001007,-0.063864,-0.001968,0.144999,-0.285080,0.166366,0.139837,0.224505,-0.105445,-0.200346,-0.143460,-0.240109,0.244998,-0.148442,0.036190,0.052202,-0.709858,0.518698,0.975433,1.189086,0.126530,-0.042445,0.701103,0.002027,-0.094909,0.032993
0.020367,-0.003394,-0.062051,-0.002173,-0.066761,-0.005053,0.142792,-0.285697,0.166255,0.138471,0.225348,-0.104723,-0.201714,-0.142725,-0.242120,0.246325,-0.148728,0.038975,0.052837,-0.710348,0.517124,0.972625,1.188205,0.125624,-0.043110,0.702711,0.001943,-0.095195,0.031578
0.012489,-0.008023,-0.064874,-0.005183,-0.070388,-0.005053,0.137487,-0.290008,0.166255,0.144526,0.228746,-0.106448,-0.201714,-0.146632,-0.243538,0.246325,-0.150273,0.041491,0.055789,-0.710348,0.513764,0.972625,1.188205,0.122999,-0.043110,0.702711,0.001943,-0.095195,0.031578
0.004008,-0.012452,-0.067334,-0.007856,-0.073940,-0.006038,0.132618,-0.294308,0.167206,0.152468,0.232274,-0.108945,-0.202978,-0.152722,-0.245382,0.246332,-0.152210,0.044296,0.058590,-0.711834,0.511016,0.972840,1.187607,0.120589,-0.044302,0.703949,0.002383,-0.094875,0.030418
-0.005678,-0.016482,-0.069066,-0.009851,-0.077342,-0.006038,0.128620,-0.298586,0.169536,0.164184,0.236065,-0.112986,-0.202978,-0.163180,-0.248078,0.245108,-0.154931,0.047680,0.061091,-0.711834,0.509489,0.974669,1.187607,0.118607,-0.044302,0.703949,0.002383,-0.094875,0.029208
-0.016194,-0.019996,-0.069856,-0.013230,-0.082146,-0.007224,0.123821,-0.303453,0.171770,0.177653,0.239713,-0.117995,-0.202623,-0.167964,-0.250411,0.243211,-0.158880,0.051399,0.063692,-0.714498,0.508980,0.976661,1.187131,0.118471,-0.045765,0.704314,0.003211,-0.093491,0.027806
-0.027126,-0.023251,-0.069531,-0.017300,-0.087651,-0.009313,0.118623,-0.308614,0.173957,0.192000,0.243290,-0.123488,-0.201139,-0.169911,-0.253485,0.240976,-0.163443,0.055285,0.066343,-0.718167,0.510128,0.978736,1.186804,0.119893,-0.046470,0.703768,0.004186,-0.091463,0.025401
-0.034215,-0.025986,-0.069531,-0.020231,-0.092518,-0.009313,0.117194,-0.310731,0.178625,0.203906,0.250596,-0.128844,-0.198942,-0.172535,-0.253485,0.237939,-0.169742,0.058074,0.070916,-0.718167,0.510128,0.980041,1.184950,0.119893,-0.046470,0.703768,0.004186,-0.091463,0.025401
-0.040873,-0.029716,-0.069603,-0.023634,-0.097802,-0.009868,0.114966,-0.312607,0.183017,0.214565,0.259614,-0.133699,-0.196184,-0.176029,-0.255138,0.234735,-0.176336,0.060913,0.075640,-0.718411,0.509212,0.981307,1.183034,0.120790,-0.047077,0.702761,0.004643,-0.090280,0.023944
-0.046668,-0.035437,-0.069603,-0.027978,-0.103917,-0.009868,0.111139,-0.313999,0.186858,0.222730,0.272060,-0.137554,-0.192306,-0.181266,-0.257332,0.231198,-0.183522,0.063854,0.080667,-0.716542,0.504668,0.981307,1.180994,0.120790,-0.047077,0.702761,0.004643,-0.090280,0.023944
-0.051706,-0.044073,-0.071249,-0.034019,-0.112720,-0.010760,0.109075,-0.314463,0.189606,0.228833,0.288695,-0.139941,-0.186664,-0.185044,-0.262702,0.227490,-0.191272,0.067711,0.084889,-0.712831,0.493201,0.980803,1.177595,0.120341,-0.046738,0.701823,0.004768,-0.089870,0.022808
-0.056366,-0.054166,-0.072799,-0.040908,-0.122866,-0.012369,0.109075,-0.314463,0.191808,0.233905,0.307425,-0.141595,-0.180140,-0.188092,-0.269659,0.223697,-0.199304,0.072026,0.088709,-0.708200,0.478272,0.979453,1.173516,0.120341,-0.046738,0.701823,0.004768,-0.089870,0.022808
-0.056366,-0.070748,-0.073636,-0.048282,-0.135035,-0.014155,0.108846,-0.311113,0.194348,0.231414,0.339199,-0.139809,-0.173097,-0.188868,-0.277815,0.222137,-0.208582,0.078321,0.095059,-0.700944,0.456872,0.976474,1.167995,0.119812,-0.042542,0.701569,0.003496,-0.089185,0.022225
-0.054060,-0.089635,-0.074871,-0.055797,-0.147436,-0.016594,0.110727,-0.305259,0.197498,0.226785,0.376432,-0.137005,-0.166722,-0.189989,-0.286445,0.221633,-0.217840,0.083703,0.101085,-0.693312,0.436539,0.973119,1.163165,0.119071,-0.038221,0.704049,0.002145,-0.089503,0.023687
-0.048039,-0.113130,-0.074871,-0.063594,-0.160302,-0.020341,0.114690,-0.294109,0.201871,0.217877,0.424584,-0.132164,-0.161682,-0.189989,-0.296022,0.223241,-0.227057,0.087260,0.106462,-0.684926,0.418339,0.969011,1.159715,0.119071,-0.032264,0.711219,0.002145,-0.089503,0.023687
-0.040073,-0.141827,-0.075269,-0.072653,-0.175278,-0.026765,0.121193,-0.279686,0.208202,0.207677,0.484075,-0.124590,-0.158701,-0.187659,-0.306366,0.228578,-0.236070,0.092378,0.112023,-0.676817,0.405386,0.962787,1.157433,0.129305,-0.024772,0.578565,0.000526,-0.069916,0.026583
-0.031134,-0.173124,-0.075269,-0.082342,-0.191310,-0.034527,0.128966,-0.263628,0.215514,0.196831,0.549238,-0.115649,-0.156751,-0.183645,-0.317095,0.235780,-0.244982,0.098278,0.117676,-0.668848,0.395057,0.955505,1.155735,0.145681,-0.016513,0.375999,-0.001105,-0.039475,0.029379
-0.012750,-0.195266,-0.075074,-0.090096,-0.204180,-0.042168,0.136918,-0.250696,0.228325,0.181958,0.608377,-0.106426,-0.155041,-0.182715,-0.318309,0.242787,-0.252621,0.102488,0.114987,-0.657367,0.390702,0.950902,1.154807,0.140934,-0.015067,0.258798,-0.001657,-0.028393,0.029379
0.005875,-0.219533,-0.075262,-0.097555,-0.217174,-0.049388,0.144405,-0.239725,0.240994,0.166118,0.670861,-0.097447,-0.153042,-0.181561,-0.315639,0.250906,-0.259931,0.106230,0.105640,-0.647002,0.387172,0.946184,1.153363,0.128229,-0.013517,0.173303,-0.002611,-0.023131,0.028437
0.024983,-0.248051,-0.076830,-0.104428,-0.230418,-0.055765,0.150962,-0.232679,0.253380,0.148346,0.740034,-0.088957,-0.153042,-0.181561,-0.305200,0.261251,-0.266581,0.109035,0.082981,-0.638867,0.385293,0.941234,1.153363,0.099612,-0.011758,0.151220,-0.002611,-0.029511,0.027057
0.039980,-0.279447,-0.080688,-0.107101,-0.242119,-0.057196,0.155780,-0.234008,0.262999,0.134962,0.808953,-0.083092,-0.149971,-0.181336,-0.281976,0.271753,-0.272235,0.111525,0.052619,-0.634853,0.383149,0.942260,1.153385,0.071976,-0.010397,0.136774,-0.003837,-0.032803,0.026445
0.052921,-0.312282,-0.085691,-0.107101,-0.253049,-0.057196,0.159728,-0.239526,0.271236,0.123773,0.877746,-0.078540,-0.146651,-0.181336,-0.252361,0.282333,-0.277391,0.113858,0.018404,-0.632901,0.380871,0.946274,1.153385,0.044831,-0.010397,0.126146,-0.005072,-0.034552,0.026445
0.056808,-0.338062,-0.094846,-0.103281,-0.256662,-0.050670,0.160487,-0.254132,0.274768,0.122508,0.918643,-0.078127,-0.139100,-0.183935,-0.241465,0.289487,-0.280589,0.115975,-0.008696,-0.631420,0.379338,0.960582,1.153689,0.032016,-0.009623,0.123433,-0.006429,-0.033197,0.025833
0.057960,-0.363470,-0.102792,-0.097563,-0.254247,-0.044455,0.161762,-0.265927,0.276598,0.124215,0.950126,-0.077715,-0.129725,-0.189215,-0.234201,0.295592,-0.283153,0.116482,-0.027008,-0.629254,0.377065,0.975837,1.152533,0.023067,-0.009183,0.122031,-0.007333,-0.031647,0.024697
0.053641,-0.388137,-0.108318,-0.088813,-0.239779,-0.037471,0.163309,-0.272099,0.276598,0.131867,0.962781,-0.077715,-0.116703,-0.199040,-0.234201,0.299597,-0.284450,0.116482,-0.027008,-0.625721,0.373310,0.992985,1.149765,0.023067,-0.009183,0.123250,-0.007333,-0.029703,0.024697
0.048509,-0.413092,-0.110781,-0.080284,-0.217717,-0.030894,0.164940,-0.270632,0.276072,0.140525,0.958401,-0.077699,-0.103037,-0.207849,-0.227673,0.302951,-0.285531,0.113509,-0.016518,-0.620201,0.371226,1.006207,1.146535,0.024409,-0.007016,0.126402,-0.007011,-0.027456,0.025045
0.042969,-0.438190,-0.110781,-0.071865,-0.191860,-0.024520,0.166612,-0.265346,0.276072,0.149687,0.945502,-0.077699,-0.089049,-0.216150,-0.217978,0.305981,-0.285531,0.110407,-0.000414,-0.613688,0.371226,1.017466,1.143074,0.027031,-0.005153,0.130519,-0.007011,-0.025058,0.026583
0.045141,-0.457088,-0.113362,-0.064815,-0.162501,-0.019462,0.168778,-0.256162,0.280148,0.150606,0.909842,-0.071670,-0.079240,-0.225732,-0.206355,0.311352,-0.284231,0.106628,0.020284,-0.608499,0.370786,1.013834,1.144705,0.023471,-0.005781,0.134649,-0.005680,-0.023346,0.029398
0.047586,-0.473928,-0.116353,-0.058949,-0.135544,-0.015152,0.170946,-0.248419,0.284038,0.151009,0.867185,-0.065829,-0.070437,-0.233196,-0.196517,0.317771,-0.281360,0.103206,0.040322,-0.606221,0.371714,1.007288,1.147564,0.018422,-0.007921,0.138869,-0.004541,-0.021376,0.031737
0.050579,-0.486653,-0.121407,-0.055453,-0.113392,-0.012341,0.170946,-0.243556,0.288093,0.149463,0.810534,-0.059114,-0.063648,-0.236426,-0.190251,0.326286,-0.276649,0.100498,0.059038,-0.609764,0.373322,0.994915,1.152880,0.010394,-0.012457,0.143270,-0.004541,-0.018891,0.033123
0.054219,-0.495868,-0.127849,-0.053954,-0.097515,-0.010692,0.172206,-0.243350,0.291345,0.146511,0.745698,-0.053185,-0.058092,-0.239966,-0.185647,0.334675,-0.270579,0.099595,0.074287,-0.615339,0.372317,0.986278,1.159232,0.005229,-0.017144,0.143669,-0.004168,-0.017526,0.033586
0.058182,-0.503327,-0.134985,-0.053620,-0.084775,-0.009532,0.171770,-0.245472,0.294197,0.142857,0.676771,-0.047647,-0.053152,-0.243661,-0.181874,0.343000,-0.263830,0.099716,0.087802,-0.621929,0.370007,0.979510,1.166101,0.001494,-0.021908,0.142067,-0.003115,-0.017288,0.033278
0.062038,-0.510456,-0.142497,-0.055532,-0.077150,-0.009532,0.171770,-0.249746,0.294197,0.136676,0.606039,-0.045170,-0.048970,-0.249626,-0.176008,0.347544,-0.256404,0.098428,0.092407,-0.630940,0.365322,0.974867,1.171725,0.000115,-0.025924,0.138058,-0.003115,-0.017288,0.034661
0.066270,-0.516340,-0.150147,-0.057782,-0.069086,-0.008544,0.170155,-0.251120,0.293576,0.130940,0.535415,-0.042755,-0.044362,-0.255870,-0.170913,0.351222,-0.249251,0.097570,0.094874,-0.639716,0.360510,0.971098,1.176403,-0.000804,-0.029485,0.134793,-0.001405,-0.017903,0.036520
0.071252,-0.519735,-0.158072,-0.060707,-0.060142,-0.006926,0.170155,-0.246695,0.293576,0.126092,0.465007,-0.042755,-0.038898,-0.262674,-0.167358,0.351222,-0.242644,0.097570,0.093069,-0.648026,0.355447,0.969080,1.176403,-0.000804,-0.032133,0.133019,-0.001405,-0.017903,0.036520
0.076829,-0.519746,-0.167940,-0.061141,-0.049605,-0.003733,0.167908,-0.239528,0.291389,0.123555,0.399040,-0.042694,-0.032955,-0.272196,-0.164486,0.350066,-0.236601,0.094257,0.094517,-0.654632,0.347045,0.969890,1.176301,-0.000355,-0.034293,0.131575,0.000093,-0.018217,0.038589
0.082702,-0.518064,-0.178778,-0.061141,-0.038271,0.000247,0.165503,-0.230990,0.289358,0.123555,0.335295,-0.042694,-0.026771,-0.283077,-0.161956,0.347359,-0.230840,0.089667,0.097590,-0.660385,0.336973,0.972115,1.176301,-0.000355,-0.036210,0.130298,0.000093,-0.018217,0.040286
0.091046,-0.515006,-0.186489,-0.060344,-0.030290,0.004652,0.162509,-0.222939,0.286702,0.123498,0.293155,-0.045859,-0.021120,-0.294553,-0.161956,0.340808,-0.227485,0.083382,0.104789,-0.662753,0.326778,0.976740,1.173582,-0.000909,-0.036210,0.130774,0.000683,-0.016756,0.042932
0.100306,-0.511206,-0.192848,-0.059385,-0.023546,0.009802,0.158628,-0.218465,0.283997,0.125838,0.261263,-0.048697,-0.016081,-0.306454,-0.164020,0.333118,-0.224917,0.078422,0.110699,-0.665305,0.318579,0.981580,1.171995,-0.001419,-0.035902,0.130467,0.001063,-0.015132,0.045186
0.111398,-0.505925,-0.196503,-0.057274,-0.019280,0.016441,0.152973,-0.221147,0.281193,0.130265,0.249871,-0.052285,-0.012264,-0.319203,-0.169955,0.323149,-0.224917,0.076111,0.114032,-0.665305,0.314375,0.986849,1.170609,-0.001419,-0.034451,0.130467,0.001063,-0.013310,0.046655
0.118356,-0.507246,-0.200027,-0.052059,-0.017858,0.025887,0.146158,-0.227726,0.275898,0.139596,0.263617,-0.056127,-0.010992,-0.336899,-0.163855,0.313197,-0.226437,0.069506,0.094180,-0.667340,0.312973,0.988606,1.170148,-0.001059,-0.033606,0.128743,0.002314,-0.010337,0.047754
0.123248,-0.511867,-0.203486,-0.045292,-0.017858,0.036735,0.138763,-0.236254,0.269358,0.151379,0.289933,-0.060097,-0.010992,-0.357070,-0.151737,0.303253,-0.229216,0.060754,0.062735,-0.668935,0.312973,0.988606,1.170148,-0.001059,-0.033606,0.127335,0.002314,-0.006789,0.047754
0.126577,-0.521499,-0.206900,-0.031533,-0.016760,0.052342,0.132434,-0.249500,0.266208,0.169476,0.330480,-0.064687,-0.017559,-0.378156,-0.109812,0.294712,-0.234394,0.051172,0.041184,-0.669686,0.318570,0.985421,1.172783,-0.003916,-0.033557,0.123494,0.003206,-0.003599,0.049882
0.132508,-0.529376,-0.208763,-0.018600,-0.016809,0.066168,0.127333,-0.261093,0.265725,0.190424,0.376136,-0.069002,-0.027037,-0.396952,-0.083870,0.285932,-0.239540,0.042437,0.023071,-0.670404,0.326333,0.981239,1.177691,-0.005483,-0.034688,0.118635,0.003345,0.000057,0.051693
0.143647,-0.533743,-0.208763,-0.007318,-0.018612,0.076432,0.127333,-0.269380,0.270575,0.217076,0.432012,-0.072766,-0.041083,-0.411170,-0.089894,0.276676,-0.244621,0.035397,0.011831,-0.670404,0.338587,0.975918,1.185699,-0.005483,-0.034688,0.111736,0.003345,0.004649,0.051693
0.148744,-0.533499,-0.206606,0.003630,-0.019213,0.083297,0.127532,-0.274756,0.275602,0.257283,0.480273,-0.073097,-0.060670,-0.426431,-0.109561,0.271513,-0.246619,0.030445,-0.005610,-0.668520,0.351412,0.962344,1.197595,0.000499,-0.038083,0.105720,0.004808,0.010520,0.051512
0.150820,-0.530949,-0.203990,0.014409,-0.019213,0.088464,0.129152,-0.278678,0.280719,0.304267,0.524726,-0.073097,-0.083027,-0.442212,-0.136050,0.268396,-0.246619,0.026537,-0.026151,-0.665743,0.364522,0.944643,1.211436,0.009553,-0.041945,0.100145,0.004808,0.017031,0.050042
0.130623,-0.523781,-0.201960,0.028913,-0.012067,0.095302,0.129284,-0.281312,0.282288,0.384134,0.545875,-0.066033,-0.112912,-0.462522,-0.158317,0.274472,-0.242581,0.013560,-0.045012,-0.664986,0.376184,0.910886,1.229313,0.023435,-0.048616,0.097316,0.005405,0.021986,0.045586
0.109447,-0.513374,-0.198218,0.044359,-0.002655,0.102083,0.131788,-0.282565,0.284782,0.467977,0.560853,-0.058923,-0.143157,-0.477960,-0.179119,0.282186,-0.237412,0.003445,-0.060769,-0.663352,0.385355,0.875442,1.244340,0.037008,-0.055807,0.094231,0.005085,0.026101,0.040286
0.086313,-0.496491,-0.191051,0.061692,0.011399,0.108747,0.138906,-0.281057,0.289126,0.559770,0.563489,-0.049873,-0.174124,-0.483655,-0.196988,0.293175,-0.230591,-0.000944,-0.070321,-0.660718,0.389543,0.836626,1.253666,0.049961,-0.064039,0.090632,0.005085,0.028538,0.033297
0.054839,-0.466102,-0.182169,0.077577,0.024497,0.112026,0.144162,-0.277737,0.294435,0.670831,0.549788,-0.040759,-0.199647,-0.447095,-0.208182,0.303031,-0.225245,0.005369,-0.071664,-0.653419,0.390939,0.801150,1.248908,0.057602,-0.069131,0.084688,0.006253,0.028735,0.027861
0.019194,-0.428960,-0.172428,0.092737,0.037117,0.113611,0.148489,-0.273511,0.300227,0.791525,0.527918,-0.031613,-0.222447,-0.389407,-0.216040,0.312320,-0.220637,0.017034,-0.068904,-0.643788,0.390939,0.767343,1.237106,0.062587,-0.072655,0.077569,0.008108,0.028735,0.023202
-0.043124,-0.376238,-0.160133,0.113360,0.048107,0.110133,0.149032,-0.270354,0.307093,0.941883,0.488464,-0.024718,-0.239937,-0.235451,-0.219262,0.322622,-0.220316,0.034605,-0.062348,-0.634374,0.397076,0.741490,1.208482,0.050980,-0.062480,0.069824,0.007224,0.025417,0.025986
-0.100509,-0.326000,-0.146175,0.132409,0.058655,0.105932,0.149575,-0.266926,0.313664,1.073195,0.451412,-0.019576,-0.258704,-0.098507,-0.223744,0.332398,-0.220581,0.047120,-0.057361,-0.625989,0.405820,0.721128,1.180385,0.036074,-0.051299,0.062374,0.004491,0.024731,0.029054
-0.148025,-0.280732,-0.128890,0.148312,0.068321,0.100283,0.149575,-0.262956,0.319645,1.166409,0.419167,-0.019576,-0.280023,0.004407,-0.230747,0.341121,-0.222336,0.049521,-0.055510,-0.619661,0.420716,0.711746,1.153341,0.014572,-0.038102,0.055517,-0.001057,0.028080,0.032687
-0.188940,-0.239656,-0.113324,0.149620,0.074161,0.094639,0.144833,-0.258650,0.322740,1.228342,0.389883,-0.019200,-0.302336,0.039274,-0.236178,0.346635,-0.223857,0.046846,-0.053985,-0.610721,0.433808,0.713842,1.129957,-0.000901,-0.028224,0.048756,-0.005942,0.033932,0.033898
-0.226555,-0.200675,-0.098616,0.143632,0.078088,0.088999,0.137086,-0.254176,0.324392,1.274634,0.362080,-0.019200,-0.325146,0.039274,-0.240822,0.350545,-0.223857,0.041632,-0.052623,-0.600475,0.445999,0.721677,1.108403,-0.013359,-0.020004,0.042042,-0.010494,0.041035,0.033898
-0.264291,-0.163969,-0.088953,0.126345,0.078459,0.082741,0.124929,-0.250739,0.322866,1.290903,0.334603,-0.019318,-0.345866,0.014146,-0.246068,0.351065,-0.224057,0.033125,-0.049786,-0.589733,0.449334,0.737249,1.092316,-0.013359,-0.017463,0.038208,-0.012885,0.049909,0.030125
-0.301472,-0.127696,-0.081126,0.108801,0.077992,0.076171,0.113965,-0.249357,0.320741,1.297332,0.306986,-0.018604,-0.364934,-0.006390,-0.251488,0.351929,-0.222864,0.025071,-0.046784,-0.580732,0.449993,0.754419,1.075874,-0.013364,-0.015769,0.036707,-0.014963,0.060137,0.026443
-0.337544,-0.092287,-0.076971,0.090741,0.075475,0.068976,0.105389,-0.249357,0.317415,1.284082,0.279085,-0.018604,-0.380699,-0.016617,-0.257258,0.351929,-0.221488,0.017924,-0.043454,-0.575214,0.445300,0.774784,1.058724,-0.011914,-0.015769,0.039872,-0.016412,0.073071,0.022220
-0.372565,-0.058237,-0.073412,0.078311,0.074172,0.062323,0.101749,-0.252089,0.313113,1.255298,0.250646,-0.017939,-0.391931,-0.020964,-0.262920,0.352792,-0.221395,0.009030,-0.040367,-0.572360,0.438537,0.797035,1.038087,-0.011430,-0.013549,0.044672,-0.017650,0.088405,0.019873
-0.407061,-0.024867,-0.070151,0.068696,0.074172,0.055940,0.101749,-0.254823,0.308322,1.218747,0.221938,-0.017939,-0.400896,-0.020964,-0.268529,0.352792,-0.221395,-0.000738,-0.037400,-0.572360,0.430739,0.820228,1.015706,-0.011430,-0.009113,0.050288,-0.017650,0.104937,0.018462
-0.433945,0.006940,-0.064379,0.066840,0.075951,0.051229,0.108178,-0.258668,0.304052,1.156242,0.193555,-0.018250,-0.404709,-0.036896,-0.274900,0.353643,-0.225715,0.000688,-0.035400,-0.570542,0.426202,0.844408,0.990880,-0.008157,0.001011,0.053574,-0.019862,0.121874,0.018039
-0.459402,0.037133,-0.057997,0.066320,0.078718,0.046860,0.117710,-0.262454,0.299356,1.086784,0.166395,-0.019253,-0.406960,-0.050444,-0.281683,0.353056,-0.230780,0.001223,-0.033389,-0.568938,0.423750,0.868586,0.966088,-0.004178,0.011699,0.056433,-0.021567,0.137498,0.016938
-0.482005,0.064098,-0.050393,0.068471,0.082529,0.043171,0.131885,-0.266124,0.293806,1.003418,0.141681,-0.020541,-0.406960,-0.061098,-0.289289,0.353056,-0.238066,-0.000024,-0.031359,-0.566530,0.423750,0.892761,0.941362,0.001741,0.023515,0.058438,-0.023772,0.150499,0.014904
-0.500343,0.086543,-0.042034,0.067483,0.085410,0.039871,0.146694,-0.270655,0.287720,0.905901,0.123305,-0.020358,-0.404763,-0.060050,-0.299316,0.350398,-0.246441,0.000844,-0.029409,-0.562192,0.427126,0.914172,0.921081,0.002974,0.034035,0.059917,-0.026428,0.158644,0.012222
-0.516548,0.106727,-0.033296,0.064924,0.087825,0.036764,0.161819,-0.275618,0.281366,0.801309,0.108098,-0.019745,-0.401905,-0.053150,-0.310554,0.347791,-0.255362,0.002771,-0.027148,-0.556888,0.431331,0.934200,0.903022,0.002235,0.043905,0.061133,-0.029310,0.164362,0.009215
-0.520765,0.123142,-0.023095,0.053138,0.090750,0.035236,0.165530,-0.279364,0.275395,0.670751,0.098980,-0.015811,-0.398132,-0.033498,-0.325187,0.345010,-0.263747,0.000918,-0.027148,-0.549194,0.437616,0.946415,0.893983,-0.007655,0.050139,0.062716,-0.032010,0.161437,0.006620
-0.520837,0.139800,-0.013157,0.039926,0.094806,0.034650,0.162006,-0.282690,0.270167,0.535604,0.091115,-0.010275,-0.394150,-0.012269,-0.338677,0.342536,-0.270985,-0.001455,-0.025330,-0.542608,0.444616,0.957420,0.888501,-0.018027,0.055056,0.064238,-0.034557,0.156747,0.004889
-0.512619,0.156945,-0.003743,0.023862,0.101121,0.035947,0.144007,-0.282690,0.266424,0.391284,0.085758,-0.001535,-0.389749,0.012114,-0.349883,0.340679,-0.275929,-0.004867,-0.020931,-0.538239,0.453044,0.966003,0.890133,-0.029365,0.057340,0.065635,-0.034557,0.148525,0.004889
-0.494536,0.174535,0.008368,0.008857,0.105052,0.035138,0.120256,-0.278770,0.264654,0.252877,0.085834,0.009107,-0.384517,0.014438,-0.363121,0.339302,-0.278577,-0.012590,-0.016572,-0.534837,0.462506,0.972438,0.898858,-0.035895,0.058101,0.065795,-0.035305,0.138745,0.005031
-0.471521,0.192348,0.021829,-0.005620,0.107791,0.033277,0.093629,-0.271648,0.264654,0.117427,0.088626,0.020701,-0.378870,0.005731,-0.377376,0.339302,-0.280077,-0.022468,-0.012234,-0.531919,0.472487,0.977799,0.911130,-0.040021,0.058101,0.065795,-0.035305,0.128185,0.005031
-0.454408,0.199753,0.034851,-0.016024,0.097852,0.024817,0.096610,-0.264273,0.264417,0.062579,0.118713,0.033961,-0.375541,-0.040706,-0.403639,0.340433,-0.277886,-0.072635,-0.004866,-0.533364,0.486438,0.980091,0.936422,-0.037521,0.055100,0.065356,-0.035411,0.115531,0.005578
-0.446192,0.203872,0.045719,-0.028514,0.083541,0.013671,0.097123,-0.258295,0.264765,0.042294,0.155599,0.046523,-0.372309,-0.059969,-0.431093,0.343309,-0.274393,-0.090955,0.004894,-0.536113,0.499718,0.982252,0.964193,-0.034154,0.050600,0.065975,-0.035717,0.101841,0.005366
-0.455769,0.201422,0.052278,-0.045179,0.060488,-0.002846,0.092701,-0.255113,0.264765,0.091131,0.206078,0.057692,-0.369271,-0.024887,-0.460927,0.348160,-0.268295,-0.045586,0.019437,-0.541469,0.511656,0.982252,0.996924,-0.029053,0.042597,0.068232,-0.035717,0.086078,0.005366
-0.460953,0.198171,0.056354,-0.066464,0.030709,-0.022525,0.089828,-0.251633,0.265695,0.138878,0.265303,0.066186,-0.359562,0.021328,-0.491550,0.352301,-0.261145,-0.017932,0.035381,-0.548449,0.515140,0.988497,1.027426,-0.023449,0.027993,0.072309,-0.033519,0.066500,0.004265
-0.463941,0.194520,0.059189,-0.090060,-0.002432,-0.043785,0.087731,-0.248006,0.266996,0.186079,0.328900,0.073342,-0.346517,0.073110,-0.522567,0.356087,-0.253468,0.000862,0.052025,-0.556241,0.515140,0.996916,1.056815,-0.017594,0.010089,0.077295,-0.031047,0.045014,0.004265
-0.469187,0.187619,0.058348,-0.104252,-0.035913,-0.058858,0.098565,-0.247572,0.272349,0.248528,0.405886,0.072655,-0.321596,0.078827,-0.551971,0.353778,-0.247169,0.005106,0.064047,-0.565329,0.502167,1.013587,1.078207,-0.002835,-0.009622,0.086351,-0.029394,0.015423,0.003044
-0.469967,0.176117,0.055283,-0.116978,-0.068284,-0.071437,0.109394,-0.245391,0.277567,0.306429,0.493911,0.069980,-0.294510,0.075651,-0.569085,0.350499,-0.242372,0.021746,0.073353,-0.574581,0.489535,1.029561,1.095909,0.016458,-0.024965,0.098202,-0.027625,-0.017096,0.001733
-0.461818,0.155414,0.048610,-0.126771,-0.098435,-0.079032,0.120212,-0.240151,0.282514,0.355234,0.604016,0.064020,-0.263095,0.054694,-0.561623,0.345279,-0.240582,0.063178,0.077230,-0.584159,0.476591,1.044142,1.106229,0.044820,-0.031574,0.115643,-0.027625,-0.055472,0.000148
-0.426601,0.107460,0.040203,-0.136253,-0.126213,-0.083345,0.122819,-0.220908,0.288123,0.365570,0.762273,0.059806,-0.231607,0.032874,-0.471357,0.344120,-0.241963,0.092467,0.064933,-0.592070,0.468590,1.046167,1.108715,0.073996,-0.030352,0.134638,-0.023901,-0.092320,0.003696
-0.377849,0.045880,0.030930,-0.145580,-0.152805,-0.086017,0.122819,-0.194664,0.294065,0.356672,0.944606,0.056465,-0.200083,0.010623,-0.339689,0.344120,-0.244930,0.115684,0.044550,-0.599149,0.463060,1.041912,1.107284,0.103580,-0.025214,0.154409,-0.019315,-0.128403,0.009809
-0.323178,-0.030769,0.013133,-0.155781,-0.184616,-0.085100,0.115921,-0.183016,0.305115,0.340807,1.105682,0.048865,-0.174617,-0.012739,-0.153997,0.351635,-0.251467,0.121716,0.031622,-0.614562,0.464362,1.028948,1.102353,0.114254,-0.021501,0.163672,-0.014336,-0.148777,0.019487
-0.273327,-0.098307,-0.006979,-0.164473,-0.213074,-0.081983,0.109415,-0.177525,0.313729,0.325922,1.237606,0.038466,-0.150623,-0.034598,-0.029661,0.358385,-0.258233,0.127503,0.017385,-0.632367,0.464612,1.018362,1.098015,0.119644,-0.019454,0.168695,-0.011017,-0.161840,0.027439
-0.233113,-0.147624,-0.031723,-0.170146,-0.234825,-0.075383,0.101693,-0.184347,0.317470,0.313000,1.311226,0.022468,-0.129573,-0.053453,-0.028035,0.364766,-0.265454,0.132800,0.000529,-0.654955,0.464612,1.012532,1.098015,0.114468,-0.020740,0.165238,-0.011017,-0.160281,0.031939
-0.195423,-0.192889,-0.056509,-0.170997,-0.247010,-0.064862,0.091537,-0.195330,0.317841,0.298718,1.355000,0.004510,-0.108224,-0.070520,-0.054065,0.367675,-0.271997,0.136544,-0.015652,-0.669316,0.456391,1.008724,1.096965,0.110260,-0.023373,0.158653,-0.011209,-0.149362,0.033853
-0.158997,-0.236126,-0.081316,-0.169437,-0.254411,-0.052380,0.080163,-0.208392,0.316527,0.283756,1.383850,-0.014427,-0.086724,-0.086692,-0.093924,0.367675,-0.278200,0.139513,-0.031495,-0.679563,0.444985,1.005927,1.096965,0.106538,-0.026678,0.150503,-0.011209,-0.133761,0.033853
-0.120027,-0.275861,-0.102153,-0.163707,-0.251615,-0.037704,0.068533,-0.221391,0.312728,0.262062,1.376408,-0.031328,-0.065284,-0.100790,-0.118676,0.365371,-0.283961,0.140216,-0.033821,-0.669397,0.424248,0.998609,1.096130,0.104433,-0.027978,0.144751,-0.010969,-0.111672,0.034613
-0.081196,-0.315677,-0.121567,-0.157489,-0.245798,-0.023559,0.057925,-0.232673,0.307464,0.237989,1.359414,-0.047421,-0.044615,-0.114174,-0.141809,0.362398,-0.289519,0.140149,-0.034568,-0.655946,0.404041,0.989561,1.095048,0.101101,-0.028385,0.140164,-0.009443,-0.090416,0.036254
-0.042640,-0.355656,-0.138139,-0.150296,-0.233939,-0.010476,0.049359,-0.240519,0.299271,0.209157,1.323317,-0.061898,-0.025485,-0.126130,-0.161705,0.359646,-0.294674,0.140149,-0.032158,-0.635927,0.384889,0.977055,1.093257,0.095315,-0.027008,0.137909,-0.007557,-0.070826,0.040143
-0.005159,-0.391699,-0.152195,-0.143823,-0.221558,0.000621,0.042492,-0.247024,0.291719,0.182183,1.269930,-0.076376,-0.009079,-0.138009,-0.176713,0.358386,-0.299765,0.139242,-0.024519,-0.615200,0.369138,0.961270,1.089947,0.083313,-0.025628,0.135330,-0.005576,-0.055760,0.044132
0.031786,-0.425775,-0.164994,-0.137710,-0.208916,0.010725,0.036473,-0.252858,0.284488,0.156136,1.207896,-0.090853,0.005967,-0.149851,-0.189278,0.358042,-0.304825,0.139106,-0.014265,-0.594119,0.355086,0.943846,1.085878,0.068202,-0.024707,0.132589,-0.003549,-0.042955,0.048171
0.062794,-0.450875,-0.177372,-0.133991,-0.199055,0.017501,0.030576,-0.260366,0.278702,0.140815,1.120883,-0.105480,0.015421,-0.163340,-0.192189,0.360789,-0.308764,0.132525,-0.001446,-0.578667,0.342766,0.921122,1.081084,0.046518,-0.024707,0.127972,-0.002041,-0.035410,0.050837
0.089901,-0.473776,-0.189904,-0.130402,-0.189420,0.024124,0.024862,-0.268688,0.272126,0.129976,1.025121,-0.120371,0.022706,-0.179228,-0.192547,0.364351,-0.311940,0.126714,0.011391,-0.566509,0.330925,0.898216,1.078442,0.024736,-0.024013,0.122991,-0.000622,-0.027601,0.052613
0.109208,-0.492277,-0.202740,-0.127074,-0.180239,0.030442,0.019513,-0.278638,0.263971,0.128104,0.911862,-0.135791,0.025653,-0.199912,-0.187798,0.369545,-0.313592,0.122445,0.024265,-0.560939,0.320045,0.874948,1.078442,0.002756,-0.024013,0.117277,-0.000622,-0.019267,0.052613
0.126541,-0.503593,-0.214673,-0.124463,-0.166328,0.035921,0.015392,-0.282363,0.255800,0.129394,0.780536,-0.151308,0.024769,-0.222489,-0.175565,0.375427,-0.314142,0.119786,0.037779,-0.560741,0.309485,0.853124,1.082790,-0.013447,-0.024021,0.109364,-0.000207,-0.008750,0.051231
0.142886,-0.511317,-0.226155,-0.122210,-0.150052,0.040980,0.011884,-0.282363,0.247621,0.132265,0.640175,-0.166872,0.021970,-0.246012,-0.159589,0.381652,-0.314142,0.117932,0.051613,-0.563229,0.299086,0.832023,1.088481,-0.026762,-0.025279,0.100351,-0.000207,0.002859,0.049694
0.170400,-0.500223,-0.233724,-0.123140,-0.130926,0.041562,0.009439,-0.273383,0.243414,0.126366,0.482878,-0.180666,0.017095,-0.263494,-0.147644,0.386026,-0.312086,0.115905,0.070721,-0.565359,0.288841,0.812405,1.098129,-0.028265,-0.029946,0.092866,-0.000653,0.013572,0.050231
0.197392,-0.484577,-0.240675,-0.123521,-0.112432,0.042913,0.005836,-0.266241,0.239859,0.123064,0.328848,-0.193006,0.011902,-0.281334,-0.141531,0.390270,-0.309553,0.112948,0.096755,-0.567358,0.278834,0.792051,1.107702,-0.027957,-0.035019,0.087246,-0.001314,0.022588,0.050382
0.223342,-0.459824,-0.246388,-0.121876,-0.095199,0.042913,-0.000086,-0.266241,0.237604,0.124957,0.181335,-0.202438,0.006074,-0.299889,-0.147082,0.394257,-0.305586,0.108134,0.136641,-0.569094,0.269303,0.770220,1.117123,-0.024029,-0.040907,0.085356,-0.001314,0.028211,0.050382
0.236058,-0.456382,-0.249216,-0.115559,-0.086186,0.048567,-0.005633,-0.277851,0.233349,0.146400,0.126025,-0.209857,-0.000254,-0.326826,-0.171812,0.398685,-0.302233,0.099426,0.174826,-0.571439,0.261481,0.745344,1.123283,-0.020410,-0.045168,0.085512,-0.001636,0.030086,0.048597
0.242158,-0.463596,-0.250602,-0.106906,-0.081282,0.055895,-0.010992,-0.296593,0.228094,0.177619,0.116818,-0.216269,-0.006833,-0.357954,-0.206134,0.403335,-0.299185,0.088773,0.212158,-0.574089,0.254513,0.718947,1.127813,-0.016946,-0.048616,0.085512,-0.001636,0.030086,0.046497
0.247828,-0.486423,-0.247911,-0.088017,-0.071494,0.072553,-0.012752,-0.296276,0.229502,0.230410,0.208137,-0.212542,-0.015540,-0.397909,-0.172153,0.406878,-0.299185,0.079401,0.144685,-0.574089,0.255755,0.687204,1.133210,-0.013186,-0.049264,0.087971,-0.001793,0.027676,0.044113
0.251518,-0.505103,-0.247235,-0.065306,-0.056644,0.092105,-0.015352,-0.292596,0.232050,0.288504,0.293321,-0.206892,-0.025534,-0.436954,-0.131827,0.408642,-0.299099,0.070162,0.085436,-0.573094,0.259373,0.659327,1.140462,-0.010015,-0.049080,0.088477,-0.002712,0.026651,0.041954
0.251518,-0.515487,-0.250591,-0.034951,-0.031669,0.117443,-0.019633,-0.282508,0.236879,0.357201,0.366228,-0.197400,-0.038101,-0.474175,-0.078816,0.406851,-0.299099,0.061188,0.042638,-0.571475,0.267745,0.639184,1.151421,-0.008024,-0.049080,0.086649,-0.004336,0.028253,0.040246
0.245586,-0.523369,-0.253224,-0.006530,-0.018967,0.136679,-0.017732,-0.286655,0.244517,0.444078,0.446685,-0.184332,-0.052203,-0.503773,-0.067057,0.400905,-0.296487,0.055067,0.013301,-0.569190,0.275089,0.635516,1.163423,-0.007360,-0.049616,0.080654,-0.005284,0.034064,0.037664
0.236822,-0.530000,-0.255496,0.020923,-0.012402,0.152863,-0.012740,-0.297920,0.253559,0.540046,0.530919,-0.169477,-0.067072,-0.529559,-0.075924,0.392881,-0.292243,0.050372,-0.009305,-0.566573,0.281919,0.640087,1.175947,-0.007360,-0.051668,0.072574,-0.005284,0.041979,0.034644
0.207082,-0.508900,-0.255055,0.039374,-0.007978,0.155458,-0.007744,-0.305604,0.260878,0.679664,0.578293,-0.152058,-0.079662,-0.486647,-0.115355,0.383573,-0.286306,0.069363,-0.045229,-0.565734,0.287339,0.656507,1.181806,-0.014171,-0.055562,0.063840,-0.004110,0.053164,0.031327
0.159389,-0.476933,-0.254081,0.060603,-0.002518,0.156161,0.000846,-0.313245,0.267961,0.838173,0.608548,-0.135821,-0.091612,-0.387758,-0.152640,0.375716,-0.281461,0.083853,-0.072599,-0.566901,0.293590,0.673698,1.184387,-0.021324,-0.057370,0.058732,-0.003367,0.061290,0.029562
0.075792,-0.423236,-0.252481,0.087385,0.005015,0.153081,0.016626,-0.320802,0.274574,1.034459,0.604563,-0.121948,-0.102281,-0.176918,-0.185629,0.370761,-0.278802,0.089340,-0.082863,-0.572919,0.301500,0.692433,1.180414,-0.029642,-0.055006,0.060878,-0.003367,0.061290,0.029562
0.000964,-0.372468,-0.246529,0.118868,0.014816,0.149252,0.031205,-0.330124,0.281058,1.177440,0.594753,-0.110630,-0.115829,-0.035321,-0.214195,0.368139,-0.276548,0.089161,-0.088461,-0.580601,0.313070,0.715765,1.175914,-0.030613,-0.050059,0.066411,-0.005212,0.057466,0.029019
-0.069481,-0.323165,-0.238400,0.152702,0.025750,0.145048,0.045184,-0.340330,0.287477,1.293766,0.582031,-0.100590,-0.130816,0.071654,-0.240549,0.366683,-0.274496,0.086150,-0.091726,-0.589115,0.326470,0.741396,1.171150,-0.027911,-0.043820,0.073637,-0.007516,0.050725,0.029019
-0.124654,-0.276599,-0.224189,0.152400,0.029260,0.135398,0.049468,-0.342509,0.288832,1.346580,0.561110,-0.090626,-0.146601,0.043811,-0.260882,0.362093,-0.272177,0.093882,-0.089794,-0.594654,0.337644,0.777545,1.168405,-0.012514,-0.039488,0.082186,-0.009324,0.045707,0.023043
-0.177115,-0.229040,-0.207896,0.144148,0.031060,0.125135,0.053324,-0.343468,0.288768,1.383884,0.536485,-0.079472,-0.161092,0.015024,-0.278352,0.356831,-0.270231,0.093405,-0.085800,-0.597396,0.347259,0.813002,1.163906,0.004680,-0.036171,0.091599,-0.010529,0.041583,0.018407
-0.224144,-0.179497,-0.187438,0.120297,0.031060,0.113648,0.056323,-0.341987,0.288768,1.390166,0.504454,-0.065938,-0.172994,-0.015646,-0.290095,0.350227,-0.270231,0.076509,-0.077686,-0.594545,0.353755,0.847069,1.155896,0.025465,-0.034886,0.102738,-0.010529,0.039248,0.014477
-0.266032,-0.129421,-0.163386,0.088145,0.029373,0.101363,0.056249,-0.336509,0.284878,1.369429,0.466618,-0.048323,-0.181708,-0.036295,-0.298406,0.346106,-0.271507,0.054248,-0.068554,-0.587393,0.360296,0.873895,1.142040,0.041904,-0.032621,0.115722,-0.010085,0.034970,0.013166
-0.305347,-0.079077,-0.137536,0.051842,0.027650,0.088680,0.054639,-0.329033,0.280496,1.335180,0.425879,-0.028667,-0.188828,-0.051933,-0.305002,0.343228,-0.274021,0.029303,-0.058912,-0.578091,0.366860,0.897102,1.125261,0.056170,-0.029868,0.129628,-0.010085,0.029719,0.013166
-0.336273,-0.030612,-0.110420,0.023732,0.028368,0.076847,0.047950,-0.319228,0.275362,1.268537,0.382978,-0.005617,-0.193603,-0.073501,-0.309865,0.347859,-0.279529,0.004316,-0.050046,-0.567632,0.375651,0.907365,1.098451,0.059268,-0.025405,0.140986,-0.009146,0.018686,0.015116
-0.364924,0.015865,-0.083848,0.004143,0.030585,0.065830,0.042969,-0.309676,0.270406,1.193944,0.342281,0.017576,-0.198855,-0.093702,-0.314621,0.354866,-0.285849,-0.014420,-0.042036,-0.557525,0.385741,0.914806,1.069033,0.061744,-0.020469,0.151530,-0.008683,0.005964,0.016900
-0.389024,0.058366,-0.058366,0.001595,0.035084,0.056449,0.041400,-0.300629,0.265802,1.103454,0.305992,0.041056,-0.205060,-0.111169,-0.319164,0.366623,-0.293795,-0.020655,-0.035742,-0.548124,0.398429,0.916605,1.034398,0.061744,-0.014589,0.160444,-0.008683,-0.010137,0.018155
-0.409812,0.097618,-0.036851,0.012237,0.042670,0.049257,0.044952,-0.290857,0.260534,0.999702,0.270260,0.063052,-0.212909,-0.117925,-0.324368,0.379754,-0.302699,-0.016162,-0.029854,-0.539430,0.412753,0.919773,0.995469,0.065522,-0.006794,0.167146,-0.009713,-0.026956,0.018573
-0.428945,0.135246,-0.017319,0.029475,0.051798,0.043158,0.051066,-0.280723,0.254932,0.889320,0.234806,0.084305,-0.221579,-0.119326,-0.329904,0.393571,-0.312083,-0.006304,-0.024169,-0.531090,0.427895,0.923627,0.954394,0.070572,0.001959,0.172741,-0.010987,-0.044134,0.018573
-0.438088,0.165122,-0.002915,0.047757,0.060316,0.039064,0.054975,-0.268383,0.246017,0.751112,0.205178,0.101741,-0.231180,-0.105655,-0.336995,0.404099,-0.320054,0.010580,-0.017107,-0.521753,0.440699,0.936681,0.913979,0.076068,0.011611,0.174132,-0.012765,-0.058472,0.017002
-0.442719,0.192384,0.010450,0.064760,0.068196,0.035691,0.055082,-0.254759,0.237217,0.604900,0.179524,0.117918,-0.241535,-0.083879,-0.344235,0.412797,-0.326358,0.029061,-0.009903,-0.511441,0.451546,0.952086,0.876244,0.081096,0.021852,0.176069,-0.015193,-0.072509,0.015610
-0.438328,0.214419,0.021740,0.079203,0.074798,0.035691,0.047587,-0.238567,0.228646,0.442686,0.161819,0.131577,-0.253394,-0.045896,-0.351775,0.417832,-0.329328,0.050736,-0.002414,-0.499183,0.458477,0.972191,0.843869,0.085191,0.033271,0.176069,-0.018920,-0.085941,0.015610
-0.426444,0.232053,0.032010,0.091876,0.077267,0.035101,0.035947,-0.219979,0.222581,0.289303,0.158357,0.144531,-0.267276,-0.026160,-0.363653,0.420122,-0.327355,0.053247,0.007176,-0.484783,0.464210,0.992442,0.819842,0.088105,0.041752,0.179376,-0.021993,-0.096472,0.015041
-0.410814,0.247486,0.041772,0.103664,0.077267,0.035101,0.022236,-0.200192,0.217768,0.140335,0.162019,0.157131,-0.282170,-0.015549,-0.377700,0.420122,-0.322910,0.046175,0.017816,-0.469313,0.469343,1.012766,0.799988,0.090428,0.048765,0.182821,-0.024740,-0.105552,0.015041
-0.398396,0.255945,0.045822,0.105523,0.064207,0.028088,0.000513,-0.176414,0.217215,0.064281,0.187429,0.169804,-0.297910,-0.055498,-0.403343,0.420733,-0.312485,-0.007031,0.032040,-0.456802,0.475749,1.027522,0.789806,0.092773,0.052138,0.187091,-0.025921,-0.113826,0.011819
-0.398753,0.260043,0.044630,0.102298,0.045191,0.017400,-0.012964,-0.155052,0.215691,0.037071,0.219140,0.180687,-0.312965,-0.075189,-0.431682,0.420133,-0.301248,-0.054151,0.047425,-0.449385,0.480646,1.041682,0.780777,0.093280,0.053171,0.190412,-0.027125,-0.120696,0.008546
-0.424664,0.255421,0.032955,0.088904,0.014800,-0.000533,-0.012964,-0.138524,0.215691,0.107554,0.263452,0.187992,-0.326649,-0.054360,-0.465410,0.420133,-0.288386,-0.089096,0.065131,-0.452153,0.482522,1.054654,0.774053,0.090112,0.049525,0.191835,-0.028372,-0.124760,0.005665
-0.456995,0.248102,0.017040,0.074826,-0.017540,-0.018790,-0.002513,-0.122032,0.216515,0.206333,0.314886,0.189891,-0.335871,-0.015034,-0.495485,0.419660,-0.276104,-0.108433,0.080582,-0.465963,0.484593,1.066909,0.767121,0.085520,0.041735,0.191227,-0.029959,-0.125283,0.004704
-0.492538,0.239435,-0.000996,0.060405,-0.050856,-0.037208,0.011654,-0.105557,0.219206,0.319262,0.369882,0.189891,-0.342862,0.033541,-0.523735,0.419660,-0.264112,-0.119965,0.094906,-0.485294,0.486760,1.078806,0.760085,0.080215,0.031872,0.189603,-0.031715,-0.124035,0.004704
-0.516290,0.237515,-0.022007,0.060649,-0.079405,-0.049253,0.036327,-0.093742,0.234333,0.441206,0.436944,0.181761,-0.340630,0.021154,-0.551496,0.417111,-0.254015,-0.096988,0.083949,-0.509475,0.484315,1.085192,0.761355,0.083536,0.020593,0.189603,-0.036071,-0.121683,0.004399
-0.529482,0.226076,-0.041832,0.064332,-0.107545,-0.059822,0.063450,-0.079432,0.248459,0.546901,0.519916,0.174133,-0.337167,-0.004820,-0.566029,0.415313,-0.246641,-0.070374,0.065287,-0.531265,0.481964,1.086283,0.762635,0.089783,0.008631,0.189795,-0.040059,-0.120307,0.006522
-0.521555,0.195600,-0.059284,0.074651,-0.134868,-0.067439,0.095472,-0.060132,0.260579,0.620092,0.634702,0.166439,-0.331242,-0.057964,-0.554103,0.415313,-0.244712,-0.036484,0.031215,-0.548268,0.481964,1.076783,0.763937,0.101881,-0.004697,0.191635,-0.043309,-0.120307,0.011212
-0.486153,0.125910,-0.079065,0.080592,-0.164715,-0.076097,0.130635,-0.038869,0.267695,0.644490,0.799422,0.164309,-0.326407,-0.100635,-0.448603,0.421517,-0.249834,-0.013056,-0.010204,-0.561142,0.481995,1.052789,0.761263,0.110887,-0.022458,0.193058,-0.041665,-0.122758,0.024276
-0.437013,0.036611,-0.100011,0.084344,-0.195826,-0.085275,0.167367,-0.016624,0.272308,0.644490,0.989109,0.164309,-0.322118,-0.138069,-0.296314,0.431553,-0.258481,0.005141,-0.055295,-0.571952,0.481995,1.021547,0.756601,0.118348,-0.042437,0.193058,-0.037573,-0.126146,0.041527
-0.390186,-0.036727,-0.137120,0.079658,-0.241435,-0.093272,0.199886,-0.035272,0.275765,0.634153,1.106877,0.161035,-0.319256,-0.168439,-0.230529,0.452348,-0.272970,0.016830,-0.083097,-0.586938,0.476124,0.991056,0.751816,0.109652,-0.054792,0.188834,-0.036699,-0.124954,0.058967
-0.344794,-0.103032,-0.176135,0.075458,-0.278030,-0.099240,0.229867,-0.055835,0.277116,0.619924,1.202345,0.155044,-0.313254,-0.196146,-0.191581,0.475181,-0.290244,0.027609,-0.112664,-0.601610,0.464008,0.965776,0.744402,0.098476,-0.063819,0.181748,-0.036593,-0.121118,0.074403
-0.302273,-0.155273,-0.218961,0.072229,-0.296597,-0.099240,0.254772,-0.080229,0.274251,0.598388,1.253218,0.144490,-0.300968,-0.218523,-0.206303,0.502093,-0.313088,0.036569,-0.145765,-0.615656,0.440909,0.950913,0.731731,0.082338,-0.066190,0.170558,-0.038895,-0.111994,0.085829
-0.258265,-0.201613,-0.258800,0.069158,-0.291513,-0.097458,0.275570,-0.101432,0.267740,0.567050,1.276047,0.130540,-0.284723,-0.234449,-0.211703,0.527477,-0.344690,0.042160,-0.150003,-0.618166,0.405856,0.947476,0.712863,0.069526,-0.065159,0.159045,-0.039383,-0.100494,0.097677
-0.213512,-0.245004,-0.297145,0.066167,-0.274602,-0.093832,0.294316,-0.121040,0.259405,0.530812,1.284852,0.114891,-0.266497,-0.247149,-0.211703,0.552097,-0.380673,0.046067,-0.139810,-0.614910,0.364825,0.949752,0.690897,0.058376,-0.062427,0.147370,-0.039383,-0.087807,0.109735
-0.165898,-0.278626,-0.335205,0.060577,-0.233535,-0.087758,0.307553,-0.138365,0.245874,0.479984,1.255563,0.099515,-0.254478,-0.250757,-0.204794,0.573306,-0.425834,0.047839,-0.107725,-0.593786,0.310327,0.960757,0.672945,0.060208,-0.058674,0.144232,-0.030525,-0.079517,0.131182
-0.118427,-0.308565,-0.372625,0.054555,-0.192401,-0.081476,0.320324,-0.159208,0.231854,0.427690,1.215598,0.084923,-0.245895,-0.252306,-0.198949,0.595291,-0.474372,0.049794,-0.074766,-0.570009,0.254616,0.970960,0.653991,0.063773,-0.055366,0.144789,-0.016530,-0.073076,0.155398
-0.071244,-0.331140,-0.408769,0.047669,-0.151135,-0.074778,0.332164,-0.187090,0.216853,0.372461,1.154282,0.071899,-0.245895,-0.252306,-0.196220,0.618833,-0.529665,0.049794,-0.040056,-0.540926,0.196475,0.979561,0.633033,0.070805,-0.052950,0.152736,0.008299,-0.070332,0.185152
-0.026909,-0.350937,-0.441285,0.038705,-0.115823,-0.068443,0.345175,-0.220764,0.201584,0.319151,1.080105,0.061938,-0.251910,-0.251828,-0.194780,0.646885,-0.592035,0.051574,-0.003090,-0.511861,0.142919,0.980341,0.604572,0.074621,-0.052880,0.161802,0.041439,-0.068151,0.209962
0.016000,-0.369345,-0.471986,0.028703,-0.083489,-0.062289,0.358772,-0.257333,0.186181,0.266801,0.999497,0.053510,-0.261788,-0.251828,-0.194780,0.677192,-0.657945,0.053084,0.035006,-0.482805,0.091654,0.977211,0.572357,0.076829,-0.052880,0.171429,0.078735,-0.066251,0.232300
0.056237,-0.384290,-0.500661,0.012089,-0.053573,-0.056819,0.372374,-0.290655,0.170135,0.214022,0.903590,0.053893,-0.284855,-0.251660,-0.193308,0.713728,-0.728049,0.053084,0.061289,-0.453338,0.048591,0.956742,0.533666,0.071475,-0.051481,0.175409,0.117616,-0.061397,0.235009
0.092963,-0.398136,-0.529785,-0.005329,-0.023245,-0.050867,0.384293,-0.322055,0.153924,0.166569,0.803327,0.057077,-0.312715,-0.252662,-0.191570,0.750777,-0.797330,0.051958,0.086107,-0.423763,0.008332,0.933045,0.495437,0.062871,-0.043311,0.176989,0.152452,-0.055297,0.228958
0.122667,-0.409784,-0.559806,-0.024359,0.007907,-0.043950,0.392844,-0.349612,0.137384,0.129766,0.694350,0.065477,-0.350159,-0.257305,-0.189186,0.788856,-0.864965,0.049710,0.107996,-0.393973,-0.026318,0.902889,0.458132,0.047769,-0.023068,0.173768,0.179198,-0.046703,0.205388
0.143070,-0.417502,-0.589422,-0.041472,0.041439,-0.035690,0.398262,-0.373111,0.121144,0.109018,0.574142,0.076779,-0.394871,-0.268196,-0.182499,0.825120,-0.930388,0.049550,0.131610,-0.362343,-0.053938,0.869049,0.420789,0.024870,0.038847,0.164492,0.186386,-0.031305,0.145282
0.158822,-0.423253,-0.618835,-0.057627,0.076161,-0.026760,0.402113,-0.394581,0.105054,0.096296,0.448317,0.089532,-0.443216,-0.282212,-0.173660,0.860477,-0.994706,0.049550,0.156087,-0.329791,-0.078044,0.833369,0.383426,-0.001929,0.121601,0.152188,0.183795,-0.012504,0.066906
0.167308,-0.421654,-0.640817,-0.072365,0.107545,-0.019802,0.403834,-0.408796,0.090912,0.104851,0.326335,0.092470,-0.488154,-0.302435,-0.174141,0.886271,-1.055364,0.050823,0.190773,-0.296141,-0.090970,0.798948,0.344951,-0.015070,0.216788,0.140764,0.117003,0.005629,-0.068539
0.176139,-0.417731,-0.660842,-0.086809,0.136777,-0.013784,0.403513,-0.417284,0.077795,0.118244,0.216318,0.093873,-0.535089,-0.323216,-0.177541,0.906816,-1.114213,0.051190,0.214762,-0.261117,-0.102705,0.768178,0.309103,-0.029535,0.290142,0.128512,0.041292,0.021303,-0.201484
0.185657,-0.409163,-0.676952,-0.100664,0.161702,-0.009648,0.399109,-0.414318,0.066730,0.141316,0.130231,0.092205,-0.586021,-0.345114,-0.186300,0.916862,-1.169446,0.051190,0.217352,-0.223347,-0.112059,0.744711,0.278508,-0.046649,0.319830,0.114605,-0.052261,0.032059,-0.329430
0.191876,-0.405305,-0.693858,-0.108069,0.181054,-0.002652,0.393109,-0.387857,0.062561,0.185302,0.109451,0.093515,-0.653541,-0.374193,-0.195085,0.913695,-1.217414,0.050262,0.175458,-0.189407,-0.116653,0.735940,0.253654,-0.109632,0.317963,0.084511,-0.142658,0.044523,-0.429097
0.196444,-0.405305,-0.711163,-0.112250,0.197618,0.005775,0.386310,-0.349650,0.062561,0.239745,0.121327,0.096314,-0.729356,-0.406862,-0.203882,0.903921,-1.261750,0.050262,0.111319,-0.157383,-0.118866,0.735940,0.231671,-0.195551,0.300319,0.046325,-0.231477,0.057840,-0.514626
0.188362,-0.407050,-0.728587,-0.093101,0.215264,0.018194,0.379138,-0.307881,0.080378,0.340266,0.179621,0.102005,-0.808172,-0.453307,-0.168150,0.883672,-1.293350,0.035277,0.015436,-0.135669,-0.109796,0.742165,0.212469,-0.331064,0.267542,-0.007202,-0.288507,0.061717,-0.556713
0.177738,-0.411127,-0.742985,-0.070288,0.229837,0.028828,0.374356,-0.276998,0.101620,0.447347,0.244289,0.109716,-0.877910,-0.489825,-0.139370,0.862794,-1.320368,0.015930,-0.062666,-0.116711,-0.101948,0.745754,0.194075,-0.441465,0.240004,-0.049927,-0.332905,0.062340,-0.590361
0.162032,-0.417860,-0.751329,-0.040148,0.238265,0.035892,0.374356,-0.267887,0.128753,0.567558,0.321707,0.121467,-0.929496,-0.506489,-0.124494,0.840661,-1.338221,-0.013361,-0.105206,-0.103264,-0.096543,0.742169,0.177295,-0.501638,0.222946,-0.071044,-0.352040,0.056455,-0.607130
0.130056,-0.408178,-0.748551,-0.018018,0.236577,0.030632,0.366418,-0.254359,0.150485,0.721955,0.387977,0.143053,-0.965223,-0.447372,-0.132879,0.820785,-1.346658,-0.023584,-0.136591,-0.099613,-0.087219,0.728207,0.168676,-0.523278,0.210129,-0.078133,-0.365544,0.052523,-0.621338
0.089943,-0.390287,-0.740211,0.000107,0.229831,0.019208,0.354791,-0.238623,0.169518,0.893452,0.448676,0.169558,-0.993021,-0.350356,-0.152897,0.802038,-1.350386,-0.023584,-0.162400,-0.100862,-0.075935,0.709053,0.164138,-0.525652,0.199432,-0.078133,-0.376231,0.049568,-0.634267
0.009755,-0.363340,-0.728489,0.010630,0.220507,0.001250,0.335727,-0.210824,0.179851,1.066434,0.480377,0.205615,-1.001125,-0.149576,-0.178748,0.788693,-1.338977,-0.054730,-0.171139,-0.112211,-0.060708,0.686951,0.164913,-0.464448,0.193644,-0.061371,-0.380408,0.047349,-0.644864
-0.061016,-0.337086,-0.716364,0.023941,0.213030,-0.015732,0.319723,-0.183743,0.189968,1.208967,0.505710,0.239812,-1.003430,-0.008700,-0.202459,0.774077,-1.327269,-0.080053,-0.174402,-0.123484,-0.045704,0.670288,0.166091,-0.402262,0.189429,-0.045514,-0.383192,0.043523,-0.652909
-0.112964,-0.312215,-0.703433,0.042832,0.209245,-0.030764,0.309837,-0.158094,0.199658,1.290622,0.518314,0.270291,-0.994141,0.012383,-0.221891,0.756915,-1.314961,-0.094650,-0.166714,-0.134610,-0.031141,0.664502,0.166091,-0.338107,0.189429,-0.031567,-0.383192,0.036481,-0.655852
-0.158564,-0.286412,-0.688044,0.073729,0.206386,-0.045896,0.300081,-0.135565,0.203803,1.344514,0.520380,0.299887,-0.975690,-0.013148,-0.238036,0.735500,-1.307006,-0.095709,-0.156633,-0.141077,-0.021069,0.667532,0.173470,-0.235231,0.186103,-0.010916,-0.387592,0.017844,-0.655412
-0.200992,-0.260142,-0.671426,0.110629,0.203990,-0.061078,0.290389,-0.114594,0.204719,1.384526,0.517177,0.329042,-0.952657,-0.061987,-0.252537,0.711957,-1.301228,-0.090000,-0.145355,-0.145215,-0.013243,0.674971,0.183935,-0.112992,0.181649,0.013086,-0.393699,-0.006591,-0.653279
-0.232764,-0.232002,-0.647192,0.150777,0.195214,-0.075163,0.287494,-0.090776,0.199252,1.375101,0.502588,0.346401,-0.931587,-0.082159,-0.260160,0.680177,-1.301228,-0.071151,-0.133260,-0.141674,-0.013243,0.700251,0.202058,-0.049919,0.169892,0.030385,-0.401639,-0.028027,-0.648966
-0.260164,-0.204480,-0.621810,0.190784,0.185695,-0.088048,0.286842,-0.065888,0.192586,1.352479,0.486704,0.363353,-0.912556,-0.101270,-0.266383,0.646677,-1.300762,-0.051687,-0.121388,-0.134465,-0.014605,0.728868,0.218846,0.004151,0.159217,0.047211,-0.408763,-0.048534,-0.645554
-0.278820,-0.178196,-0.594130,0.230510,0.174687,-0.098531,0.290674,-0.038857,0.183519,1.303464,0.468229,0.379494,-0.897603,-0.118261,-0.269808,0.609733,-1.300762,-0.030993,-0.109965,-0.119920,-0.020136,0.764160,0.232963,0.040218,0.150704,0.063088,-0.414256,-0.067187,-0.643946
-0.289761,-0.153841,-0.570401,0.268003,0.160978,-0.107008,0.299490,-0.014055,0.173576,1.230992,0.448699,0.395889,-0.887763,-0.133228,-0.272337,0.574511,-1.298910,-0.012498,-0.097569,-0.104012,-0.025729,0.802922,0.244457,0.067719,0.145090,0.078789,-0.417714,-0.085844,-0.644147
-0.296844,-0.130451,-0.548649,0.304377,0.145917,-0.114483,0.310798,0.009633,0.163194,1.146793,0.428644,0.412409,-0.880480,-0.147184,-0.274417,0.540151,-1.297328,0.004897,-0.084686,-0.087423,-0.031351,0.843419,0.254638,0.090937,0.140927,0.094401,-0.420154,-0.104503,-0.644147
-0.293478,-0.111852,-0.536072,0.336038,0.129047,-0.118909,0.331385,0.025434,0.154629,1.033576,0.411943,0.427481,-0.882185,-0.155344,-0.277157,0.513468,-1.294797,0.020834,-0.069537,-0.077952,-0.032192,0.882047,0.263904,0.098807,0.139185,0.105275,-0.420604,-0.120283,-0.647786
-0.288581,-0.094571,-0.525493,0.363045,0.113253,-0.120975,0.349333,0.039768,0.147511,0.912649,0.396295,0.441592,-0.884794,-0.159251,-0.279999,0.489594,-1.292606,0.034692,-0.054107,-0.070268,-0.032072,0.916614,0.272464,0.104663,0.137368,0.114929,-0.421054,-0.135406,-0.650823
-0.280620,-0.079929,-0.518913,0.380744,0.099612,-0.120975,0.362005,0.051168,0.143285,0.776309,0.382753,0.453783,-0.889207,-0.154654,-0.283045,0.471336,-1.291094,0.044390,-0.038115,-0.066158,-0.029192,0.943060,0.279610,0.104663,0.137368,0.122146,-0.421054,-0.149215,-0.654132
-0.273762,-0.066405,-0.514712,0.386128,0.089439,-0.115292,0.352087,0.060008,0.141073,0.631234,0.368734,0.464988,-0.891560,-0.132720,-0.286632,0.458097,-1.288092,0.033518,-0.022555,-0.063019,-0.026941,0.957921,0.285069,0.109425,0.136187,0.129900,-0.419829,-0.164448,-0.656346
-0.267455,-0.053441,-0.511700,0.386128,0.081000,-0.108095,0.330875,0.067567,0.139867,0.481795,0.354478,0.475698,-0.891560,-0.102118,-0.290490,0.447369,-1.284343,0.012361,-0.007213,-0.060364,-0.025005,0.966989,0.289685,0.115653,0.136187,0.137920,-0.417646,-0.180392,-0.658014
-0.256139,-0.041353,-0.508763,0.378597,0.074865,-0.099931,0.272195,0.072707,0.140401,0.341971,0.343813,0.483694,-0.885554,-0.091987,-0.296181,0.444480,-1.272870,-0.002024,0.008780,-0.059051,-0.025400,0.964639,0.290896,0.126620,0.135662,0.147112,-0.411318,-0.198523,-0.656488
-0.241879,-0.027664,-0.505574,0.373211,0.066521,-0.093908,0.222688,0.078140,0.142358,0.216111,0.334624,0.489481,-0.875314,-0.089511,-0.303061,0.444092,-1.258303,-0.014667,0.025289,-0.058848,-0.027690,0.960595,0.290873,0.137498,0.136501,0.156277,-0.402689,-0.217752,-0.652779
-0.221734,-0.010773,-0.501883,0.371087,0.053757,-0.092166,0.191529,0.084161,0.146628,0.118184,0.328390,0.490852,-0.858371,-0.102348,-0.312316,0.448705,-1.237547,-0.023829,0.042832,-0.060863,-0.033375,0.953164,0.288377,0.148193,0.138946,0.165387,-0.389456,-0.239175,-0.644703
-0.215732,0.006708,-0.499860,0.371309,0.034285,-0.093909,0.201800,0.086168,0.153075,0.090883,0.326750,0.485324,-0.830118,-0.114793,-0.323675,0.457648,-1.211043,-0.038142,0.062839,-0.066879,-0.044043,0.946194,0.280292,0.155017,0.147214,0.173197,-0.368315,-0.260524,-0.626445
-0.215732,0.024483,-0.498671,0.371309,0.011459,-0.097394,0.232787,0.086168,0.160609,0.098898,0.326750,0.476347,-0.796211,-0.127041,-0.336085,0.468756,-1.181666,-0.055032,0.084077,-0.074895,-0.057203,0.939454,0.269413,0.159906,0.158394,0.180357,-0.343220,-0.281836,-0.603097
-0.239881,0.030741,-0.494091,0.367378,-0.022158,-0.102509,0.271883,0.083727,0.160406,0.177876,0.339607,0.452447,-0.743434,-0.137900,-0.350557,0.483774,-1.149101,-0.032309,0.110105,-0.091453,-0.068245,0.940386,0.260986,0.158305,0.179509,0.182793,-0.310579,-0.288859,-0.562547
-0.259190,0.037904,-0.484856,0.358457,-0.056536,-0.107968,0.301294,0.082784,0.159540,0.252339,0.352879,0.424115,-0.685266,-0.139427,-0.364615,0.498012,-1.112157,-0.022277,0.135306,-0.109881,-0.077046,0.944244,0.259662,0.156374,0.198291,0.183331,-0.277553,-0.287433,-0.514734
-0.270245,0.046878,-0.466308,0.341420,-0.092434,-0.114117,0.311332,0.085286,0.157552,0.317768,0.367855,0.386922,-0.616315,-0.122291,-0.377846,0.510688,-1.066454,-0.037631,0.158853,-0.132046,-0.081365,0.953023,0.272543,0.156374,0.212408,0.180071,-0.243756,-0.269111,-0.452398
-0.276732,0.056034,-0.443955,0.323013,-0.125539,-0.117672,0.314266,0.084732,0.154868,0.375761,0.386469,0.344832,-0.544818,-0.101003,-0.389237,0.518594,-1.009383,-0.051437,0.175247,-0.154785,-0.083024,0.961793,0.302756,0.156882,0.217114,0.175971,-0.205580,-0.234305,-0.371670
-0.280936,0.065279,-0.419699,0.303920,-0.157248,-0.119931,0.313854,0.082651,0.151835,0.430036,0.406903,0.300293,-0.472045,-0.077640,-0.399707,0.523448,-0.946626,-0.064468,0.188063,-0.177811,-0.083243,0.970557,0.341637,0.158939,0.217755,0.171450,-0.165213,-0.191254,-0.281743
-0.284505,0.058057,-0.395822,0.286921,-0.187736,-0.122211,0.321245,0.075617,0.147790,0.483445,0.455528,0.251349,-0.414386,-0.106427,-0.410334,0.523448,-0.881873,-0.062739,0.179723,-0.200104,-0.074264,0.976796,0.409385,0.148645,0.211944,0.168364,-0.108093,-0.140700,-0.183434
-0.280049,0.044864,-0.371229,0.267014,-0.218476,-0.126240,0.330617,0.067778,0.146230,0.524411,0.517858,0.201047,-0.361770,-0.134952,-0.410241,0.521609,-0.820244,-0.056713,0.163301,-0.222855,-0.059615,0.982490,0.486664,0.129918,0.192511,0.162988,-0.051895,-0.091163,-0.084975
-0.259540,0.019729,-0.345209,0.241294,-0.249716,-0.133763,0.343950,0.058330,0.149641,0.540482,0.607592,0.148034,-0.319245,-0.162946,-0.388707,0.518090,-0.764873,-0.042091,0.130715,-0.246522,-0.033625,0.987095,0.582996,0.094327,0.145833,0.153033,0.002455,-0.043668,0.013775
-0.221485,-0.016856,-0.324670,0.205127,-0.285967,-0.142441,0.351418,0.037412,0.161540,0.527152,0.724438,0.095092,-0.282020,-0.179799,-0.316055,0.514135,-0.714743,-0.022572,0.079222,-0.273575,0.004983,0.985081,0.687323,0.052561,0.074491,0.142028,0.027031,-0.010503,0.092418
-0.174657,-0.059165,-0.306872,0.163737,-0.324721,-0.151695,0.355953,0.010760,0.177683,0.499121,0.854836,0.042188,-0.247447,-0.191079,-0.217846,0.509963,-0.667235,-0.000605,0.018277,-0.302320,0.049898,0.979759,0.795643,0.007710,-0.009180,0.130498,0.036718,0.015495,0.161003
-0.128228,-0.086310,-0.304249,0.118274,-0.381303,-0.155997,0.344444,-0.049344,0.199023,0.467866,0.959786,-0.014322,-0.207323,-0.201714,-0.133639,0.502665,-0.622800,0.020820,-0.069204,-0.346878,0.093559,0.974606,0.885041,-0.021715,-0.064514,0.123492,0.031765,0.021817,0.187956
-0.087942,-0.108173,-0.304820,0.075861,-0.428795,-0.157223,0.329508,-0.109150,0.217320,0.438129,1.050355,-0.072141,-0.163780,-0.210544,-0.086451,0.493122,-0.579027,0.041032,-0.136190,-0.393863,0.130467,0.970274,0.961666,-0.042809,-0.110489,0.117971,0.029967,0.026031,0.210141
-0.059943,-0.119468,-0.311776,0.039545,-0.458104,-0.152295,0.307724,-0.168359,0.229532,0.411429,1.112160,-0.132578,-0.113400,-0.215764,-0.113303,0.479093,-0.536579,0.058814,-0.162181,-0.445701,0.153870,0.967582,1.012741,-0.047240,-0.137745,0.115425,0.034478,0.026031,0.222788
-0.037921,-0.137951,-0.320741,0.009133,-0.456700,-0.142605,0.282509,-0.208477,0.235990,0.382081,1.154814,-0.191763,-0.058955,-0.216027,-0.137166,0.458810,-0.494491,0.073809,-0.166045,-0.492819,0.167454,0.962971,1.045186,-0.035380,-0.157084,0.116819,0.041137,0.024434,0.233939
-0.018888,-0.160028,-0.330709,-0.018326,-0.439938,-0.130534,0.255578,-0.239047,0.239572,0.351410,1.187888,-0.250319,-0.002478,-0.213810,-0.159534,0.435401,-0.452584,0.087409,-0.158845,-0.537575,0.176128,0.957400,1.068314,-0.015373,-0.172464,0.120185,0.048869,0.022108,0.244342
0.002434,-0.192686,-0.340057,-0.041715,-0.394715,-0.117698,0.226328,-0.246731,0.240218,0.314608,1.193471,-0.294593,0.053810,-0.207842,-0.161359,0.406524,-0.412349,0.097723,-0.131372,-0.561984,0.183699,0.937972,1.072602,0.018076,-0.172464,0.127187,0.051139,0.017604,0.248717
0.025254,-0.225740,-0.350357,-0.063514,-0.345799,-0.105462,0.196920,-0.250998,0.240865,0.277139,1.189409,-0.331885,0.106596,-0.202020,-0.164826,0.379685,-0.373393,0.107501,-0.100170,-0.581205,0.189574,0.912086,1.073762,0.050302,-0.169488,0.133708,0.051855,0.012245,0.254336
0.051069,-0.259584,-0.362561,-0.082133,-0.289499,-0.094425,0.167200,-0.250998,0.240865,0.238336,1.166059,-0.355212,0.152378,-0.196491,-0.171580,0.356926,-0.336994,0.116207,-0.061510,-0.590048,0.189574,0.873283,1.068666,0.080082,-0.161317,0.139267,0.051855,0.005175,0.262444
0.077911,-0.291177,-0.375725,-0.098044,-0.235843,-0.082981,0.139428,-0.248857,0.242159,0.200342,1.123693,-0.369546,0.187095,-0.192309,-0.180999,0.342067,-0.306774,0.124510,-0.027453,-0.600111,0.195777,0.823280,1.065452,0.098755,-0.152232,0.140793,0.052492,-0.002372,0.276267
0.105265,-0.321643,-0.389368,-0.112600,-0.183511,-0.071332,0.112632,-0.246929,0.243521,0.162753,1.071819,-0.379383,0.216277,-0.188802,-0.191751,0.331160,-0.279644,0.132610,0.004300,-0.610783,0.203839,0.767678,1.063179,0.111874,-0.142691,0.140793,0.054642,-0.010157,0.292948
0.127774,-0.348486,-0.401527,-0.124938,-0.142597,-0.057698,0.090919,-0.245062,0.246428,0.134538,0.994801,-0.386321,0.229099,-0.189046,-0.196646,0.330436,-0.264426,0.142203,0.019635,-0.631054,0.223105,0.704993,1.062545,0.112747,-0.131695,0.134333,0.059404,-0.015757,0.309253
0.146160,-0.373462,-0.412708,-0.136821,-0.105219,-0.043277,0.068607,-0.244763,0.249391,0.113107,0.909379,-0.393943,0.238585,-0.192252,-0.197895,0.331075,-0.252431,0.151084,0.031275,-0.652785,0.243458,0.643838,1.059657,0.114054,-0.123861,0.127015,0.063839,-0.020699,0.323409
0.156297,-0.394705,-0.421932,-0.147793,-0.074910,-0.027284,0.045097,-0.244763,0.252464,0.105247,0.807155,-0.402933,0.241401,-0.201135,-0.191850,0.335160,-0.246883,0.158540,0.035526,-0.677433,0.265984,0.585747,1.052895,0.115359,-0.122353,0.117326,0.067618,-0.024322,0.333265
0.159676,-0.410069,-0.427915,-0.158111,-0.050323,-0.010889,0.022360,-0.248979,0.255555,0.109886,0.689299,-0.414558,0.241770,-0.214700,-0.178094,0.339616,-0.246307,0.166949,0.039749,-0.703785,0.289064,0.535560,1.041186,0.118604,-0.126270,0.107729,0.069269,-0.028365,0.335188
0.159676,-0.422492,-0.432278,-0.168103,-0.028597,0.005706,0.000009,-0.253883,0.258655,0.120775,0.563631,-0.427500,0.241770,-0.230604,-0.160484,0.344256,-0.248217,0.175833,0.043958,-0.730988,0.312420,0.489326,1.027004,0.122819,-0.132900,0.098178,0.069269,-0.032617,0.333146
0.161642,-0.423121,-0.429192,-0.178489,-0.013810,0.020600,-0.020762,-0.274841,0.262468,0.136376,0.427550,-0.442231,0.238609,-0.248440,-0.147703,0.344822,-0.256681,0.181463,0.044543,-0.758434,0.335790,0.461122,1.011296,0.124327,-0.137624,0.092303,0.065618,-0.037943,0.318284
0.165728,-0.423279,-0.424354,-0.187262,0.002728,0.035543,-0.040803,-0.293472,0.267073,0.150972,0.299664,-0.456090,0.234803,-0.266216,-0.138732,0.343991,-0.266722,0.185837,0.056338,-0.784661,0.358144,0.439656,0.997001,0.124365,-0.139789,0.087673,0.060954,-0.042744,0.303079
0.174761,-0.421864,-0.416011,-0.192810,0.022770,0.050584,-0.059384,-0.307444,0.273262,0.163557,0.188171,-0.468202,0.228567,-0.283871,-0.137381,0.339805,-0.279918,0.187699,0.089970,-0.808453,0.378467,0.431667,0.985530,0.124365,-0.139789,0.085532,0.055049,-0.046492,0.287185
0.184831,-0.420092,-0.406342,-0.195711,0.044042,0.065414,-0.078993,-0.283943,0.281077,0.181517,0.118291,-0.477065,0.219438,-0.302947,-0.147252,0.332928,-0.295772,0.190682,0.128003,-0.828442,0.395658,0.436568,0.975989,0.122232,-0.135050,0.083887,0.047913,-0.049294,0.269642
0.195417,-0.418141,-0.396011,-0.197289,0.065927,0.080138,-0.099113,-0.241706,0.289705,0.202164,0.069224,-0.484302,0.208864,-0.322732,-0.162734,0.324705,-0.312954,0.194224,0.168234,-0.846527,0.411280,0.447914,0.967659,0.120952,-0.129417,0.082008,0.040162,-0.051623,0.251274
0.203683,-0.435128,-0.386276,-0.195622,0.076155,0.096607,-0.117720,-0.201269,0.301382,0.241195,0.139393,-0.487287,0.189304,-0.351529,-0.158879,0.306822,-0.334595,0.197247,0.136582,-0.856130,0.424885,0.482137,0.967659,0.120952,-0.115827,0.082008,0.029644,-0.050176,0.227660
0.208732,-0.448963,-0.380268,-0.189668,0.084442,0.114809,-0.136730,-0.175083,0.312913,0.284235,0.204243,-0.486481,0.165626,-0.378340,-0.135054,0.292220,-0.355565,0.198083,0.102423,-0.865216,0.437735,0.518980,0.973282,0.121870,-0.102854,0.078597,0.020667,-0.045263,0.207433
0.207345,-0.456492,-0.381716,-0.175138,0.088848,0.136474,-0.156547,-0.175083,0.324150,0.335290,0.258451,-0.478091,0.133710,-0.401178,-0.071291,0.284181,-0.375191,0.194546,0.063254,-0.873267,0.449078,0.561061,0.989414,0.123215,-0.091117,0.071209,0.014771,-0.033418,0.193982
0.197275,-0.462110,-0.384138,-0.161055,0.083625,0.154627,-0.167504,-0.192616,0.334494,0.403732,0.314444,-0.459636,0.095305,-0.417807,-0.047399,0.280606,-0.390229,0.182621,0.038588,-0.877123,0.452860,0.607022,1.017884,0.114200,-0.084912,0.059523,0.011819,-0.013031,0.183922
0.182864,-0.466772,-0.387047,-0.147198,0.073587,0.171023,-0.174030,-0.217755,0.344391,0.480866,0.371327,-0.436149,0.053655,-0.431332,-0.043446,0.280606,-0.402972,0.166504,0.021175,-0.878882,0.452860,0.654923,1.052520,0.100005,-0.081475,0.045688,0.010338,0.011627,0.175560
0.157822,-0.459896,-0.379346,-0.144361,0.064247,0.174535,-0.163770,-0.229104,0.352867,0.591834,0.427694,-0.394810,0.006618,-0.420050,-0.082658,0.287673,-0.403439,0.110186,-0.003855,-0.861944,0.431814,0.688357,1.096135,0.049174,-0.094391,0.032330,0.015339,0.043942,0.160890
0.121220,-0.441864,-0.371384,-0.145123,0.055178,0.176358,-0.149568,-0.237775,0.360021,0.720516,0.467111,-0.348934,-0.037379,-0.371797,-0.119256,0.301977,-0.404818,0.045816,-0.024556,-0.843897,0.404328,0.712963,1.133014,-0.003562,-0.111170,0.022783,0.023231,0.068281,0.142818
0.061498,-0.401523,-0.362898,-0.153079,0.046652,0.174801,-0.127485,-0.241088,0.364533,0.884619,0.472629,-0.293986,-0.075298,-0.249606,-0.150623,0.328961,-0.407558,-0.034656,-0.036600,-0.823630,0.364970,0.719916,1.156419,-0.060106,-0.135673,0.020857,0.036901,0.076666,0.117940
-0.001168,-0.355516,-0.353797,-0.145435,0.042522,0.172666,-0.099149,-0.248905,0.369370,1.027534,0.467431,-0.237326,-0.108983,-0.148506,-0.174302,0.361052,-0.412918,-0.089557,-0.040273,-0.806031,0.325242,0.726640,1.168254,-0.096771,-0.146751,0.021031,0.046807,0.075241,0.092599
-0.065305,-0.306679,-0.344390,-0.129991,0.040591,0.170242,-0.067686,-0.258973,0.374371,1.159847,0.456874,-0.179812,-0.140552,-0.057957,-0.194135,0.395695,-0.419590,-0.131671,-0.040273,-0.789767,0.285329,0.733250,1.174303,-0.123495,-0.151116,0.021031,0.054829,0.068910,0.067028
-0.115663,-0.261071,-0.328949,-0.099493,0.040591,0.159798,-0.036137,-0.265269,0.366906,1.224879,0.436500,-0.118951,-0.168919,-0.065471,-0.208678,0.426569,-0.423579,-0.097657,-0.039930,-0.764977,0.249349,0.753890,1.176296,-0.122776,-0.127968,0.023604,0.048434,0.065856,0.047414
-0.163774,-0.213437,-0.312495,-0.070277,0.041516,0.148064,-0.006615,-0.271329,0.357053,1.275538,0.409290,-0.057072,-0.196117,-0.074507,-0.221018,0.454840,-0.426946,-0.064396,-0.039398,-0.733811,0.214933,0.777052,1.175196,-0.113393,-0.094667,0.028079,0.037732,0.063360,0.026796
-0.207389,-0.161751,-0.294017,-0.043629,0.043188,0.133751,0.018852,-0.276918,0.342425,1.297453,0.368408,0.006843,-0.220976,-0.086584,-0.228954,0.477904,-0.426946,-0.032647,-0.039398,-0.689894,0.183645,0.805261,1.167908,-0.087403,-0.041062,0.037992,0.018417,0.061980,0.004172
-0.250235,-0.110858,-0.272168,-0.030836,0.043482,0.121207,0.035015,-0.282257,0.325084,1.295038,0.321097,0.063165,-0.240447,-0.093884,-0.234427,0.492628,-0.431546,-0.010255,-0.035557,-0.639852,0.157685,0.839324,1.148593,-0.063119,0.000666,0.052221,0.005559,0.060589,-0.010941
-0.292695,-0.060364,-0.248635,-0.024970,0.043482,0.109550,0.046526,-0.287472,0.306387,1.280456,0.270572,0.115688,-0.257223,-0.098795,-0.238667,0.503182,-0.437386,0.007459,-0.030490,-0.586749,0.134389,0.876313,1.123265,-0.039690,0.036452,0.068607,-0.004070,0.059194,-0.022298
-0.328562,-0.011091,-0.217573,-0.033789,0.041117,0.098219,0.048847,-0.291743,0.287625,1.231645,0.217962,0.158688,-0.265196,-0.109788,-0.241041,0.511812,-0.449817,0.005554,-0.022742,-0.527481,0.122613,0.908404,1.085104,-0.026166,0.055564,0.087436,-0.007590,0.057537,-0.028082
-0.361123,0.035379,-0.185373,-0.040920,0.039119,0.087319,0.051336,-0.295053,0.270795,1.173992,0.172251,0.198533,-0.271772,-0.123257,-0.246305,0.521272,-0.464244,0.002889,-0.015717,-0.467710,0.115259,0.937249,1.044703,-0.015797,0.072852,0.106566,-0.011559,0.055129,-0.034081
-0.387073,0.076242,-0.150901,-0.044674,0.039119,0.077283,0.051336,-0.295053,0.257832,1.098655,0.140341,0.232070,-0.275558,-0.141678,-0.257346,0.532393,-0.482660,-0.001295,-0.010139,-0.406932,0.115259,0.959603,0.999825,-0.011738,0.086492,0.126300,-0.016426,0.051218,-0.040509
-0.408335,0.105204,-0.117156,-0.038986,0.039301,0.070405,0.057495,-0.294308,0.247238,1.007732,0.129137,0.259721,-0.280750,-0.153620,-0.276185,0.543323,-0.503690,-0.000523,-0.004839,-0.350036,0.121539,0.977314,0.955552,-0.018530,0.098467,0.140470,-0.023387,0.045264,-0.048505
-0.427251,0.128214,-0.083776,-0.028577,0.039301,0.065105,0.065320,-0.292497,0.237828,0.909018,0.129137,0.284428,-0.286644,-0.162323,-0.298924,0.554156,-0.526027,0.002728,0.000321,-0.295082,0.130217,0.992704,0.911583,-0.030748,0.109608,0.151857,-0.031394,0.038289,-0.057285
-0.435721,0.146930,-0.056905,-0.016258,0.041873,0.061075,0.073082,-0.294265,0.228408,0.779899,0.129035,0.303784,-0.294536,-0.147544,-0.321081,0.561834,-0.546449,0.014188,0.006567,-0.250704,0.141987,1.003555,0.871994,-0.057199,0.117351,0.153402,-0.041116,0.031705,-0.068445
-0.439384,0.167311,-0.032244,-0.006843,0.044988,0.056598,0.073801,-0.296566,0.218697,0.640993,0.125969,0.322508,-0.301205,-0.121731,-0.341006,0.568340,-0.564432,0.022266,0.013194,-0.209539,0.152093,1.012383,0.833679,-0.080299,0.123521,0.154432,-0.049615,0.025823,-0.078517
-0.433432,0.191019,-0.012003,-0.003237,0.050750,0.051229,0.060434,-0.299932,0.208404,0.482512,0.115378,0.339970,-0.305429,-0.073848,-0.356467,0.572500,-0.577537,0.023578,0.020582,-0.174800,0.158870,1.017164,0.797911,-0.096696,0.126549,0.154432,-0.055665,0.021343,-0.086414
-0.421447,0.212680,0.007240,0.001660,0.057691,0.044377,0.035693,-0.298800,0.197567,0.325420,0.107625,0.357585,-0.305662,-0.032287,-0.371394,0.574345,-0.584384,0.030660,0.027121,-0.147308,0.163662,1.018758,0.761202,-0.103948,0.127558,0.153338,-0.057682,0.015918,-0.091257
-0.406446,0.233317,0.025985,0.007202,0.065220,0.036785,0.005265,-0.295419,0.186459,0.169026,0.101290,0.375278,-0.303900,0.006110,-0.386054,0.574804,-0.588101,0.040627,0.033237,-0.123438,0.167461,1.019000,0.724023,-0.107434,0.127637,0.152374,-0.057146,0.010020,-0.094574
-0.393929,0.242926,0.044813,0.018190,0.062946,0.024253,-0.001179,-0.282723,0.179695,0.078928,0.120395,0.390931,-0.299467,-0.043672,-0.411289,0.571213,-0.584786,0.008590,0.040205,-0.111223,0.174990,1.015113,0.685400,-0.107434,0.126001,0.149078,-0.054761,-0.000736,-0.096825
-0.393532,0.249721,0.058858,0.026214,0.055677,0.009049,0.004322,-0.272817,0.174377,0.039269,0.146093,0.403591,-0.295143,-0.076221,-0.438382,0.567617,-0.578941,-0.017596,0.049577,-0.105101,0.183622,1.011550,0.648673,-0.107006,0.124089,0.145324,-0.052999,-0.013366,-0.099282
-0.417377,0.250890,0.063341,0.026214,0.038419,-0.011499,0.033711,-0.268493,0.171955,0.100482,0.184977,0.410263,-0.291038,-0.074307,-0.469191,0.564011,-0.568036,-0.032080,0.063759,-0.111168,0.194458,1.008636,0.615737,-0.103298,0.121626,0.140655,-0.052999,-0.029743,-0.102151
-0.438530,0.254060,0.066119,0.015688,0.014201,-0.035172,0.053277,-0.268811,0.170530,0.172094,0.227838,0.407139,-0.275583,-0.047647,-0.499012,0.559705,-0.553291,-0.033885,0.078711,-0.127953,0.203574,1.011237,0.585971,-0.094580,0.119177,0.133502,-0.055724,-0.046387,-0.105392
-0.458336,0.258228,0.068044,-0.001149,-0.013495,-0.060406,0.067930,-0.271451,0.170530,0.248904,0.272686,0.399116,-0.254452,-0.008613,-0.528339,0.555050,-0.536626,-0.029349,0.094048,-0.150098,0.211830,1.016596,0.557790,-0.083356,0.116734,0.125106,-0.060070,-0.063164,-0.108819
-0.466346,0.252317,0.081182,-0.018192,-0.042884,-0.079960,0.070099,-0.267180,0.172015,0.312510,0.340025,0.379143,-0.222766,0.010047,-0.554929,0.542379,-0.519151,-0.027735,0.095829,-0.170637,0.226411,1.021615,0.543007,-0.064061,0.119018,0.117472,-0.070988,-0.075926,-0.109372
-0.470377,0.243863,0.092906,-0.033109,-0.072581,-0.096792,0.074830,-0.263194,0.177521,0.375234,0.418414,0.356823,-0.190690,0.017849,-0.573673,0.527468,-0.501113,-0.016255,0.090761,-0.190528,0.241606,1.024566,0.534093,-0.045494,0.119875,0.111177,-0.082034,-0.086584,-0.106092
-0.466449,0.230324,0.101798,-0.043776,-0.102893,-0.108182,0.084689,-0.259780,0.189835,0.436195,0.518898,0.329809,-0.157834,0.003931,-0.576721,0.508076,-0.481950,0.014957,0.071996,-0.209123,0.258028,1.023382,0.536915,-0.028387,0.117878,0.107561,-0.093338,-0.093034,-0.094591
-0.441603,0.199076,0.105207,-0.057386,-0.135599,-0.117940,0.092367,-0.247034,0.205044,0.467126,0.657912,0.300607,-0.127022,-0.016503,-0.525803,0.488440,-0.462289,0.040329,0.036194,-0.232401,0.276156,1.017806,0.546288,-0.025416,0.107246,0.104172,-0.095337,-0.094353,-0.074131
-0.406298,0.158973,0.105207,-0.072467,-0.169500,-0.126881,0.098954,-0.229623,0.221699,0.483041,0.816186,0.270312,-0.097234,-0.040196,-0.447903,0.468684,-0.442380,0.062779,-0.008125,-0.258019,0.295137,1.010033,0.558936,-0.029514,0.092298,0.100895,-0.092685,-0.094353,-0.049190
-0.352762,0.079554,0.095423,-0.090527,-0.214142,-0.130612,0.101839,-0.212639,0.238913,0.472170,1.006138,0.233878,-0.075319,-0.064639,-0.264610,0.449927,-0.425125,0.075074,-0.031129,-0.300101,0.316536,1.004694,0.582537,-0.051183,0.065438,0.094352,-0.074039,-0.083085,-0.011924
-0.302892,0.008530,0.081935,-0.107770,-0.253077,-0.133433,0.102782,-0.199429,0.254757,0.461178,1.164898,0.192750,-0.057074,-0.087633,-0.137768,0.432202,-0.407783,0.085653,-0.050988,-0.347905,0.337366,1.002417,0.613195,-0.069855,0.039556,0.088284,-0.057322,-0.072409,0.022614
-0.260353,-0.045702,0.061927,-0.123382,-0.280598,-0.133433,0.099842,-0.193766,0.267864,0.449945,1.261278,0.142231,-0.046167,-0.107731,-0.123836,0.416540,-0.390264,0.092800,-0.064560,-0.407158,0.357060,1.006263,0.657973,-0.082533,0.015629,0.083169,-0.044462,-0.061251,0.051695
-0.217205,-0.099245,0.040328,-0.131709,-0.287355,-0.128122,0.094296,-0.186802,0.275717,0.426433,1.320536,0.081538,-0.041433,-0.122346,-0.134629,0.399789,-0.371252,0.097314,-0.078563,-0.474290,0.377273,1.018124,0.725699,-0.087161,-0.005642,0.080324,-0.037766,-0.049716,0.072539
-0.173754,-0.152442,0.017936,-0.136392,-0.283728,-0.119655,0.087449,-0.179188,0.280943,0.396781,1.361230,0.015759,-0.039786,-0.134219,-0.157784,0.382494,-0.351495,0.100513,-0.092782,-0.545359,0.397745,1.033992,0.804898,-0.087161,-0.025586,0.078615,-0.034153,-0.037991,0.089265
-0.124699,-0.205654,-0.003282,-0.134887,-0.262057,-0.103927,0.080362,-0.173597,0.281062,0.350657,1.360976,-0.050787,-0.040435,-0.138041,-0.156587,0.358020,-0.330725,0.101679,-0.074189,-0.598708,0.406772,1.044259,0.904729,-0.069512,-0.036513,0.081927,-0.038144,-0.028206,0.087205
-0.076874,-0.255878,-0.024434,-0.131773,-0.237434,-0.087408,0.072419,-0.170553,0.279795,0.304555,1.347559,-0.113413,-0.040536,-0.141166,-0.158110,0.332865,-0.310633,0.101769,-0.053208,-0.641063,0.409574,1.048170,1.000900,-0.043490,-0.048144,0.087831,-0.039627,-0.019403,0.082342
-0.031506,-0.300126,-0.045459,-0.125440,-0.206905,-0.069308,0.062764,-0.172606,0.275636,0.258493,1.308068,-0.168202,-0.040536,-0.141166,-0.165071,0.306346,-0.291898,0.099709,-0.027452,-0.661431,0.399928,1.039366,1.089759,-0.001522,-0.061184,0.098921,-0.036091,-0.012562,0.071871
0.009021,-0.337341,-0.067449,-0.119205,-0.183558,-0.053380,0.053704,-0.181331,0.270834,0.220709,1.249424,-0.212473,-0.033448,-0.145929,-0.177006,0.286124,-0.278882,0.095951,0.000097,-0.668510,0.385746,1.015005,1.154549,0.035726,-0.078248,0.109942,-0.023162,-0.008315,0.064386
0.047125,-0.371039,-0.089922,-0.113018,-0.163803,-0.038538,0.044943,-0.193393,0.265710,0.187065,1.181204,-0.251484,-0.023639,-0.152208,-0.191426,0.269052,-0.268726,0.091344,0.028541,-0.668510,0.369296,0.982867,1.207302,0.070613,-0.097323,0.120928,-0.005537,-0.005365,0.058394
0.079712,-0.396826,-0.109747,-0.110412,-0.156165,-0.028902,0.036507,-0.207448,0.261461,0.161995,1.089918,-0.284090,-0.009180,-0.162946,-0.198242,0.260416,-0.266077,0.087209,0.038541,-0.663451,0.355696,0.939859,1.226658,0.083103,-0.119148,0.125180,0.016801,-0.001911,0.057659
0.109326,-0.419389,-0.129012,-0.107863,-0.150257,-0.020057,0.027788,-0.222001,0.256694,0.141406,0.989865,-0.315029,0.007084,-0.175070,-0.201452,0.254145,-0.265362,0.083796,0.047176,-0.658199,0.342341,0.894357,1.237121,0.087630,-0.137896,0.126095,0.035816,0.002452,0.059624
0.132996,-0.435506,-0.147158,-0.107863,-0.147806,-0.012795,0.018501,-0.237550,0.250889,0.129780,0.872268,-0.342636,0.026960,-0.189968,-0.197452,0.254145,-0.268512,0.081825,0.053083,-0.653141,0.329475,0.843862,1.229800,0.076228,-0.150492,0.120337,0.048187,0.008631,0.067725
0.155597,-0.444618,-0.162910,-0.107457,-0.144881,-0.007169,0.011764,-0.251458,0.243074,0.117876,0.736826,-0.365248,0.048356,-0.205816,-0.189492,0.257102,-0.272671,0.079055,0.062720,-0.647173,0.316378,0.789979,1.212727,0.060300,-0.153346,0.110978,0.052364,0.016480,0.079983
0.177663,-0.450226,-0.177464,-0.107457,-0.141719,-0.002361,0.006304,-0.264545,0.234253,0.105833,0.592464,-0.385362,0.070510,-0.222139,-0.179552,0.262308,-0.277334,0.075887,0.074223,-0.640749,0.303164,0.734403,1.190780,0.042109,-0.151329,0.099819,0.052364,0.025163,0.094319
0.201408,-0.443852,-0.189458,-0.107731,-0.131748,0.001134,0.003550,-0.258714,0.223929,0.089895,0.430552,-0.395522,0.091655,-0.232407,-0.151079,0.272292,-0.279983,0.070880,0.074224,-0.634350,0.290154,0.675484,1.166070,0.027448,-0.130566,0.087454,0.044476,0.035336,0.106756
0.220914,-0.437138,-0.201468,-0.105683,-0.121913,0.005587,-0.000726,-0.254138,0.214310,0.082789,0.282619,-0.404784,0.109592,-0.245698,-0.124443,0.282315,-0.280861,0.064808,0.086874,-0.629038,0.277882,0.619628,1.143850,0.015482,-0.110512,0.076738,0.036620,0.044652,0.115847
0.231942,-0.429746,-0.213506,-0.099931,-0.112348,0.011953,-0.008050,-0.252074,0.206099,0.093348,0.162636,-0.412248,0.121111,-0.265036,-0.101482,0.292417,-0.280861,0.056605,0.124824,-0.625903,0.267084,0.569898,1.126614,0.008905,-0.091875,0.069321,0.028934,0.052256,0.118246
0.236842,-0.444407,-0.218947,-0.089775,-0.111071,0.022544,-0.012253,-0.266482,0.201748,0.122540,0.151804,-0.417480,0.124108,-0.295794,-0.096865,0.304629,-0.280939,0.048551,0.130353,-0.625766,0.262007,0.525228,1.114974,0.000327,-0.078255,0.061107,0.022327,0.060424,0.118109
0.238678,-0.470094,-0.221089,-0.077418,-0.113938,0.035246,-0.014895,-0.289127,0.199328,0.161048,0.195550,-0.421596,0.124108,-0.332261,-0.101421,0.317895,-0.280939,0.040571,0.119670,-0.625766,0.259791,0.483089,1.106131,-0.009252,-0.067143,0.052493,0.016260,0.068874,0.116702
0.248371,-0.491835,-0.221568,-0.053954,-0.109162,0.057054,-0.014895,-0.306259,0.204424,0.209816,0.296239,-0.416207,0.110072,-0.369299,-0.076935,0.329923,-0.285149,0.032409,0.075628,-0.631660,0.269335,0.455271,1.114533,-0.025664,-0.064339,0.038802,0.012714,0.077821,0.113876
0.257102,-0.508936,-0.223424,-0.029937,-0.102822,0.078116,-0.014723,-0.320167,0.210748,0.263913,0.393136,-0.405753,0.092804,-0.404823,-0.066523,0.340179,-0.286855,0.026317,0.037527,-0.636201,0.279933,0.435607,1.129377,-0.043263,-0.063704,0.022771,0.009254,0.086573,0.110166
0.263909,-0.516756,-0.227553,-0.004816,-0.093354,0.097689,-0.012753,-0.327627,0.219527,0.328675,0.482453,-0.385165,0.067385,-0.437322,-0.084263,0.346888,-0.285489,0.026317,0.011310,-0.639856,0.292639,0.432251,1.157104,-0.063239,-0.067409,0.002055,0.005965,0.094935,0.104689
0.255295,-0.515971,-0.232427,0.019139,-0.086860,0.109031,-0.002662,-0.337991,0.226871,0.419477,0.553303,-0.357393,0.039308,-0.459918,-0.117600,0.351407,-0.278817,0.030353,-0.015974,-0.643252,0.296875,0.443278,1.183695,-0.080359,-0.075792,-0.017512,0.004291,0.100953,0.095917
0.238969,-0.510882,-0.237673,0.042510,-0.081853,0.116257,0.011488,-0.349808,0.233497,0.523298,0.614917,-0.326029,0.009904,-0.477563,-0.158735,0.354829,-0.269493,0.037382,-0.043792,-0.646520,0.296875,0.461496,1.209717,-0.096050,-0.086513,-0.036505,0.004291,0.105799,0.085498
0.178927,-0.474692,-0.240090,0.065477,-0.071366,0.118602,0.024597,-0.360202,0.236130,0.695024,0.617545,-0.296337,-0.012340,-0.389285,-0.186413,0.356582,-0.261944,0.063354,-0.056424,-0.656569,0.291498,0.492722,1.214432,-0.102446,-0.098052,-0.041429,0.005609,0.101828,0.068751
0.117253,-0.434430,-0.238789,0.092478,-0.057229,0.121100,0.040639,-0.369729,0.240607,0.861297,0.612186,-0.269438,-0.033841,-0.304596,-0.210839,0.357285,-0.255984,0.082610,-0.066520,-0.666003,0.288680,0.528055,1.213912,-0.101921,-0.102185,-0.040994,0.005203,0.092939,0.052096
0.052313,-0.386022,-0.230051,0.127554,-0.035790,0.123905,0.062549,-0.377523,0.248776,1.016670,0.590852,-0.248123,-0.053858,-0.227082,-0.228763,0.355889,-0.255984,0.088432,-0.071543,-0.674205,0.292070,0.571603,1.202922,-0.087552,-0.091503,-0.029841,0.000196,0.074211,0.035621
-0.001984,-0.338656,-0.215067,0.143398,-0.019140,0.119446,0.074497,-0.379287,0.255456,1.128964,0.567359,-0.226739,-0.077233,-0.194390,-0.244154,0.352423,-0.256131,0.099201,-0.073218,-0.675784,0.303252,0.623290,1.191966,-0.061285,-0.072485,-0.016607,-0.008142,0.053219,0.022391
-0.050958,-0.291813,-0.196962,0.149625,-0.004884,0.111354,0.081462,-0.378037,0.261391,1.219714,0.542787,-0.205321,-0.102288,-0.184110,-0.258279,0.347922,-0.257743,0.112444,-0.073218,-0.674051,0.318330,0.679046,1.181027,-0.029068,-0.049300,-0.002333,-0.018147,0.031097,0.010785
-0.097359,-0.248996,-0.174972,0.129597,0.003086,0.097832,0.082322,-0.371584,0.261036,1.260832,0.512622,-0.181980,-0.132682,-0.187296,-0.265637,0.339364,-0.260048,0.100569,-0.069627,-0.662353,0.334848,0.746120,1.173976,0.013731,-0.029331,0.015051,-0.028239,0.015677,0.002397
-0.141545,-0.205033,-0.152299,0.107744,0.011222,0.084117,0.084263,-0.364064,0.259802,1.289027,0.479316,-0.156787,-0.162639,-0.188907,-0.271464,0.331850,-0.262644,0.086555,-0.065662,-0.647236,0.349902,0.811724,1.165855,0.049650,-0.014991,0.032565,-0.035855,0.004855,-0.004251
-0.181304,-0.158775,-0.128259,0.082238,0.019688,0.070016,0.087507,-0.354408,0.257167,1.289027,0.439723,-0.127890,-0.191723,-0.188907,-0.274231,0.326425,-0.265822,0.068265,-0.060690,-0.625277,0.362027,0.874393,1.155591,0.071807,-0.011911,0.050341,-0.038517,0.003229,-0.007420
-0.216801,-0.113251,-0.103655,0.060787,0.027995,0.056189,0.093929,-0.343814,0.252596,1.267507,0.398869,-0.096178,-0.217794,-0.190634,-0.275899,0.325618,-0.270578,0.052743,-0.055484,-0.598103,0.370108,0.928394,1.140497,0.075736,-0.014324,0.068737,-0.037356,0.004765,-0.007376
-0.250164,-0.068096,-0.078770,0.041363,0.036221,0.042500,0.101940,-0.332752,0.247058,1.234053,0.357386,-0.063059,-0.242357,-0.193993,-0.275899,0.325618,-0.276123,0.038606,-0.050161,-0.568322,0.376166,0.978058,1.122988,0.070551,-0.019484,0.087442,-0.034283,0.007881,-0.005726
-0.280958,-0.028382,-0.057191,0.032261,0.042927,0.029498,0.113758,-0.323724,0.240242,1.175683,0.320886,-0.029519,-0.264578,-0.197406,-0.280264,0.336413,-0.284936,0.033690,-0.046534,-0.542827,0.382083,1.013482,1.098482,0.049903,-0.020031,0.103670,-0.031346,0.007881,-0.001816
-0.310847,0.009533,-0.036980,0.027603,0.050667,0.018218,0.127070,-0.315325,0.233298,1.110765,0.285470,0.003650,-0.286571,-0.200479,-0.284425,0.348118,-0.294727,0.031258,-0.042593,-0.520428,0.388226,1.043162,1.072261,0.030717,-0.018595,0.118558,-0.029584,0.006291,0.001356
-0.338929,0.043851,-0.019505,0.031832,0.060476,0.010382,0.143374,-0.308181,0.226098,1.032748,0.252219,0.036076,-0.308110,-0.202868,-0.289672,0.363645,-0.306472,0.033792,-0.038020,-0.504223,0.394819,1.061355,1.042611,0.014453,-0.012645,0.130768,-0.029584,0.001003,0.003050
-0.362075,0.074450,-0.004046,0.038664,0.070068,0.004143,0.162025,-0.300731,0.217954,0.939272,0.223148,0.069309,-0.328574,-0.200808,-0.295969,0.380450,-0.318462,0.037780,-0.033794,-0.491031,0.400755,1.068652,1.011370,0.010358,-0.005240,0.141702,-0.031619,-0.007543,0.001863
-0.382752,0.103188,0.010405,0.046797,0.079551,-0.001296,0.181851,-0.293129,0.209337,0.838069,0.196168,0.102944,-0.348502,-0.196523,-0.302793,0.397895,-0.330576,0.042496,-0.029741,-0.479347,0.406363,1.070500,0.979334,0.012348,0.002892,0.151998,-0.034380,-0.017716,-0.000764
-0.394391,0.126469,0.021256,0.048707,0.087170,-0.005586,0.195968,-0.285514,0.199968,0.710572,0.175697,0.135225,-0.366586,-0.178685,-0.313774,0.414597,-0.340757,0.047610,-0.029518,-0.467963,0.407982,1.061158,0.948970,0.025533,0.011199,0.160155,-0.038378,-0.034003,-0.006287
-0.403096,0.148929,0.031271,0.048151,0.094537,-0.008896,0.204995,-0.277975,0.190471,0.574975,0.156612,0.166571,-0.382894,-0.150822,-0.324671,0.429923,-0.349824,0.053912,-0.028881,-0.455619,0.407836,1.051225,0.919668,0.038692,0.019807,0.167362,-0.042706,-0.053069,-0.012665
-0.403096,0.169748,0.039614,0.042661,0.101399,-0.010250,0.204995,-0.270585,0.180716,0.423166,0.140300,0.196050,-0.395651,-0.102907,-0.335403,0.442499,-0.356663,0.062587,-0.027638,-0.441356,0.404159,1.040109,0.892487,0.051796,0.029018,0.172668,-0.047693,-0.077693,-0.020754
-0.397653,0.187781,0.047929,0.033427,0.105607,-0.011215,0.193933,-0.262446,0.171021,0.266950,0.132397,0.220261,-0.403893,-0.050252,-0.348027,0.450216,-0.361514,0.063097,-0.024595,-0.425442,0.398397,1.033239,0.866721,0.058909,0.037400,0.174962,-0.051288,-0.099057,-0.028786
-0.388073,0.204420,0.056230,0.022322,0.108489,-0.011215,0.177915,-0.253931,0.161355,0.108534,0.128700,0.241837,-0.409878,0.004773,-0.361598,0.455503,-0.365372,0.059523,-0.020651,-0.408703,0.391592,1.028494,0.841663,0.063026,0.045367,0.174962,-0.054186,-0.118790,-0.036791
-0.390925,0.219427,0.063794,0.014441,0.107684,-0.010841,0.159865,-0.244249,0.156478,0.041089,0.144824,0.255583,-0.408171,-0.049754,-0.385505,0.455550,-0.368381,-0.001752,-0.012438,-0.393167,0.385995,1.027879,0.818016,0.062303,0.053139,0.175768,-0.055937,-0.131169,-0.043537
-0.398909,0.231431,0.069118,0.002526,0.100210,-0.014347,0.141207,-0.236637,0.153227,0.013005,0.169970,0.265334,-0.406193,-0.087067,-0.413502,0.455055,-0.370387,-0.046870,-0.002520,-0.381157,0.381671,1.028818,0.797517,0.060375,0.061762,0.176049,-0.058533,-0.140463,-0.050078
-0.417160,0.237426,0.069118,-0.017460,0.080198,-0.027527,0.121333,-0.233167,0.153227,0.063645,0.213165,0.267094,-0.403677,-0.089943,-0.449680,0.455055,-0.370387,-0.059675,0.010806,-0.376198,0.379892,1.033481,0.783316,0.056759,0.072087,0.176049,-0.062822,-0.143589,-0.056208
-0.428853,0.237750,0.071599,-0.040208,0.050181,-0.045162,0.114129,-0.229809,0.153860,0.122766,0.274867,0.263360,-0.399011,-0.051186,-0.487171,0.452166,-0.366220,-0.043509,0.026762,-0.380306,0.383130,1.041580,0.782117,0.054111,0.083319,0.175371,-0.070592,-0.139695,-0.062398
-0.437265,0.235238,0.074898,-0.064336,0.015161,-0.065024,0.114129,-0.226508,0.155097,0.186125,0.345822,0.256879,-0.393269,0.008387,-0.525317,0.448643,-0.360270,-0.012857,0.044031,-0.388946,0.388876,1.051398,0.787420,0.051946,0.095003,0.175371,-0.080102,-0.132291,-0.068617
-0.442440,0.225619,0.081820,-0.076597,-0.023913,-0.082692,0.133085,-0.221135,0.162294,0.254153,0.433586,0.241621,-0.388451,0.048794,-0.559338,0.439780,-0.346763,-0.002729,0.053636,-0.403181,0.400292,1.063853,0.817697,0.054479,0.098088,0.174839,-0.091826,-0.119584,-0.073075
-0.443193,0.213972,0.085515,-0.087793,-0.060810,-0.097259,0.151016,-0.216080,0.171799,0.321468,0.531457,0.223887,-0.381179,0.069801,-0.578883,0.429793,-0.331887,0.019486,0.059506,-0.418235,0.409994,1.074392,0.850529,0.058790,0.093855,0.175214,-0.101068,-0.107519,-0.076691
-0.435103,0.198266,0.082754,-0.096860,-0.093356,-0.105623,0.165742,-0.211663,0.185918,0.387363,0.649550,0.201199,-0.368997,0.052011,-0.569478,0.417557,-0.314271,0.065882,0.057904,-0.434928,0.416272,1.081100,0.888474,0.066657,0.074980,0.177142,-0.105347,-0.096740,-0.076691
-0.400330,0.148168,0.077826,-0.107613,-0.124403,-0.108863,0.171831,-0.192550,0.200786,0.416229,0.824569,0.179180,-0.350622,0.027260,-0.457240,0.405609,-0.299628,0.096193,0.050396,-0.451174,0.420221,1.076592,0.914782,0.075571,0.041714,0.180970,-0.095526,-0.092334,-0.068674
-0.352217,0.080874,0.071816,-0.119209,-0.154700,-0.108863,0.173603,-0.166088,0.216029,0.426579,1.028048,0.157496,-0.329150,-0.000971,-0.293585,0.393805,-0.286473,0.118460,0.039934,-0.467197,0.423005,1.066475,0.935273,0.085008,0.001252,0.185749,-0.078656,-0.092334,-0.055685
-0.312569,0.016163,0.061704,-0.129531,-0.191007,-0.106191,0.178005,-0.156663,0.229551,0.433421,1.165239,0.130339,-0.311702,-0.025573,-0.213822,0.383135,-0.278686,0.125822,0.035410,-0.484396,0.426758,1.049096,0.955199,0.084120,-0.024600,0.185117,-0.059393,-0.094725,-0.032979
-0.274415,-0.043301,0.048833,-0.138814,-0.223441,-0.101007,0.179992,-0.152525,0.240578,0.436885,1.278816,0.100956,-0.293634,-0.047957,-0.163252,0.372243,-0.271042,0.132690,0.020618,-0.500893,0.429260,1.032349,0.979599,0.080612,-0.043481,0.182140,-0.044871,-0.095962,-0.012377
-0.239248,-0.092277,0.030443,-0.146019,-0.248128,-0.091701,0.177146,-0.158963,0.246617,0.433594,1.345168,0.067120,-0.274326,-0.065903,-0.171068,0.360908,-0.263681,0.138570,-0.014716,-0.515987,0.429260,1.016867,1.012948,0.072752,-0.048420,0.175102,-0.039830,-0.093269,0.004015
-0.202413,-0.137548,0.009857,-0.153275,-0.267152,-0.081516,0.170259,-0.171428,0.248092,0.419582,1.381693,0.034493,-0.250148,-0.078392,-0.182174,0.348165,-0.255486,0.143466,-0.044847,-0.522808,0.419544,0.998519,1.047795,0.066171,-0.049024,0.166823,-0.040608,-0.084467,0.011584
-0.164745,-0.180966,-0.011825,-0.160557,-0.283343,-0.070893,0.161353,-0.186905,0.248092,0.400209,1.403302,0.002470,-0.223536,-0.088151,-0.194925,0.334719,-0.246875,0.147869,-0.072374,-0.525492,0.406026,0.978738,1.083390,0.060230,-0.047460,0.157923,-0.044297,-0.072612,0.014741
-0.124101,-0.218662,-0.033667,-0.169069,-0.290263,-0.062344,0.146465,-0.203602,0.244625,0.370407,1.388415,-0.024258,-0.189298,-0.092645,-0.200616,0.323476,-0.239725,0.150238,-0.070535,-0.517820,0.381065,0.947846,1.106232,0.056397,-0.050768,0.150843,-0.044297,-0.055694,0.007271
-0.083033,-0.254525,-0.054099,-0.175898,-0.291716,-0.053857,0.131942,-0.218096,0.241517,0.338629,1.362129,-0.050486,-0.154302,-0.096516,-0.206171,0.314166,-0.233969,0.151336,-0.065147,-0.510733,0.356598,0.915009,1.125865,0.050375,-0.053826,0.143617,-0.042389,-0.039479,0.000145
