Lukebird17/AI3618-SONIC/reference/reference/example/dance_in_da_party_001__A464_M/joint_pos.csv
joint_0,joint_1,joint_2,joint_3,joint_4,joint_5,joint_6,joint_7,joint_8,joint_9,joint_10,joint_11,joint_12,joint_13,joint_14,joint_15,joint_16,joint_17,joint_18,joint_19,joint_20,joint_21,joint_22,joint_23,joint_24,joint_25,joint_26,joint_27,joint_28
0.102779,0.128329,-0.020106,-0.021236,0.019207,0.015591,0.137090,-0.175870,0.174060,0.050515,0.020890,-0.097011,-0.048115,-0.111185,-0.147964,0.284599,-0.249224,0.016656,-0.026958,-0.669470,0.628845,1.202646,1.214262,-0.220627,0.059114,0.045333,0.038914,0.014855,-0.153439
0.105622,0.131262,-0.020106,-0.021236,0.019207,0.015591,0.137090,-0.175870,0.174060,0.047187,0.017334,-0.108949,-0.058538,-0.111185,-0.147964,0.270362,-0.237538,0.016656,-0.026958,-0.672013,0.630663,1.224042,1.233413,-0.238346,0.072388,0.043827,0.038914,0.014855,-0.166237
0.107659,0.133217,-0.019882,-0.021767,0.019435,0.016022,0.136936,-0.175838,0.173294,0.044636,0.014963,-0.117867,-0.066030,-0.110501,-0.147409,0.259874,-0.229044,0.016416,-0.025928,-0.673708,0.631092,1.239459,1.246939,-0.253960,0.084116,0.042383,0.039627,0.014185,-0.177732
0.107659,0.133217,-0.019882,-0.021767,0.019435,0.016022,0.136936,-0.175838,0.173294,0.044636,0.014963,-0.120744,-0.067662,-0.110501,-0.147409,0.256885,-0.226936,0.016416,-0.025928,-0.673708,0.631092,1.242916,1.249216,-0.265363,0.092752,0.041062,0.039627,0.014185,-0.186623
0.108282,0.134134,-0.019747,-0.022040,0.019004,0.015828,0.136695,-0.176368,0.173616,0.044304,0.014425,-0.122260,-0.068206,-0.110522,-0.148004,0.254950,-0.225774,0.016126,-0.026095,-0.673804,0.630309,1.244069,1.249975,-0.274028,0.099377,0.039828,0.039618,0.013980,-0.193534
0.108184,0.134082,-0.019534,-0.022005,0.019053,0.016261,0.136309,-0.176708,0.174010,0.044153,0.014426,-0.123115,-0.068663,-0.110745,-0.148878,0.253456,-0.225315,0.016022,-0.026028,-0.673635,0.630667,1.243371,1.250341,-0.281325,0.104998,0.038499,0.039603,0.014715,-0.199455
0.108184,0.134082,-0.019534,-0.022005,0.019053,0.016261,0.136309,-0.176708,0.174010,0.044153,0.014426,-0.123115,-0.068663,-0.110745,-0.148878,0.253456,-0.225315,0.016022,-0.026028,-0.673635,0.630667,1.242056,1.250341,-0.285825,0.108958,0.038499,0.039603,0.014715,-0.203394
0.107474,0.133335,-0.019589,-0.022175,0.018888,0.016434,0.136196,-0.177089,0.174070,0.043796,0.014349,-0.123413,-0.069059,-0.111113,-0.149211,0.252337,-0.225233,0.016000,-0.025834,-0.673303,0.631061,1.241180,1.250707,-0.289676,0.112469,0.037963,0.039555,0.015361,-0.206868
0.107474,0.133335,-0.019589,-0.022175,0.018888,0.016434,0.136196,-0.177089,0.174070,0.043796,0.014349,-0.123413,-0.069059,-0.111113,-0.149211,0.252337,-0.225233,0.016000,-0.025834,-0.673303,0.631061,1.241180,1.250707,-0.292228,0.115083,0.037963,0.039555,0.015361,-0.209411
0.106607,0.132447,-0.019773,-0.022848,0.018234,0.016128,0.135953,-0.177527,0.173896,0.043035,0.014346,-0.123250,-0.068731,-0.110602,-0.149921,0.251297,-0.224911,0.015697,-0.025599,-0.672869,0.631246,1.241566,1.250672,-0.294114,0.117041,0.037575,0.039857,0.015780,-0.211364
0.105869,0.131374,-0.020432,-0.023265,0.017839,0.016076,0.135653,-0.177924,0.173896,0.042009,0.014131,-0.123577,-0.069617,-0.109655,-0.150354,0.250820,-0.224816,0.016171,-0.025472,-0.673867,0.631091,1.242849,1.251483,-0.295666,0.118671,0.037533,0.040323,0.015395,-0.213766
0.105869,0.131374,-0.020432,-0.023265,0.017839,0.016076,0.135653,-0.177924,0.173896,0.042009,0.014131,-0.123577,-0.069617,-0.109655,-0.150354,0.250820,-0.224816,0.016171,-0.025472,-0.673867,0.631091,1.242849,1.251483,-0.297319,0.120324,0.037533,0.040323,0.015395,-0.213766
0.105528,0.131049,-0.021458,-0.023592,0.017845,0.016363,0.135272,-0.178252,0.174201,0.041520,0.014471,-0.124203,-0.070804,-0.109235,-0.151278,0.250233,-0.224285,0.015803,-0.025781,-0.674544,0.630838,1.244650,1.252065,-0.299277,0.121881,0.037710,0.040343,0.014909,-0.214908
0.105528,0.131049,-0.021458,-0.023592,0.017845,0.016363,0.135272,-0.178252,0.174201,0.041520,0.014471,-0.124203,-0.070804,-0.109235,-0.151278,0.250233,-0.224285,0.015803,-0.025781,-0.674544,0.630838,1.244650,1.252065,-0.299277,0.123245,0.037710,0.040343,0.014909,-0.214908
0.105472,0.130959,-0.022138,-0.023869,0.017406,0.016085,0.135512,-0.178177,0.174474,0.041011,0.014151,-0.124224,-0.071480,-0.109438,-0.151992,0.250148,-0.224007,0.016245,-0.025591,-0.674449,0.629567,1.245549,1.251772,-0.300607,0.123700,0.037711,0.040189,0.014761,-0.215932
0.105472,0.130959,-0.022138,-0.023869,0.017406,0.016085,0.135512,-0.178177,0.174474,0.041011,0.014151,-0.124224,-0.071480,-0.109438,-0.151992,0.250148,-0.224007,0.016245,-0.025591,-0.674449,0.629567,1.245549,1.251772,-0.300607,0.123700,0.037711,0.040189,0.014761,-0.215932
0.104482,0.130120,-0.022277,-0.023625,0.017684,0.016323,0.135538,-0.178389,0.173712,0.040884,0.014190,-0.123907,-0.071988,-0.110080,-0.153098,0.250592,-0.223715,0.015697,-0.025223,-0.674008,0.628671,1.245941,1.251321,-0.301612,0.124007,0.037594,0.040216,0.015166,-0.217133
0.103000,0.129068,-0.022327,-0.023561,0.017689,0.016607,0.135125,-0.178768,0.172913,0.041730,0.013905,-0.124241,-0.073045,-0.111055,-0.154142,0.251022,-0.223690,0.015663,-0.024825,-0.673954,0.627366,1.245728,1.250772,-0.302574,0.124270,0.037466,0.040131,0.015512,-0.218281
0.103000,0.129068,-0.022327,-0.023561,0.017689,0.016607,0.135125,-0.178768,0.172913,0.041730,0.013905,-0.124241,-0.073045,-0.111055,-0.154142,0.251022,-0.223690,0.015663,-0.024825,-0.673954,0.627366,1.245728,1.250772,-0.302574,0.124270,0.037466,0.040131,0.015512,-0.218281
0.101646,0.128026,-0.022624,-0.023453,0.018044,0.017064,0.134809,-0.178915,0.172176,0.042493,0.014057,-0.124873,-0.074293,-0.112468,-0.155017,0.251390,-0.223159,0.015167,-0.025527,-0.673891,0.626635,1.245644,1.250692,-0.303374,0.124431,0.037467,0.040063,0.015514,-0.219204
0.100634,0.127537,-0.022098,-0.022707,0.018548,0.017965,0.134761,-0.178799,0.171802,0.043331,0.014388,-0.125379,-0.074879,-0.114130,-0.155881,0.251621,-0.222598,0.014516,-0.025665,-0.674474,0.627649,1.244786,1.251007,-0.304537,0.124316,0.037612,0.040155,0.015379,-0.219554
0.100634,0.127537,-0.022098,-0.022707,0.018548,0.017965,0.134761,-0.178799,0.171802,0.043331,0.014388,-0.126641,-0.076138,-0.114130,-0.155881,0.251621,-0.222598,0.014516,-0.025665,-0.674474,0.627649,1.244786,1.251007,-0.304537,0.124316,0.037612,0.040155,0.015379,-0.219554
0.099724,0.126719,-0.021686,-0.022432,0.018869,0.018876,0.134067,-0.178582,0.172296,0.044186,0.014479,-0.128388,-0.077919,-0.115954,-0.157206,0.251268,-0.222962,0.014158,-0.025348,-0.675093,0.629037,1.243969,1.251370,-0.305751,0.124886,0.037590,0.040214,0.014754,-0.219898
0.099724,0.126719,-0.021686,-0.022432,0.018869,0.018876,0.134067,-0.178582,0.172296,0.044186,0.014479,-0.128388,-0.077919,-0.115954,-0.157206,0.251268,-0.222962,0.014158,-0.025348,-0.675093,0.629037,1.243969,1.251370,-0.307012,0.124886,0.037590,0.040214,0.014754,-0.219898
0.099042,0.126477,-0.020939,-0.022138,0.019197,0.019266,0.133384,-0.178659,0.172610,0.045142,0.014462,-0.129665,-0.079127,-0.117873,-0.158593,0.250493,-0.221913,0.013872,-0.025736,-0.674088,0.629531,1.243016,1.251983,-0.307432,0.125494,0.036940,0.040207,0.015269,-0.220098
0.098239,0.126053,-0.020177,-0.021830,0.019512,0.019548,0.133154,-0.178900,0.172803,0.045974,0.014732,-0.130038,-0.079798,-0.119411,-0.159196,0.249627,-0.221273,0.013371,-0.025951,-0.673013,0.629145,1.241685,1.251625,-0.307726,0.126238,0.036682,0.040164,0.015643,-0.220117
0.098239,0.126053,-0.020177,-0.021830,0.019512,0.019548,0.133154,-0.178900,0.172803,0.045974,0.014732,-0.130038,-0.079798,-0.120773,-0.160679,0.249627,-0.221273,0.013371,-0.025951,-0.673013,0.629145,1.241685,1.251625,-0.307726,0.126238,0.036682,0.040164,0.015643,-0.220117
0.097301,0.125198,-0.020208,-0.021794,0.019547,0.019909,0.133185,-0.178724,0.173199,0.046292,0.014438,-0.130356,-0.080202,-0.122152,-0.162130,0.249215,-0.220916,0.013033,-0.025762,-0.672652,0.628623,1.240965,1.249940,-0.306645,0.126566,0.036643,0.039656,0.016197,-0.220140
0.097301,0.125198,-0.020208,-0.021794,0.019547,0.019909,0.133185,-0.178724,0.173199,0.046292,0.014438,-0.130356,-0.080202,-0.123565,-0.162130,0.249215,-0.220916,0.013033,-0.025762,-0.672652,0.628623,1.240965,1.249940,-0.306645,0.126566,0.036643,0.039656,0.016197,-0.220140
0.096510,0.124235,-0.021436,-0.021176,0.020193,0.019687,0.133745,-0.178585,0.173450,0.045860,0.014318,-0.130300,-0.080129,-0.124786,-0.163384,0.248252,-0.220647,0.012689,-0.025644,-0.672883,0.628375,1.241125,1.249042,-0.305714,0.126130,0.036975,0.039261,0.016227,-0.220225
0.096510,0.124235,-0.021436,-0.021176,0.020193,0.019687,0.133745,-0.178585,0.173450,0.045860,0.014318,-0.130300,-0.080129,-0.124786,-0.163384,0.248252,-0.220647,0.012689,-0.025644,-0.672883,0.628375,1.241125,1.249042,-0.305714,0.126130,0.036975,0.039261,0.016227,-0.220225
0.096943,0.123628,-0.022847,-0.021361,0.020047,0.018871,0.134766,-0.178750,0.173345,0.042821,0.013960,-0.129801,-0.080451,-0.126172,-0.165004,0.247950,-0.219767,0.012242,-0.025128,-0.673543,0.628724,1.241662,1.249477,-0.305067,0.125797,0.037612,0.039099,0.015288,-0.220192
0.099170,0.123844,-0.023723,-0.022166,0.019193,0.017753,0.136424,-0.178925,0.173894,0.039291,0.013755,-0.129356,-0.080934,-0.126148,-0.166646,0.248229,-0.219238,0.011022,-0.024659,-0.673375,0.628914,1.240924,1.250948,-0.304747,0.125650,0.038005,0.039346,0.013813,-0.220036
0.103066,0.125096,-0.023723,-0.022166,0.019193,0.017753,0.138849,-0.178925,0.173894,0.033645,0.013755,-0.129356,-0.080934,-0.124164,-0.166646,0.248229,-0.219238,0.011022,-0.024659,-0.673375,0.628914,1.240924,1.250948,-0.304747,0.125650,0.038005,0.039346,0.013813,-0.220036
0.109104,0.127477,-0.024627,-0.023639,0.017733,0.017034,0.142252,-0.178468,0.176215,0.025120,0.012460,-0.129297,-0.081850,-0.118046,-0.165203,0.249737,-0.219501,0.009259,-0.023195,-0.674483,0.628528,1.239133,1.252159,-0.305701,0.125531,0.038596,0.039555,0.012330,-0.219914
0.116214,0.130424,-0.025294,-0.023525,0.016933,0.015589,0.146145,-0.179784,0.178435,0.015156,0.011495,-0.129617,-0.082347,-0.109862,-0.161819,0.250626,-0.220301,0.007628,-0.022480,-0.675145,0.627961,1.238332,1.252201,-0.307365,0.125781,0.038137,0.038634,0.011754,-0.220802
0.114997,0.133603,-0.026647,-0.023525,0.016933,0.015589,0.151040,-0.179784,0.180222,0.019972,0.007472,-0.131605,-0.084203,-0.103749,-0.153354,0.252348,-0.220301,0.004819,-0.022480,-0.675145,0.627961,1.239633,1.252201,-0.307365,0.125781,0.038137,0.038634,0.011754,-0.220802
0.108518,0.133807,-0.028498,-0.022088,0.015498,0.013819,0.155763,-0.179919,0.181966,0.034639,0.008454,-0.133942,-0.086052,-0.100299,-0.146244,0.254236,-0.221723,0.001902,-0.022675,-0.675024,0.627467,1.239972,1.250280,-0.308309,0.125107,0.037742,0.038277,0.011865,-0.221800
0.091514,0.128059,-0.028498,-0.020483,0.012137,0.011250,0.160139,-0.179919,0.183626,0.069008,0.019446,-0.136977,-0.087886,-0.102177,-0.141848,0.256456,-0.221723,-0.001229,-0.022675,-0.673091,0.624824,1.239972,1.245634,-0.308309,0.125107,0.037742,0.038277,0.011865,-0.221800
0.071317,0.111866,-0.029447,-0.016277,0.009767,0.010730,0.162482,-0.179131,0.184853,0.107680,0.049367,-0.138300,-0.086191,-0.106386,-0.143959,0.259285,-0.224005,-0.005087,-0.024972,-0.661611,0.612938,1.227920,1.228724,-0.305649,0.123614,0.040046,0.038333,0.011363,-0.223644
0.049523,0.090451,-0.028922,-0.010770,0.007891,0.011067,0.163366,-0.178933,0.185527,0.148503,0.088755,-0.138612,-0.082732,-0.111761,-0.149325,0.262418,-0.226135,-0.009309,-0.027611,-0.645359,0.596431,1.210632,1.205682,-0.301374,0.122729,0.043866,0.038505,0.010891,-0.225628
0.028601,0.044802,-0.022708,-0.008733,0.001929,0.009874,0.164858,-0.174164,0.183756,0.177517,0.167581,-0.129350,-0.070304,-0.114034,-0.177581,0.270464,-0.236469,-0.012036,-0.032658,-0.608359,0.570697,1.153558,1.137565,-0.281558,0.119526,0.063644,0.041579,0.010891,-0.236605
0.010279,-0.003902,-0.015441,-0.009835,-0.006927,0.005215,0.167706,-0.169758,0.182315,0.201100,0.251702,-0.114345,-0.056061,-0.115000,-0.208129,0.280958,-0.248535,-0.012955,-0.038146,-0.566600,0.544947,1.079252,1.050158,-0.250680,0.110053,0.098955,0.050962,0.011338,-0.257937
-0.002845,-0.058713,-0.006070,-0.017216,-0.021570,-0.006374,0.173264,-0.166076,0.182315,0.213821,0.346409,-0.087854,-0.038189,-0.113350,-0.243262,0.296351,-0.264066,-0.012955,-0.044515,-0.515325,0.519165,0.970484,0.924171,-0.197680,0.088040,0.165332,0.072961,0.013207,-0.299979
-0.014262,-0.099492,-0.001676,-0.024490,-0.025228,-0.018615,0.176127,-0.149018,0.186233,0.226447,0.403640,-0.066562,-0.033290,-0.117323,-0.272103,0.308753,-0.271901,-0.010921,-0.044443,-0.469783,0.492447,0.857677,0.781129,-0.165435,0.077927,0.217833,0.093680,0.017750,-0.334328
-0.024827,-0.133254,0.000230,-0.031711,-0.023394,-0.031182,0.177643,-0.124741,0.192500,0.239027,0.442133,-0.047439,-0.034876,-0.124108,-0.297798,0.319660,-0.275888,-0.009219,-0.041148,-0.427108,0.465261,0.742851,0.629558,-0.143567,0.073764,0.263398,0.113758,0.023632,-0.364829
-0.043688,-0.163450,-0.004286,-0.029877,-0.021145,-0.034613,0.170138,-0.124741,0.211956,0.278298,0.494526,-0.047439,-0.056207,-0.162258,-0.303107,0.331424,-0.277748,-0.005746,-0.060312,-0.405782,0.452978,0.653186,0.483281,-0.190165,0.114255,0.232466,0.103080,0.041909,-0.387874
-0.074301,-0.198847,-0.006531,-0.026522,-0.021523,-0.036766,0.161691,-0.127266,0.234632,0.343122,0.562252,-0.054904,-0.082170,-0.208401,-0.313120,0.336320,-0.273388,-0.004226,-0.078710,-0.382745,0.442144,0.586760,0.364427,-0.278517,0.159949,0.161519,0.069951,0.045434,-0.413102
-0.128418,-0.244647,-0.004234,-0.020125,-0.027156,-0.036766,0.151356,-0.136437,0.263745,0.459051,0.660644,-0.078583,-0.117395,-0.270527,-0.332541,0.327481,-0.256591,-0.006614,-0.095577,-0.356286,0.434208,0.566812,0.300416,-0.450371,0.216049,0.010543,-0.008080,0.019456,-0.442697
-0.202939,-0.286078,-0.001421,0.004599,-0.023055,-0.023395,0.144159,-0.157143,0.284878,0.604114,0.744347,-0.093121,-0.136690,-0.323334,-0.355522,0.301354,-0.227344,-0.008048,-0.108668,-0.307909,0.404718,0.578241,0.318655,-0.629683,0.270213,-0.069306,-0.054360,-0.035922,-0.445145
-0.287664,-0.325326,0.001650,0.038488,-0.014087,-0.003539,0.138531,-0.183618,0.302021,0.763744,0.820705,-0.103089,-0.148019,-0.371482,-0.380284,0.266584,-0.191873,-0.008685,-0.119871,-0.248573,0.364450,0.605358,0.378019,-0.812725,0.323409,-0.113590,-0.084764,-0.106000,-0.434019
-0.359297,-0.334437,-0.004836,0.086666,0.002701,0.020761,0.138531,-0.213956,0.316823,0.932980,0.862340,-0.071871,-0.115392,-0.379533,-0.400199,0.241012,-0.170914,0.028570,-0.127428,-0.205932,0.315376,0.664695,0.516594,-0.941167,0.421405,-0.111457,-0.110317,-0.072640,-0.413401
-0.425368,-0.340902,-0.011280,0.128311,0.017385,0.040943,0.137553,-0.237774,0.329405,1.111283,0.902363,-0.023146,-0.060978,-0.394007,-0.419052,0.225263,-0.160087,0.059081,-0.135006,-0.164986,0.257553,0.724186,0.634693,-1.063911,0.557309,-0.109273,-0.139797,-0.014207,-0.399656
-0.480316,-0.340902,-0.017638,0.156892,0.027861,0.052888,0.133876,-0.248551,0.337548,1.307721,0.939163,0.060590,0.037012,-0.421327,-0.435783,0.229159,-0.169522,0.076106,-0.142623,-0.127428,0.182229,0.783986,0.711842,-1.175260,0.769032,-0.106984,-0.177133,0.094376,-0.399656
-0.528416,-0.337064,-0.022881,0.174245,0.037944,0.055850,0.126079,-0.254631,0.332364,1.505977,0.957255,0.180413,0.172527,-0.450284,-0.442477,0.246191,-0.191916,0.088192,-0.152028,-0.028877,0.058137,0.800437,0.698830,-1.351939,1.019623,-0.125132,-0.206820,0.233815,-0.448496
-0.573094,-0.330721,-0.027566,0.185985,0.047831,0.054320,0.115276,-0.258362,0.320518,1.705143,0.965993,0.318280,0.326804,-0.480059,-0.444152,0.269793,-0.220790,0.097809,-0.162326,0.100171,-0.090340,0.795213,0.640736,-1.561285,1.289649,-0.153500,-0.232684,0.388683,-0.522032
-0.611837,-0.318567,-0.026016,0.189342,0.055786,0.043509,0.115276,-0.255368,0.301866,1.866398,0.929271,0.453727,0.461670,-0.496966,-0.418566,0.304732,-0.262299,0.115504,-0.171376,0.270602,-0.265312,0.742463,0.575640,-1.653094,1.360047,-0.203024,-0.247300,0.482064,-0.553228
-0.651097,-0.302237,-0.021134,0.187260,0.062579,0.030830,0.115425,-0.250279,0.283797,2.009217,0.874399,0.573339,0.582290,-0.508773,-0.382545,0.347588,-0.312812,0.131801,-0.177910,0.428248,-0.431467,0.690131,0.524567,-1.710269,1.394367,-0.248016,-0.255973,0.559042,-0.573639
-0.691389,-0.277559,-0.009587,0.174299,0.067047,0.014415,0.118706,-0.241000,0.266895,2.115163,0.783227,0.661279,0.674418,-0.510383,-0.325657,0.406276,-0.381330,0.145302,-0.179412,0.560325,-0.579985,0.638637,0.501536,-1.698172,1.356533,-0.283943,-0.252759,0.603212,-0.573639
-0.730842,-0.232591,0.007542,0.155407,0.070289,-0.003444,0.128324,-0.227906,0.250437,2.180643,0.644398,0.718981,0.742789,-0.508270,-0.248378,0.481157,-0.468528,0.157189,-0.177727,0.674821,-0.713796,0.586139,0.504259,-1.649684,1.292990,-0.312921,-0.244321,0.633562,-0.573973
-0.769876,-0.177478,0.027461,0.133548,0.072918,-0.022026,0.141111,-0.212905,0.234200,2.225891,0.481739,0.762454,0.799282,-0.504294,-0.160902,0.564136,-0.565067,0.168268,-0.174449,0.780528,-0.840253,0.533139,0.519857,-1.582999,1.216593,-0.338426,-0.233271,0.657003,-0.574695
-0.807878,-0.120234,0.054533,0.109673,0.055855,-0.049941,0.177147,-0.197648,0.215546,2.209537,0.325226,0.762454,0.823993,-0.500857,-0.098751,0.675497,-0.700326,0.169613,-0.149966,0.858278,-0.934427,0.486858,0.568983,-1.493951,1.128186,-0.353536,-0.218167,0.666798,-0.588789
-0.843612,-0.073519,0.079810,0.088787,0.039443,-0.073816,0.207644,-0.190703,0.196957,2.173240,0.216433,0.745461,0.831190,-0.499995,-0.063919,0.797081,-0.850971,0.170059,-0.132077,0.922261,-1.007908,0.445874,0.623347,-1.403881,1.043279,-0.365369,-0.203700,0.672738,-0.605424
-0.874808,-0.047862,0.101496,0.073879,0.024334,-0.089609,0.227063,-0.200381,0.178499,2.097059,0.203080,0.691817,0.803360,-0.504285,-0.083726,0.939110,-1.032382,0.168709,-0.127380,0.958708,-1.039999,0.415487,0.688184,-1.311769,0.965372,-0.370646,-0.190507,0.672738,-0.627138
-0.893688,-0.030070,0.112050,0.062084,0.020161,-0.096266,0.234018,-0.200465,0.161163,1.984491,0.253499,0.594042,0.712141,-0.510343,-0.108070,1.075233,-1.220647,0.162306,-0.129552,0.942660,-0.996496,0.380835,0.741819,-1.221696,0.899286,-0.365552,-0.177091,0.672149,-0.644650
-0.906409,-0.016211,0.117038,0.051845,0.020161,-0.098356,0.234018,-0.195752,0.144389,1.853727,0.335804,0.474202,0.589226,-0.517285,-0.134683,1.208404,-1.412340,0.153377,-0.135159,0.900366,-0.915196,0.344050,0.789855,-1.132642,0.839109,-0.355272,-0.163563,0.672149,-0.660061
-0.900470,0.014941,0.109003,0.037896,0.041734,-0.100405,0.232168,-0.160779,0.135737,1.683798,0.403886,0.320244,0.426682,-0.524473,-0.131945,1.254147,-1.479320,0.142416,-0.122420,0.803576,-0.789066,0.258821,0.726931,-1.055396,0.792607,-0.326185,-0.143296,0.668201,-0.661349
-0.889791,0.054029,0.097386,0.019099,0.053917,-0.109250,0.235909,-0.134013,0.127899,1.493338,0.437843,0.161069,0.259938,-0.528418,-0.164073,1.271644,-1.511839,0.135665,-0.117672,0.687358,-0.650333,0.172838,0.650832,-0.975820,0.743933,-0.290015,-0.120521,0.660589,-0.660730
-0.869632,0.108991,0.078606,-0.009396,0.049044,-0.131690,0.251797,-0.123662,0.121686,1.261812,0.403547,-0.008543,0.084788,-0.525874,-0.265933,1.232652,-1.475436,0.137335,-0.128907,0.532285,-0.486394,0.085348,0.548383,-0.891581,0.690918,-0.239681,-0.092728,0.644998,-0.656296
-0.813935,0.150968,0.055446,-0.026433,0.062760,-0.128149,0.250504,-0.131258,0.121232,0.981100,0.356914,-0.153584,-0.077093,-0.511167,-0.321040,1.176736,-1.413773,0.135731,-0.143046,0.379247,-0.329464,0.057342,0.477490,-0.761747,0.612012,-0.157079,-0.048017,0.620681,-0.650502
-0.740470,0.186451,0.030095,-0.037739,0.085772,-0.111617,0.240620,-0.147827,0.123658,0.675797,0.304111,-0.286338,-0.232339,-0.490378,-0.352770,1.112359,-1.339481,0.132489,-0.158635,0.227226,-0.176039,0.059077,0.422375,-0.609116,0.520163,-0.058343,0.005152,0.592000,-0.644027
-0.646661,0.207985,0.017861,-0.022398,0.133142,-0.061181,0.196223,-0.161453,0.144567,0.396743,0.297084,-0.382508,-0.367120,-0.449508,-0.358696,1.046335,-1.243577,0.084325,-0.171835,0.097243,-0.037909,0.153571,0.432789,-0.534611,0.482523,-0.016124,0.030663,0.564759,-0.632674
-0.565338,0.221816,0.011974,0.003145,0.175053,-0.013644,0.156078,-0.165643,0.168041,0.173695,0.302128,-0.469783,-0.501860,-0.401343,-0.368607,0.985760,-1.150414,0.031870,-0.182766,-0.019735,0.108722,0.257878,0.467885,-0.480823,0.447212,0.015301,0.046702,0.535289,-0.621349
-0.508993,0.221816,0.018781,0.049088,0.206045,0.028095,0.124437,-0.150962,0.196645,0.062673,0.331314,-0.539262,-0.636508,-0.338594,-0.386486,0.936085,-1.062740,-0.029162,-0.189159,-0.110696,0.272348,0.381802,0.552344,-0.468473,0.416563,0.025134,0.043794,0.501361,-0.610079
-0.497628,0.221959,0.007565,0.089567,0.227866,0.054179,0.123759,-0.147424,0.224546,0.102883,0.355733,-0.600892,-0.750930,-0.308728,-0.402375,0.899785,-0.972325,-0.028989,-0.194751,-0.198338,0.407400,0.502695,0.649420,-0.474514,0.371150,0.034635,0.029005,0.451190,-0.585185
-0.508754,0.222627,-0.012663,0.127314,0.245103,0.072057,0.138562,-0.149458,0.252096,0.218711,0.377769,-0.658597,-0.855240,-0.295303,-0.417271,0.870173,-0.880537,0.001787,-0.199943,-0.284321,0.528166,0.622074,0.752806,-0.489752,0.318355,0.043970,0.008275,0.392897,-0.553477
-0.520070,0.242540,-0.048828,0.136577,0.236046,0.072057,0.190538,-0.163602,0.266924,0.386304,0.359033,-0.682935,-0.880220,-0.293170,-0.411421,0.860994,-0.813038,0.055825,-0.195861,-0.424563,0.588448,0.705909,0.792042,-0.474866,0.281305,0.050223,-0.003048,0.343729,-0.517734
-0.527122,0.256330,-0.078916,0.141050,0.219299,0.068517,0.243257,-0.172246,0.274830,0.539826,0.336936,-0.698444,-0.888946,-0.299131,-0.399989,0.857354,-0.751091,0.106842,-0.189982,-0.570736,0.643285,0.767615,0.817467,-0.454619,0.253861,0.053347,-0.011697,0.301656,-0.489491
-0.527122,0.257872,-0.096849,0.135943,0.187174,0.059035,0.297464,-0.169894,0.268890,0.665209,0.308118,-0.696294,-0.865162,-0.321280,-0.377393,0.864791,-0.700247,0.151816,-0.180512,-0.728773,0.687233,0.785066,0.815270,-0.423652,0.245630,0.050215,-0.014998,0.273769,-0.476245
-0.523836,0.240758,-0.099786,0.125697,0.146310,0.045500,0.348362,-0.160014,0.260041,0.765602,0.296087,-0.675954,-0.828435,-0.341597,-0.358803,0.868640,-0.652244,0.192389,-0.168366,-0.842949,0.720130,0.757410,0.810607,-0.380043,0.238479,0.048206,-0.018208,0.245969,-0.464879
-0.519647,0.214316,-0.095226,0.112882,0.101076,0.029939,0.397607,-0.146369,0.249737,0.853501,0.292450,-0.646518,-0.785237,-0.360998,-0.342216,0.870694,-0.605661,0.230760,-0.154881,-0.935195,0.747500,0.707202,0.804709,-0.330113,0.231868,0.047242,-0.021373,0.218212,-0.454453
-0.502621,0.169568,-0.084127,0.104020,0.061602,0.013723,0.447786,-0.135499,0.247006,0.887082,0.319807,-0.580196,-0.735357,-0.371712,-0.314186,0.852970,-0.550787,0.246906,-0.125555,-0.949921,0.753791,0.648244,0.818684,-0.277057,0.212022,0.044369,-0.029641,0.197260,-0.438529
-0.478035,0.124883,-0.074851,0.098793,0.025762,0.001814,0.497383,-0.135879,0.245759,0.896977,0.349243,-0.506811,-0.684774,-0.381108,-0.284270,0.829403,-0.490709,0.256890,-0.085287,-0.954392,0.752710,0.599380,0.847084,-0.234613,0.193833,0.037036,-0.042346,0.180974,-0.420557
-0.438326,0.080325,-0.069225,0.100835,-0.002811,-0.001481,0.545818,-0.158757,0.247478,0.859497,0.382838,-0.419301,-0.632785,-0.387867,-0.250580,0.794150,-0.420222,0.254549,-0.023136,-0.938353,0.736886,0.570705,0.904335,-0.213395,0.178957,0.020784,-0.063927,0.174018,-0.398493
-0.402740,0.049054,-0.069086,0.105013,-0.031341,0.001114,0.588052,-0.199568,0.246183,0.800461,0.390494,-0.334280,-0.585008,-0.397229,-0.266240,0.744898,-0.348627,0.254538,-0.017519,-0.914370,0.702011,0.571777,0.979705,-0.209695,0.175255,0.002488,-0.081410,0.172710,-0.376402
-0.369216,0.024426,-0.071690,0.110259,-0.059851,0.006653,0.627186,-0.249344,0.243381,0.730647,0.385180,-0.250505,-0.539339,-0.407893,-0.306574,0.688649,-0.276478,0.255308,-0.039781,-0.886414,0.657610,0.587721,1.064133,-0.214755,0.177140,-0.016829,-0.096844,0.172810,-0.354298
-0.349572,0.019526,-0.082310,0.112925,-0.077520,0.008098,0.664976,-0.301361,0.224944,0.660458,0.356313,-0.176271,-0.506874,-0.415507,-0.304372,0.607031,-0.205270,0.245816,-0.039781,-0.846973,0.594796,0.666425,1.178735,-0.229283,0.197551,-0.038562,-0.099136,0.172810,-0.324681
-0.332636,0.019149,-0.091705,0.113412,-0.089959,0.006886,0.703428,-0.341268,0.205289,0.597383,0.326357,-0.109491,-0.469641,-0.426715,-0.303723,0.521123,-0.147995,0.235629,-0.026239,-0.801363,0.526112,0.757400,1.284360,-0.249671,0.237608,-0.058704,-0.101600,0.170711,-0.291079
-0.321114,0.027821,-0.098646,0.109540,-0.091941,0.000364,0.743200,-0.356957,0.183202,0.548536,0.294225,-0.057616,-0.422871,-0.445113,-0.306179,0.426636,-0.118583,0.224050,0.013226,-0.743412,0.445686,0.872920,1.372035,-0.281777,0.316959,-0.075662,-0.101600,0.167144,-0.249506
-0.313525,0.043078,-0.100078,0.115498,-0.079614,-0.005177,0.754046,-0.380233,0.168644,0.529152,0.281596,-0.003079,-0.367422,-0.459699,-0.347864,0.364308,-0.114488,0.219107,0.030060,-0.683603,0.375427,0.962435,1.455114,-0.320269,0.440648,-0.077514,-0.088351,0.171930,-0.192553
-0.307902,0.061627,-0.098755,0.126371,-0.060134,-0.010226,0.750429,-0.407302,0.157850,0.524501,0.278720,0.052790,-0.307634,-0.472380,-0.409163,0.318060,-0.123051,0.217481,0.035578,-0.622865,0.310252,1.038948,1.535896,-0.361955,0.586506,-0.071813,-0.067075,0.180892,-0.127910
-0.366617,0.043393,-0.087011,0.143066,-0.063322,-0.026706,0.679773,-0.460433,0.157850,0.634476,0.384629,0.089397,-0.251412,-0.472920,-0.509233,0.314532,-0.151354,0.237224,0.031444,-0.574745,0.298626,1.103506,1.560176,-0.392695,0.721416,-0.049075,-0.017658,0.185820,-0.073951
-0.417239,0.021680,-0.073662,0.139216,-0.093060,-0.049745,0.613049,-0.513332,0.161134,0.738733,0.523801,0.124211,-0.180251,-0.472801,-0.599364,0.313382,-0.188015,0.249158,0.034940,-0.514145,0.272455,1.161166,1.575675,-0.414223,0.833540,-0.023392,0.028778,0.186986,-0.035339
-0.451675,-0.006991,-0.057101,0.094277,-0.175894,-0.085901,0.554190,-0.565768,0.171825,0.831553,0.729496,0.155442,-0.079213,-0.470825,-0.669618,0.316988,-0.241395,0.245476,0.053695,-0.428584,0.217194,1.205031,1.573617,-0.417330,0.900092,0.008178,0.069253,0.180629,-0.027420
-0.461542,-0.045948,-0.035425,0.045162,-0.263697,-0.117263,0.515433,-0.587563,0.174266,0.883341,0.938648,0.199763,0.027876,-0.476726,-0.651488,0.327694,-0.305040,0.246793,0.008768,-0.324002,0.132666,1.207871,1.570853,-0.427058,0.944434,0.046822,0.118729,0.183374,-0.044176
-0.459124,-0.090049,-0.011193,-0.006039,-0.353984,-0.146226,0.486727,-0.594037,0.172583,0.914613,1.149527,0.250630,0.137988,-0.486566,-0.589165,0.341952,-0.373816,0.250610,-0.067999,-0.209911,0.033504,1.190198,1.568640,-0.440098,0.977669,0.089003,0.172704,0.190670,-0.073269
-0.437690,-0.188559,0.008325,-0.027060,-0.421829,-0.147614,0.455501,-0.542057,0.177331,0.922140,1.370732,0.288722,0.220620,-0.491096,-0.459708,0.366708,-0.443456,0.236826,-0.099721,-0.154793,-0.006016,1.170992,1.568640,-0.552173,0.967667,0.083658,0.198421,0.198828,-0.112224
-0.422946,-0.281760,0.028468,-0.039326,-0.471443,-0.141239,0.419564,-0.494780,0.184615,0.935806,1.551944,0.311508,0.303067,-0.495076,-0.362227,0.392922,-0.505856,0.221408,-0.115401,-0.119665,-0.013038,1.158989,1.566789,-0.648350,0.948703,0.073049,0.205166,0.202866,-0.150333
-0.421585,-0.364341,0.049859,-0.034077,-0.484595,-0.119336,0.374200,-0.456910,0.196968,0.961752,1.653170,0.303678,0.385145,-0.495076,-0.328695,0.422051,-0.553775,0.202718,-0.098997,-0.124516,0.044940,1.161392,1.558524,-0.712732,0.911813,0.051913,0.173968,0.198668,-0.186749
-0.422078,-0.421841,0.064577,-0.038701,-0.500230,-0.096308,0.315291,-0.437794,0.209020,0.977554,1.697502,0.283744,0.461948,-0.491419,-0.329807,0.444752,-0.589092,0.187873,-0.075182,-0.142802,0.112080,1.152286,1.544653,-0.729391,0.868509,0.036850,0.123317,0.214058,-0.231602
-0.423023,-0.466801,0.075959,-0.048260,-0.517108,-0.072717,0.249608,-0.428054,0.220921,0.988285,1.713386,0.257756,0.536115,-0.484491,-0.348240,0.464239,-0.618108,0.174950,-0.047661,-0.167806,0.183800,1.137426,1.527980,-0.722188,0.821999,0.024823,0.062938,0.239240,-0.280672
-0.415571,-0.489164,0.083748,-0.069124,-0.554669,-0.058775,0.183479,-0.425737,0.225779,0.977023,1.670988,0.230582,0.582039,-0.472108,-0.358424,0.472037,-0.629849,0.165043,-0.033989,-0.200474,0.233723,1.111843,1.517432,-0.704080,0.775400,0.012864,0.028639,0.280667,-0.299165
-0.401734,-0.503568,0.094094,-0.083855,-0.583078,-0.046831,0.122116,-0.422459,0.229018,0.959689,1.611632,0.205753,0.614229,-0.459536,-0.362870,0.475571,-0.634617,0.152697,-0.025661,-0.224970,0.268204,1.088232,1.505773,-0.686645,0.732883,-0.000862,0.002778,0.317037,-0.306746
-0.375129,-0.502052,0.109554,-0.083855,-0.593182,-0.038886,0.070286,-0.417260,0.229018,0.930209,1.518365,0.185615,0.618952,-0.446588,-0.355837,0.470577,-0.625438,0.135469,-0.028020,-0.233125,0.271801,1.068568,1.491890,-0.670556,0.698530,-0.018122,-0.006205,0.343290,-0.292505
-0.347660,-0.487097,0.125624,-0.074908,-0.585560,-0.031524,0.022900,-0.414709,0.224962,0.895616,1.404797,0.169210,0.601219,-0.432671,-0.331337,0.459515,-0.607071,0.115689,-0.012718,-0.233445,0.276703,1.051321,1.484147,-0.651081,0.677915,-0.037199,0.001729,0.345138,-0.258914
-0.319759,-0.465420,0.141998,-0.060254,-0.569075,-0.024453,-0.022264,-0.413482,0.219737,0.858466,1.281078,0.154673,0.572257,-0.418269,-0.298103,0.445418,-0.584110,0.094631,0.011414,-0.229847,0.282257,1.035281,1.479475,-0.629912,0.664169,-0.057184,0.018120,0.334782,-0.215648
-0.319759,-0.438348,0.151875,-0.048364,-0.554703,-0.016674,-0.072244,-0.420139,0.212354,0.842320,1.166203,0.133801,0.531064,-0.411631,-0.253924,0.426250,-0.556057,0.069656,0.039478,-0.242529,0.329317,1.026494,1.476507,-0.615388,0.643984,-0.068979,0.037454,0.308259,-0.188769
-0.327352,-0.410053,0.159237,-0.039292,-0.540986,-0.008664,-0.124740,-0.425114,0.206747,0.835416,1.061548,0.111407,0.488753,-0.410866,-0.216019,0.407162,-0.528672,0.043168,0.063088,-0.260211,0.380799,1.019824,1.469605,-0.601160,0.622777,-0.077524,0.051932,0.284059,-0.169786
-0.348484,-0.379312,0.161567,-0.035854,-0.528580,-0.000196,-0.182268,-0.426723,0.206747,0.846999,0.977336,0.085968,0.444206,-0.421847,-0.190666,0.388234,-0.502621,0.013655,0.077789,-0.287890,0.441128,1.017390,1.454837,-0.587523,0.599531,-0.079570,0.056696,0.264504,-0.166594
-0.378992,-0.345282,0.163589,-0.035218,-0.518160,0.006577,-0.235208,-0.430653,0.210996,0.881482,0.919161,0.058740,0.396719,-0.440852,-0.170067,0.371280,-0.482686,-0.015667,0.092765,-0.320183,0.497493,1.018966,1.437361,-0.570635,0.577597,-0.077577,0.052671,0.247967,-0.170145
-0.414189,-0.309607,0.165458,-0.035218,-0.508732,0.012501,-0.285855,-0.435744,0.218397,0.927416,0.874004,0.030616,0.347763,-0.463869,-0.151844,0.355312,-0.465810,-0.044894,0.107878,-0.354783,0.551875,1.022547,1.418532,-0.552121,0.556320,-0.073566,0.044251,0.232941,-0.177066
-0.459299,-0.280198,0.167637,-0.042303,-0.497262,0.011681,-0.331965,-0.439464,0.231406,1.007808,0.867153,0.008595,0.295581,-0.505272,-0.116358,0.346270,-0.465810,-0.074481,0.168510,-0.384986,0.589225,1.024685,1.394848,-0.519538,0.539661,-0.062974,0.005138,0.218805,-0.180728
-0.499977,-0.253435,0.170093,-0.044750,-0.482058,0.008518,-0.376691,-0.445199,0.245959,1.085806,0.876045,-0.005720,0.247288,-0.547382,-0.117999,0.342614,-0.472603,-0.106243,0.219506,-0.409679,0.618671,1.018331,1.367016,-0.489803,0.526983,-0.053185,-0.035440,0.207980,-0.179501
-0.531793,-0.231960,0.173103,-0.038939,-0.459383,0.001493,-0.418651,-0.454968,0.263600,1.159014,0.916423,-0.005720,0.206774,-0.590905,-0.193895,0.349730,-0.493939,-0.142356,0.251226,-0.423351,0.632315,0.994992,1.330889,-0.465762,0.522270,-0.045002,-0.078946,0.203780,-0.168494
-0.554917,-0.216863,0.174107,-0.030598,-0.443083,-0.009614,-0.449979,-0.460395,0.280007,1.227195,0.968540,0.003117,0.171400,-0.631630,-0.285288,0.364302,-0.521874,-0.173807,0.261800,-0.436582,0.637436,0.974070,1.302200,-0.446826,0.518864,-0.037865,-0.114971,0.200916,-0.157385
-0.573693,-0.204956,0.175060,-0.020992,-0.429971,-0.022763,-0.475990,-0.463651,0.295798,1.292861,1.026526,0.015822,0.138597,-0.670955,-0.384427,0.382601,-0.553107,-0.202925,0.261800,-0.449592,0.638010,0.954358,1.277230,-0.430444,0.516113,-0.031252,-0.147255,0.198722,-0.146224
-0.596502,-0.229450,0.175060,-0.011656,-0.426884,-0.033884,-0.493468,-0.447846,0.306518,1.364437,1.112348,0.023752,0.111917,-0.712589,-0.458917,0.409900,-0.598944,-0.223589,0.261800,-0.477693,0.646494,0.957696,1.267621,-0.420802,0.516113,-0.025978,-0.171987,0.190406,-0.141664
-0.609915,-0.252682,0.174781,-0.000640,-0.422728,-0.044330,-0.504239,-0.427078,0.318431,1.425574,1.187466,0.026947,0.087642,-0.747687,-0.516926,0.434365,-0.643945,-0.238776,0.261800,-0.513214,0.655376,0.977582,1.259498,-0.415203,0.518719,-0.022929,-0.192702,0.178875,-0.141778
-0.604533,-0.273393,0.174781,0.013733,-0.416434,-0.053426,-0.501594,-0.396386,0.332728,1.465832,1.241174,0.020670,0.068177,-0.769712,-0.541970,0.453157,-0.687272,-0.243008,0.261800,-0.563578,0.665053,1.030562,1.254351,-0.417691,0.525521,-0.024330,-0.205382,0.160917,-0.151240
-0.590703,-0.288233,0.164141,0.033242,-0.404828,-0.065084,-0.489546,-0.368483,0.338456,1.479493,1.261145,0.013059,0.050879,-0.782943,-0.549032,0.460975,-0.723009,-0.242783,0.261800,-0.620732,0.666229,1.102165,1.241914,-0.421236,0.535057,-0.027325,-0.214228,0.134912,-0.167883
-0.572649,-0.300138,0.149257,0.055318,-0.390567,-0.078024,-0.472797,-0.341975,0.339899,1.479735,1.264247,0.004781,0.034664,-0.791776,-0.547104,0.463305,-0.754950,-0.240329,0.261800,-0.681278,0.663154,1.183080,1.225833,-0.425308,0.545960,-0.031116,-0.221156,0.104885,-0.188117
-0.547020,-0.301394,0.114468,0.080825,-0.365897,-0.092943,-0.447192,-0.322076,0.328048,1.440983,1.214111,0.011807,0.012490,-0.782098,-0.516200,0.451885,-0.763933,-0.231968,0.261800,-0.725491,0.639076,1.253333,1.197083,-0.417990,0.548187,-0.024919,-0.217765,0.070027,-0.204621
-0.515905,-0.299135,0.078235,0.107319,-0.339052,-0.107126,-0.414857,-0.300328,0.314236,1.389706,1.148012,0.021667,-0.008587,-0.765121,-0.472675,0.437074,-0.767144,-0.220158,0.261800,-0.760502,0.608134,1.317309,1.159909,-0.411354,0.542141,-0.014377,-0.206610,0.032190,-0.218434
-0.473815,-0.289847,0.039115,0.135790,-0.307859,-0.119834,-0.369063,-0.274881,0.296501,1.313379,1.049987,0.037196,-0.027471,-0.733546,-0.403906,0.415479,-0.758813,-0.201446,0.261800,-0.777110,0.563462,1.368730,1.105889,-0.406083,0.519550,0.004855,-0.179928,-0.011605,-0.226865
-0.426940,-0.274796,0.008018,0.158149,-0.279882,-0.127024,-0.310500,-0.246601,0.275167,1.223663,0.923324,0.053549,-0.038560,-0.693128,-0.324664,0.392871,-0.753215,-0.176906,0.261800,-0.778442,0.523696,1.399569,1.055069,-0.409881,0.485327,0.031163,-0.152230,-0.057741,-0.226309
-0.377673,-0.256863,-0.019068,0.177453,-0.253513,-0.131456,-0.245553,-0.216906,0.252033,1.127252,0.782341,0.070314,-0.045751,-0.648290,-0.240185,0.369755,-0.748984,-0.149450,0.261800,-0.772137,0.486382,1.420118,1.005848,-0.418212,0.445287,0.061009,-0.124024,-0.105048,-0.221258
-0.323317,-0.239785,-0.030111,0.190211,-0.249382,-0.138456,-0.160954,-0.227858,0.229493,1.018864,0.650541,0.091000,-0.048696,-0.598959,-0.219823,0.363965,-0.751776,-0.127063,0.158958,-0.760101,0.468739,1.398995,0.979803,-0.413148,0.423084,0.089186,-0.137685,-0.128739,-0.193461
-0.270753,-0.230504,-0.039588,0.203834,-0.245752,-0.144748,-0.075504,-0.255025,0.209334,0.912756,0.553088,0.112504,-0.051830,-0.547650,-0.210025,0.365893,-0.756167,-0.109154,0.070055,-0.751475,0.454609,1.367645,0.953864,-0.403654,0.406292,0.112454,-0.153426,-0.142893,-0.165908
-0.221776,-0.236815,-0.045930,0.219185,-0.245752,-0.149621,0.011640,-0.314617,0.193938,0.811212,0.524326,0.135642,-0.055344,-0.492388,-0.221353,0.383256,-0.763757,-0.100204,0.009032,-0.749669,0.447506,1.315843,0.928143,-0.385303,0.400321,0.125904,-0.173328,-0.137975,-0.138845
-0.180675,-0.243532,-0.057626,0.225120,-0.248111,-0.154029,0.087074,-0.376543,0.185812,0.726704,0.543611,0.157767,-0.058672,-0.439411,-0.231136,0.412887,-0.778669,-0.100142,-0.043847,-0.767690,0.446922,1.253063,0.908775,-0.364043,0.397413,0.129841,-0.183207,-0.119451,-0.123011
-0.143513,-0.250453,-0.071999,0.225120,-0.252964,-0.158204,0.156652,-0.439636,0.181323,0.650715,0.586920,0.179386,-0.061909,-0.387578,-0.240147,0.448652,-0.797242,-0.104523,-0.092654,-0.795626,0.449597,1.184795,0.892583,-0.341329,0.396036,0.129841,-0.188075,-0.094122,-0.112793
-0.121980,-0.243682,-0.087676,0.215434,-0.257905,-0.163881,0.195356,-0.492808,0.183444,0.606442,0.644413,0.208153,-0.063842,-0.342679,-0.253343,0.507258,-0.823602,-0.129704,-0.140994,-0.826633,0.453598,1.090546,0.899059,-0.301847,0.398420,0.120390,-0.188075,-0.056862,-0.117617
-0.105901,-0.233746,-0.101482,0.200994,-0.261198,-0.170658,0.220285,-0.539751,0.185883,0.572401,0.696323,0.241423,-0.063485,-0.301829,-0.268858,0.575262,-0.853128,-0.154378,-0.180519,-0.851298,0.457537,0.982546,0.909050,-0.257088,0.401009,0.112303,-0.186662,-0.023473,-0.125780
-0.100730,-0.217480,-0.111547,0.178681,-0.261198,-0.179634,0.220285,-0.574233,0.188960,0.558821,0.737067,0.283701,-0.058546,-0.269076,-0.289010,0.662059,-0.888986,-0.178041,-0.202411,-0.863282,0.461351,0.847046,0.926073,-0.201776,0.404008,0.105850,-0.181238,0.002171,-0.140623
-0.102854,-0.198520,-0.114250,0.147491,-0.260462,-0.188727,0.190355,-0.598756,0.191702,0.560641,0.764544,0.332129,-0.044471,-0.248292,-0.304001,0.764011,-0.936444,-0.184644,-0.212755,-0.859770,0.472146,0.688347,0.945397,-0.154209,0.408785,0.105842,-0.173178,0.006788,-0.157784
-0.108626,-0.178212,-0.113599,0.111861,-0.258986,-0.197879,0.146771,-0.618300,0.194277,0.570160,0.785388,0.383634,-0.025827,-0.233491,-0.316412,0.873544,-0.989703,-0.182718,-0.217324,-0.848511,0.486433,0.518045,0.965870,-0.110514,0.414452,0.109056,-0.163799,0.000892,-0.176105
-0.096454,-0.146689,-0.093172,0.078424,-0.264105,-0.195351,0.088387,-0.653717,0.190910,0.561580,0.800177,0.464886,0.014397,-0.268579,-0.319582,1.013393,-1.054243,-0.157268,-0.234580,-0.774910,0.501320,0.292192,0.999208,-0.066376,0.425156,0.125329,-0.154270,-0.043460,-0.195004
-0.076186,-0.111669,-0.063857,0.047630,-0.266777,-0.186107,0.038563,-0.690997,0.182642,0.542740,0.800749,0.555495,0.067970,-0.319376,-0.345464,1.151620,-1.120831,-0.136504,-0.204221,-0.667806,0.506828,0.057391,1.035959,-0.015626,0.436139,0.148701,-0.143757,-0.115417,-0.211293
-0.039723,-0.069650,-0.016766,0.022119,-0.264554,-0.163427,0.005855,-0.732005,0.164571,0.503379,0.772884,0.664823,0.148240,-0.401591,-0.416771,1.286603,-1.191514,-0.125110,-0.078627,-0.493690,0.493578,-0.195308,1.079538,0.048349,0.447679,0.186271,-0.131273,-0.242586,-0.222363
-0.004637,-0.051078,0.045215,0.008289,-0.262686,-0.114335,0.017807,-0.725265,0.146652,0.491598,0.761063,0.693164,0.247400,-0.484108,-0.491736,1.370782,-1.256369,-0.106888,0.004758,-0.326001,0.451843,-0.378260,1.132346,0.081792,0.453123,0.212081,-0.116538,-0.353331,-0.224276
0.029761,-0.044230,0.114642,0.000298,-0.260997,-0.052038,0.052089,-0.694651,0.128811,0.493607,0.757264,0.681013,0.356004,-0.566776,-0.568531,1.429561,-1.319270,-0.085251,0.067040,-0.161523,0.395865,-0.526341,1.189769,0.099968,0.455518,0.232011,-0.100677,-0.455865,-0.222284
-0.018877,-0.112138,0.227338,0.033053,-0.246448,0.047396,0.118540,-0.612062,0.095007,0.635274,0.839932,0.486181,0.498735,-0.638178,-0.599673,1.462098,-1.319270,-0.071804,0.061012,-0.041373,0.271790,-0.610277,1.274708,0.083238,0.449316,0.241632,-0.066265,-0.574183,-0.222284
-0.070915,-0.168099,0.341725,0.078390,-0.223432,0.133491,0.177070,-0.543286,0.057973,0.786753,0.911108,0.248859,0.630781,-0.688550,-0.626664,1.481315,-1.288799,-0.059504,0.053830,0.051686,0.158296,-0.672555,1.345859,0.063842,0.438254,0.241481,-0.032909,-0.651316,-0.227374
-0.129755,-0.200171,0.459502,0.148900,-0.183478,0.192913,0.219759,-0.502135,0.014476,0.957866,0.959305,-0.073466,0.741463,-0.696861,-0.645354,1.473890,-1.194501,-0.049500,0.044338,0.090564,0.065957,-0.691519,1.389437,0.039111,0.417471,0.221781,-0.001662,-0.646076,-0.240625
-0.214521,-0.204222,0.536826,0.203317,-0.149316,0.198410,0.218145,-0.481087,-0.012497,1.149359,0.966726,-0.391403,0.796874,-0.600013,-0.653865,1.448501,-1.069921,-0.007382,0.033263,0.110937,0.032452,-0.677059,1.400051,-0.020690,0.395666,0.181365,0.029943,-0.537583,-0.237416
-0.312250,-0.194265,0.593923,0.249688,-0.118051,0.176946,0.194382,-0.470089,-0.031209,1.351039,0.953759,-0.707143,0.824651,-0.450590,-0.657288,1.414131,-0.930201,0.050791,0.021396,0.122057,0.028363,-0.645888,1.394183,-0.098026,0.373352,0.130591,0.061728,-0.377468,-0.225976
-0.391756,-0.207760,0.593923,0.288636,-0.104228,0.117644,0.201071,-0.437071,-0.027118,1.452905,0.945479,-0.934652,0.764592,-0.420578,-0.660294,1.401860,-0.827130,0.045513,0.014813,0.151752,0.085631,-0.608514,1.402243,-0.358929,0.379568,-0.026295,0.088491,-0.124329,-0.133449
-0.455690,-0.216734,0.586116,0.333862,-0.087883,0.059818,0.216644,-0.397147,-0.018829,1.529574,0.930259,-1.145543,0.694385,-0.402527,-0.661336,1.396296,-0.731309,0.041403,0.010959,0.186843,0.142323,-0.571679,1.411988,-0.594037,0.381220,-0.182558,0.113502,0.089701,-0.040798
-0.488476,-0.216734,0.560999,0.391645,-0.066494,0.004947,0.249987,-0.343412,-0.002141,1.555845,0.901162,-1.323192,0.603887,-0.408402,-0.658446,1.404144,-0.649991,0.041403,0.012563,0.232728,0.197864,-0.535919,1.425101,-0.777547,0.373743,-0.337574,0.135008,0.225507,0.052100
-0.504184,-0.208611,0.528783,0.442639,-0.046925,-0.039932,0.283173,-0.285287,0.012320,1.546534,0.864139,-1.460659,0.529033,-0.411313,-0.651612,1.411132,-0.577616,0.032550,0.023678,0.290419,0.247792,-0.471468,1.428950,-0.846507,0.362388,-0.413915,0.142716,0.296462,0.105034
-0.511353,-0.196460,0.493018,0.490236,-0.028268,-0.079814,0.316280,-0.224968,0.025669,1.519432,0.823154,-1.578032,0.462003,-0.412742,-0.642804,1.417112,-0.509714,0.020159,0.039548,0.354011,0.294915,-0.392671,1.428429,-0.858189,0.349093,-0.450916,0.143255,0.334990,0.137984
-0.497229,-0.169694,0.461806,0.504203,-0.030193,-0.100911,0.341733,-0.174414,0.040943,1.438869,0.757476,-1.664801,0.402656,-0.414102,-0.634158,1.417112,-0.455901,-0.007266,0.084468,0.350501,0.326443,-0.282230,1.441692,-0.836133,0.337972,-0.477117,0.127075,0.396788,0.168225
-0.478388,-0.143012,0.435310,0.508460,-0.044173,-0.114266,0.357874,-0.140129,0.050701,1.345615,0.696026,-1.727421,0.357427,-0.414459,-0.623977,1.412697,-0.412021,-0.033879,0.122094,0.337960,0.346194,-0.154895,1.453006,-0.823452,0.331706,-0.501384,0.110228,0.465692,0.196250
-0.450109,-0.116498,0.418245,0.493299,-0.082262,-0.112138,0.355391,-0.138381,0.049426,1.226969,0.643026,-1.741744,0.340431,-0.414459,-0.610724,1.401188,-0.388004,-0.058871,0.145137,0.307354,0.342391,0.006238,1.460421,-0.829520,0.335147,-0.521786,0.092048,0.548811,0.219843
-0.414200,-0.097905,0.415383,0.467840,-0.119073,-0.092886,0.329415,-0.140606,0.038275,1.094083,0.601734,-1.716483,0.342961,-0.403957,-0.603720,1.395017,-0.387237,-0.071807,0.154868,0.254219,0.326232,0.207967,1.469426,-0.836535,0.340438,-0.520752,0.080911,0.600939,0.238853
-0.374477,-0.083272,0.419624,0.437232,-0.155244,-0.065072,0.291694,-0.144816,0.022185,0.954079,0.566295,-1.671430,0.355254,-0.389027,-0.598974,1.391517,-0.398096,-0.078715,0.157944,0.189819,0.303896,0.429990,1.479224,-0.844025,0.346653,-0.509000,0.073296,0.637570,0.255572
-0.318941,-0.095216,0.447822,0.399283,-0.202166,0.015110,0.234638,-0.158407,-0.008379,0.813913,0.576885,-1.527103,0.395645,-0.341763,-0.598974,1.410462,-0.476046,-0.070895,0.138121,0.050571,0.279578,0.688973,1.494865,-0.846939,0.350049,-0.451333,0.069277,0.589698,0.278376
-0.267473,-0.117257,0.460105,0.362895,-0.255988,0.114131,0.177786,-0.176045,-0.026084,0.699238,0.604183,-1.307482,0.426933,-0.286715,-0.593088,1.460456,-0.583889,-0.060518,0.114269,-0.102350,0.261863,0.888748,1.502549,-0.851156,0.351984,-0.381793,0.066575,0.508355,0.300199
-0.224143,-0.159490,0.440560,0.329625,-0.323609,0.250830,0.121342,-0.201776,-0.018072,0.635545,0.664898,-0.937271,0.440014,-0.216097,-0.578032,1.572548,-0.751518,-0.045026,0.082358,-0.282617,0.257354,0.970104,1.494322,-0.857979,0.351984,-0.288505,0.066575,0.360069,0.320061
-0.192433,-0.205188,0.377512,0.312653,-0.377381,0.337728,0.085116,-0.207571,0.023757,0.640342,0.735147,-0.540120,0.420501,-0.196703,-0.567989,1.699769,-0.907765,-0.120993,0.068021,-0.309501,0.296591,0.964876,1.458839,-0.840529,0.347529,-0.230280,0.068131,0.241148,0.327707
-0.166534,-0.252620,0.292715,0.303830,-0.424227,0.399722,0.059001,-0.203399,0.082493,0.679387,0.810164,-0.130046,0.384691,-0.202923,-0.560453,1.834553,-1.058318,-0.242688,0.062472,-0.259690,0.357700,0.916354,1.409727,-0.810943,0.341339,-0.189590,0.070500,0.136913,0.329244
-0.171126,-0.300395,0.336310,0.309759,-0.461496,0.421607,0.065180,-0.175882,0.064040,0.799966,0.894548,-0.130046,0.428222,-0.311631,-0.566226,1.827535,-1.100778,-0.254155,0.137250,-0.122738,0.334602,0.733427,1.426162,-0.770065,0.336014,-0.188052,0.075924,0.052059,0.320544
-0.184021,-0.354854,0.408663,0.320754,-0.494614,0.429771,0.071649,-0.146619,0.028205,0.919429,0.983555,-0.229015,0.490006,-0.422917,-0.575316,1.798504,-1.114302,-0.261800,0.202041,-0.036692,0.289379,0.523924,1.449023,-0.743619,0.331335,-0.192106,0.080376,-0.022958,0.308306
-0.213527,-0.422684,0.538536,0.341882,-0.519429,0.410493,0.078698,-0.113860,-0.042396,1.036667,1.081810,-0.524310,0.588298,-0.539361,-0.591037,1.725444,-1.069956,-0.261800,0.246860,-0.052452,0.199902,0.261263,1.484740,-0.746040,0.327947,-0.207345,0.080376,-0.078303,0.288987
-0.259958,-0.501188,0.626298,0.354741,-0.531014,0.354203,0.080272,-0.072065,-0.087130,1.137723,1.169553,-0.783267,0.632503,-0.607701,-0.601835,1.668098,-1.017077,-0.261800,0.261800,-0.055497,0.158168,0.057390,1.497703,-0.764646,0.321174,-0.228641,0.079538,-0.099050,0.268970
-0.314853,-0.585032,0.693006,0.363465,-0.534939,0.279405,0.079497,-0.025749,-0.118931,1.230690,1.252040,-1.024056,0.649664,-0.651990,-0.610171,1.618607,-0.959930,-0.261800,0.261800,-0.052183,0.140305,-0.117090,1.499290,-0.791346,0.312707,-0.252967,0.077028,-0.102497,0.248604
-0.341593,-0.626810,0.702104,0.366641,-0.534939,0.208420,0.069484,0.003266,-0.111789,1.279637,1.310119,-1.235403,0.611378,-0.672875,-0.618015,1.604477,-0.900262,-0.261800,0.261800,-0.046222,0.160510,-0.161206,1.487388,-0.835719,0.296312,-0.287239,0.078237,-0.069010,0.228773
-0.362334,-0.650152,0.702252,0.368758,-0.534709,0.148980,0.053486,0.017297,-0.100450,1.313078,1.355417,-1.423937,0.568239,-0.686205,-0.625342,1.595535,-0.841668,-0.261800,0.261800,-0.049054,0.182744,-0.160898,1.471686,-0.885026,0.282834,-0.328786,0.078159,-0.019460,0.209800
-0.371078,-0.636619,0.684500,0.368758,-0.537155,0.112633,0.025519,0.001363,-0.080715,1.315504,1.375154,-1.566837,0.515397,-0.684423,-0.631632,1.595535,-0.785226,-0.261800,0.261800,-0.069472,0.209035,-0.071745,1.448386,-0.944194,0.275190,-0.384881,0.075507,0.062214,0.192542
-0.377091,-0.605495,0.674543,0.359063,-0.545500,0.103763,-0.004567,-0.032275,-0.072734,1.290168,1.368325,-1.596152,0.484452,-0.664149,-0.630738,1.602345,-0.740608,-0.261800,0.261800,-0.084113,0.221971,0.084186,1.431223,-0.989569,0.287192,-0.434155,0.065941,0.151277,0.178159
-0.381738,-0.565574,0.668484,0.344835,-0.556794,0.108631,-0.035713,-0.074764,-0.070630,1.250951,1.348213,-1.568672,0.464456,-0.634628,-0.626251,1.611844,-0.701903,-0.261800,0.261800,-0.095866,0.228230,0.273506,1.417129,-1.028048,0.309018,-0.480019,0.052918,0.244034,0.165213
-0.388181,-0.521496,0.662393,0.319097,-0.570081,0.135148,-0.066307,-0.128099,-0.070630,1.180855,1.305051,-1.418216,0.445581,-0.581772,-0.609939,1.628572,-0.673228,-0.261800,0.261800,-0.131082,0.202439,0.477358,1.410627,-1.043707,0.331027,-0.481983,0.041542,0.277321,0.151438
-0.387484,-0.463137,0.637433,0.294955,-0.579616,0.171230,-0.097154,-0.197497,-0.067186,1.084183,1.242546,-1.213278,0.420915,-0.505806,-0.583683,1.635670,-0.655027,-0.261800,0.258883,-0.136298,0.181646,0.659199,1.401615,-1.071295,0.359495,-0.462068,0.026147,0.283254,0.124120
-0.372507,-0.376216,0.574732,0.274006,-0.581646,0.226439,-0.128504,-0.299022,-0.055588,0.934358,1.141353,-0.899373,0.384663,-0.383618,-0.537538,1.623508,-0.657769,-0.261800,0.250133,-0.081514,0.170848,0.797025,1.387582,-1.122745,0.400879,-0.398398,0.002712,0.234478,0.069716
-0.363856,-0.291973,0.500636,0.264363,-0.582323,0.256326,-0.113771,-0.407982,-0.025783,0.801484,1.046811,-0.635181,0.336190,-0.327054,-0.495655,1.588674,-0.640242,-0.177602,0.236303,-0.044951,0.187771,0.817034,1.381095,-1.145799,0.442170,-0.310102,-0.024294,0.149506,0.018180
-0.358367,-0.209069,0.420841,0.260372,-0.582070,0.273551,-0.075994,-0.520662,0.013126,0.677084,0.955591,-0.395843,0.281606,-0.303301,-0.455903,1.542503,-0.612580,-0.051302,0.219933,-0.016572,0.218555,0.778131,1.378380,-1.154655,0.483413,-0.209490,-0.053087,0.046434,-0.031922
-0.385131,-0.132415,0.357177,0.246700,-0.577620,0.263092,0.007884,-0.631963,0.044333,0.669595,0.858479,-0.253388,0.235342,-0.322630,-0.399717,1.479105,-0.575225,-0.004289,0.217456,-0.016572,0.275861,0.621881,1.389951,-0.999705,0.509923,-0.125032,-0.089880,-0.004808,-0.050438
-0.413931,-0.064559,0.303664,0.237786,-0.566259,0.250117,0.091020,-0.729122,0.071527,0.691432,0.768400,-0.143445,0.192803,-0.343604,-0.344559,1.414833,-0.539645,0.034909,0.219123,-0.038505,0.339092,0.460596,1.400870,-0.822985,0.524992,-0.044646,-0.122311,-0.037619,-0.062303
-0.446799,-0.014302,0.270457,0.237786,-0.541072,0.232110,0.172669,-0.797993,0.090696,0.771918,0.692394,-0.098531,0.157715,-0.367868,-0.291459,1.348816,-0.507618,0.058476,0.229078,-0.107084,0.414168,0.289251,1.410480,-0.602735,0.517179,0.027590,-0.146021,-0.033569,-0.062303
-0.463066,0.025641,0.240545,0.248668,-0.500167,0.214200,0.239568,-0.826069,0.105893,0.860475,0.625084,-0.074549,0.123977,-0.383474,-0.246537,1.277984,-0.479359,0.083221,0.244158,-0.201306,0.487515,0.160997,1.419559,-0.453363,0.505103,0.081944,-0.157276,-0.030487,-0.060524
-0.471032,0.060426,0.212280,0.264689,-0.451403,0.196338,0.299093,-0.833747,0.119104,0.953066,0.562124,-0.061033,0.090914,-0.394751,-0.205703,1.204746,-0.452984,0.108554,0.261800,-0.308350,0.559996,0.054290,1.428372,-0.339434,0.490897,0.127357,-0.162305,-0.027888,-0.058572
-0.467343,0.089185,0.173594,0.285768,-0.389434,0.174404,0.329530,-0.791855,0.125857,1.022407,0.510822,-0.045818,0.065804,-0.389494,-0.198670,1.132711,-0.426244,0.136361,0.261800,-0.420967,0.593905,0.045704,1.426792,-0.304947,0.482921,0.142000,-0.161024,-0.029234,-0.058972
-0.466185,0.119848,0.132790,0.307764,-0.323690,0.152520,0.352514,-0.739645,0.128914,1.082688,0.454927,-0.035325,0.042627,-0.384141,-0.198375,1.061967,-0.399265,0.162102,0.261076,-0.537037,0.619272,0.071104,1.426681,-0.275605,0.474946,0.152659,-0.157970,-0.030734,-0.060472
-0.470087,0.154319,0.087752,0.331594,-0.250396,0.130735,0.360589,-0.666799,0.124579,1.124847,0.389847,-0.035325,0.023318,-0.378596,-0.211559,0.993808,-0.371807,0.183705,0.261076,-0.660010,0.627554,0.164477,1.426681,-0.256549,0.466972,0.152659,-0.151369,-0.030734,-0.063772
-0.483011,0.188202,0.042362,0.346793,-0.181990,0.106723,0.358631,-0.582547,0.118101,1.149806,0.327079,-0.043229,0.009133,-0.377746,-0.241141,0.929664,-0.350320,0.203231,0.248842,-0.778179,0.629381,0.303463,1.429667,-0.247015,0.462076,0.143894,-0.144020,-0.029616,-0.066857
-0.500446,0.221792,-0.003203,0.357677,-0.116029,0.081597,0.351656,-0.492593,0.110552,1.166168,0.265467,-0.055608,-0.002490,-0.378743,-0.278921,0.867527,-0.331816,0.221718,0.231577,-0.893946,0.628446,0.465255,1.432733,-0.242240,0.459206,0.129401,-0.136298,-0.027034,-0.069836
-0.518303,0.261250,-0.037970,0.356021,-0.057683,0.055301,0.337412,-0.447394,0.105546,1.159063,0.208197,-0.064970,-0.002490,-0.363667,-0.347727,0.786577,-0.319270,0.216633,0.234539,-0.965254,0.612842,0.656413,1.438580,-0.248227,0.459206,0.114647,-0.129991,-0.023682,-0.069836
-0.539139,0.303570,-0.067441,0.346248,0.000328,0.030625,0.312964,-0.430801,0.103138,1.155116,0.153185,-0.069494,0.004678,-0.373133,-0.411903,0.694157,-0.308895,0.180297,0.235712,-1.012284,0.591275,0.847132,1.444601,-0.254724,0.461039,0.107747,-0.123902,-0.018621,-0.069698
-0.565932,0.351615,-0.086321,0.320242,0.057672,0.009188,0.268106,-0.471424,0.103138,1.157484,0.102688,-0.064342,0.026344,-0.431686,-0.466820,0.578794,-0.302863,0.081454,0.235712,-1.010756,0.557781,1.036975,1.450966,-0.262240,0.465073,0.116556,-0.118247,-0.010141,-0.068474
-0.600784,0.387284,-0.090198,0.270600,0.109038,-0.014057,0.208819,-0.536055,0.100742,1.169461,0.064579,-0.052161,0.060511,-0.492760,-0.508360,0.479890,-0.299122,0.016842,0.227105,-0.980719,0.520935,1.189557,1.457451,-0.268058,0.473295,0.137358,-0.111679,0.005723,-0.069420
-0.639665,0.416766,-0.086573,0.209141,0.157414,-0.038208,0.142316,-0.612691,0.095755,1.186243,0.032664,-0.036467,0.100928,-0.555093,-0.543211,0.389215,-0.296527,-0.030065,0.215398,-0.936426,0.482413,1.323510,1.463996,-0.273028,0.483610,0.164157,-0.104654,0.025280,-0.071451
-0.658020,0.396255,-0.065427,0.127200,0.132887,-0.065327,0.094193,-0.690793,0.095755,1.202494,0.148392,-0.028404,0.137759,-0.555093,-0.597568,0.299045,-0.286338,-0.030065,0.226071,-0.846743,0.438062,1.448426,1.486617,-0.296906,0.511834,0.215572,-0.065963,0.074163,-0.091477
-0.668972,0.361050,-0.039696,0.049620,0.083204,-0.089408,0.059431,-0.754117,0.103448,1.211335,0.307153,-0.011776,0.161388,-0.548410,-0.646777,0.236480,-0.276291,-0.021703,0.214775,-0.764061,0.403793,1.538068,1.511880,-0.328691,0.532929,0.254471,-0.020977,0.098456,-0.113800
-0.665117,0.296453,-0.004795,-0.019246,-0.016796,-0.107413,0.051388,-0.787890,0.126956,1.205358,0.551991,0.021981,0.158611,-0.526728,-0.685691,0.229120,-0.266528,0.001609,0.159537,-0.695376,0.389685,1.557169,1.542428,-0.376289,0.539765,0.268343,0.036599,0.073571,-0.140723
-0.627988,0.198948,0.028686,-0.070292,-0.122613,-0.112058,0.039443,-0.752175,0.154646,1.154281,0.833050,0.052258,0.143735,-0.503196,-0.586030,0.227813,-0.267399,0.018338,0.049595,-0.674874,0.421895,1.566000,1.554494,-0.429032,0.540189,0.282257,0.087355,0.008673,-0.151606
-0.574222,0.084986,0.061457,-0.112430,-0.231342,-0.110025,0.025546,-0.681715,0.184426,1.080653,1.132226,0.080796,0.122809,-0.478737,-0.417080,0.229533,-0.273586,0.031776,-0.087700,-0.678463,0.477266,1.569697,1.557320,-0.484347,0.537407,0.296192,0.134702,-0.076235,-0.154470
-0.547642,-0.047700,0.088890,-0.128890,-0.292491,-0.102914,0.009316,-0.606665,0.214902,1.042024,1.300402,0.101295,0.096771,-0.461625,-0.373804,0.240815,-0.289737,0.032109,-0.071815,-0.714960,0.556242,1.560236,1.549397,-0.496128,0.533200,0.305261,0.136467,-0.139132,-0.140211
-0.526226,-0.174298,0.115478,-0.140458,-0.346455,-0.094020,-0.008580,-0.537995,0.242633,1.012089,1.432717,0.119795,0.072164,-0.447233,-0.345930,0.256670,-0.307665,0.030928,-0.043013,-0.747339,0.629738,1.545595,1.541129,-0.496496,0.531298,0.309791,0.127023,-0.196280,-0.128261
-0.515141,-0.288721,0.140377,-0.142244,-0.386051,-0.081560,-0.029805,-0.482087,0.264875,0.999542,1.493308,0.134301,0.050418,-0.438282,-0.348861,0.281669,-0.329146,0.026388,0.011620,-0.771480,0.692274,1.520595,1.532172,-0.474035,0.531298,0.305241,0.095164,-0.241929,-0.120929
-0.501338,-0.368911,0.159588,-0.134956,-0.422144,-0.062283,-0.059202,-0.450438,0.279407,0.992738,1.490719,0.143749,0.030370,-0.435298,-0.351017,0.305756,-0.350285,0.019410,0.041065,-0.775940,0.724300,1.498299,1.519899,-0.449477,0.536395,0.297206,0.061259,-0.267508,-0.119400
-0.486177,-0.431983,0.175953,-0.123131,-0.456485,-0.039596,-0.092684,-0.430920,0.290084,0.988805,1.456541,0.150669,0.011170,-0.435271,-0.352788,0.329386,-0.371252,0.011212,0.057915,-0.770558,0.741071,1.477355,1.505968,-0.423869,0.542686,0.287428,0.026331,-0.283051,-0.120774
-0.465113,-0.447525,0.187829,-0.113514,-0.480064,-0.022015,-0.129547,-0.423797,0.292204,0.987277,1.357659,0.160956,-0.003160,-0.437484,-0.358921,0.350942,-0.389274,0.000581,0.035221,-0.732170,0.724178,1.444402,1.481042,-0.407671,0.547464,0.276187,0.000059,-0.261610,-0.127125
-0.443477,-0.450659,0.198778,-0.104364,-0.495783,-0.006348,-0.166747,-0.417597,0.292089,0.987438,1.248778,0.175060,-0.013635,-0.442470,-0.359810,0.373027,-0.407053,-0.009698,0.022977,-0.687820,0.705861,1.405174,1.453336,-0.395524,0.551704,0.259818,-0.024752,-0.223803,-0.135474
-0.420700,-0.428975,0.207869,-0.096147,-0.495783,0.005493,-0.204622,-0.413247,0.287502,0.990976,1.119898,0.196801,-0.016402,-0.452999,-0.350210,0.396171,-0.424346,-0.019277,0.031634,-0.631544,0.684693,1.353395,1.420066,-0.391481,0.554867,0.233193,-0.046642,-0.153267,-0.147817
-0.406231,-0.398574,0.213663,-0.088263,-0.475882,0.015134,-0.246412,-0.391273,0.279517,1.006103,1.004404,0.212969,-0.016551,-0.476565,-0.326762,0.418223,-0.443386,-0.036670,0.065273,-0.581320,0.673995,1.302474,1.383794,-0.402954,0.549474,0.201024,-0.058949,-0.093462,-0.156595
-0.395917,-0.363813,0.217807,-0.080544,-0.445671,0.023675,-0.290160,-0.360487,0.269834,1.027024,0.895606,0.226351,-0.015777,-0.506648,-0.296392,0.439728,-0.463298,-0.057968,0.111403,-0.534122,0.668532,1.251983,1.346020,-0.422185,0.539802,0.166082,-0.066465,-0.039025,-0.164065
-0.400092,-0.326300,0.223715,-0.075491,-0.410388,0.030790,-0.339349,-0.316924,0.265724,1.072315,0.847409,0.220506,-0.013486,-0.544432,-0.265850,0.469020,-0.495755,-0.083982,0.125911,-0.512176,0.694350,1.199458,1.303011,-0.441638,0.518739,0.143083,-0.069673,-0.021030,-0.164065
-0.406952,-0.293962,0.228661,-0.067909,-0.370795,0.038003,-0.389444,-0.275170,0.264468,1.121596,0.824069,0.212921,-0.010381,-0.581732,-0.246528,0.501174,-0.532679,-0.110680,0.160826,-0.492534,0.718043,1.141646,1.253583,-0.455648,0.493348,0.124925,-0.073295,-0.009657,-0.165153
-0.419180,-0.271977,0.231683,-0.055272,-0.322580,0.045410,-0.441351,-0.237033,0.268919,1.178859,0.850446,0.201857,-0.005644,-0.618063,-0.249643,0.539053,-0.578539,-0.138749,0.236556,-0.477499,0.737489,1.073258,1.191319,-0.458770,0.459301,0.116452,-0.077746,-0.011528,-0.166990
-0.434839,-0.258892,0.233021,-0.044281,-0.284466,0.043893,-0.486899,-0.220288,0.275254,1.234707,0.892896,0.189660,-0.008448,-0.655740,-0.302900,0.578543,-0.622716,-0.168572,0.261800,-0.469796,0.749233,1.007493,1.131562,-0.450693,0.425954,0.112902,-0.080921,-0.018142,-0.172387
-0.452215,-0.250258,0.233352,-0.034113,-0.251402,0.037913,-0.529271,-0.214238,0.282531,1.289848,0.943384,0.176897,-0.015024,-0.694092,-0.381232,0.618840,-0.666054,-0.199273,0.261800,-0.465759,0.757125,0.943036,1.073057,-0.437015,0.392956,0.112177,-0.083843,-0.027127,-0.179565
-0.483176,-0.276030,0.229608,-0.025267,-0.235987,0.027153,-0.551911,-0.214238,0.275709,1.347543,1.000664,0.174994,-0.034007,-0.731290,-0.451379,0.647147,-0.709196,-0.218800,0.261800,-0.468294,0.749747,0.910000,1.015988,-0.419271,0.365195,0.105252,-0.083843,-0.033674,-0.190785
-0.504622,-0.302537,0.221596,-0.015137,-0.220927,0.015561,-0.565235,-0.205634,0.270455,1.395589,1.053251,0.174178,-0.059512,-0.763151,-0.504842,0.663159,-0.742397,-0.232674,0.261800,-0.470752,0.735410,0.898936,0.963866,-0.401768,0.332764,0.092954,-0.080287,-0.035084,-0.205307
-0.507037,-0.330514,0.205049,-0.002437,-0.206578,0.002302,-0.559922,-0.181287,0.268341,1.424335,1.096448,0.175535,-0.098060,-0.784334,-0.524931,0.654579,-0.755714,-0.235238,0.261800,-0.470752,0.707156,0.931822,0.921640,-0.384746,0.290991,0.069912,-0.068468,-0.026217,-0.226433
-0.496361,-0.346067,0.181870,0.011253,-0.192399,-0.011415,-0.540755,-0.153408,0.259200,1.420348,1.096658,0.174750,-0.143435,-0.787899,-0.517971,0.624001,-0.731560,-0.228679,0.261800,-0.473386,0.665121,0.990753,0.896818,-0.371086,0.227658,0.045326,-0.040813,-0.003216,-0.265002
-0.479138,-0.355407,0.155374,0.025439,-0.178306,-0.025361,-0.514660,-0.123763,0.246546,1.399993,1.075374,0.172894,-0.192222,-0.782653,-0.497485,0.582425,-0.688669,-0.217558,0.261800,-0.476186,0.616195,1.062706,0.880699,-0.359107,0.153543,0.019967,-0.005241,0.026851,-0.312293
-0.449677,-0.345078,0.125221,0.045768,-0.157511,-0.028305,-0.474470,-0.088609,0.234819,1.340874,0.992605,0.174939,-0.222312,-0.760577,-0.442470,0.535665,-0.633978,-0.200157,0.261800,-0.490507,0.564272,1.119805,0.839300,-0.364800,0.105649,0.030345,0.017204,0.031365,-0.362835
-0.417176,-0.331428,0.096996,0.063545,-0.141529,-0.031235,-0.428501,-0.053661,0.225991,1.273000,0.897410,0.175866,-0.243849,-0.734367,-0.376804,0.491281,-0.584386,-0.180351,0.261800,-0.511396,0.522281,1.169562,0.787912,-0.369766,0.068809,0.041384,0.030181,0.022643,-0.408999
-0.378600,-0.311138,0.072626,0.076218,-0.135174,-0.034135,-0.370978,-0.019125,0.222957,1.187619,0.777366,0.174559,-0.248280,-0.699893,-0.289843,0.451649,-0.544992,-0.155738,0.261800,-0.545417,0.500152,1.204640,0.716549,-0.373278,0.054076,0.053745,0.024224,-0.012550,-0.446410
-0.346911,-0.299664,0.054626,0.073811,-0.157583,-0.041713,-0.305775,-0.014961,0.221479,1.106675,0.664321,0.176370,-0.240699,-0.666026,-0.222247,0.422556,-0.520068,-0.125088,0.255024,-0.577503,0.497265,1.205377,0.636162,-0.362659,0.048409,0.057063,0.012360,-0.051240,-0.462525
-0.318666,-0.292599,0.039811,0.063866,-0.194374,-0.051630,-0.236735,-0.025982,0.221012,1.027952,0.554780,0.179741,-0.227111,-0.632466,-0.164336,0.398735,-0.502378,-0.091421,0.244861,-0.608620,0.503999,1.188946,0.551265,-0.344977,0.047653,0.055861,-0.002456,-0.091676,-0.467992
-0.290260,-0.318142,0.035424,0.070022,-0.214471,-0.059944,-0.175188,-0.093768,0.223602,0.938263,0.547683,0.191932,-0.210552,-0.588366,-0.169055,0.403161,-0.492258,-0.072010,0.139859,-0.632984,0.527877,1.115977,0.476257,-0.316898,0.034773,0.062789,-0.004030,-0.103024,-0.453096
-0.261602,-0.345062,0.030920,0.074985,-0.229689,-0.066475,-0.116017,-0.155573,0.226446,0.850356,0.566071,0.206087,-0.191559,-0.543352,-0.180909,0.414732,-0.484375,-0.052476,0.060163,-0.658214,0.555077,1.035802,0.411056,-0.285979,0.018288,0.072100,-0.004361,-0.102719,-0.436575
-0.232444,-0.374734,0.026181,0.077563,-0.235146,-0.069442,-0.061601,-0.205413,0.229798,0.766016,0.635429,0.224165,-0.167697,-0.496508,-0.207035,0.440595,-0.480965,-0.032698,0.031090,-0.685179,0.588917,0.941219,0.365477,-0.249381,-0.005404,0.086176,-0.002204,-0.079110,-0.416802
-0.205218,-0.392871,0.021309,0.077035,-0.232878,-0.066141,-0.015931,-0.239060,0.233362,0.692273,0.716179,0.239707,-0.138305,-0.457174,-0.231483,0.464735,-0.474794,-0.016319,0.017319,-0.700515,0.616698,0.858574,0.353129,-0.210234,-0.021988,0.095937,-0.005733,-0.046405,-0.402546
-0.178959,-0.405242,0.016370,0.074954,-0.226747,-0.059705,0.025366,-0.264611,0.237032,0.623825,0.802628,0.253981,-0.106148,-0.421592,-0.255093,0.488016,-0.467241,-0.001638,0.011200,-0.710037,0.641449,0.781895,0.357397,-0.169811,-0.034074,0.103540,-0.012105,-0.009151,-0.391048
-0.167732,-0.403700,0.014788,0.069881,-0.224858,-0.051373,0.060714,-0.283888,0.238268,0.587350,0.883036,0.263897,-0.068824,-0.401213,-0.269145,0.500145,-0.452511,0.001438,-0.001602,-0.693503,0.644643,0.728168,0.399733,-0.136394,-0.034074,0.106787,-0.022631,0.017751,-0.387076
-0.163971,-0.398861,0.013106,0.059272,-0.227714,-0.046540,0.085413,-0.300905,0.239571,0.566738,0.958511,0.270049,-0.034341,-0.385257,-0.279923,0.510556,-0.435512,0.002124,-0.014742,-0.674650,0.643543,0.683714,0.451612,-0.109804,-0.030307,0.109494,-0.032339,0.040354,-0.385587
-0.175143,-0.387427,0.011224,0.037591,-0.240059,-0.046540,0.088808,-0.313400,0.241010,0.577858,1.024115,0.270049,-0.005539,-0.378152,-0.284153,0.517533,-0.413976,-0.001969,-0.028557,-0.651161,0.633857,0.657811,0.522574,-0.096871,-0.021835,0.111120,-0.040415,0.054361,-0.389065
-0.206675,-0.377216,0.009244,0.011090,-0.249883,-0.050693,0.077921,-0.315424,0.241199,0.624529,1.079038,0.256860,0.013691,-0.383845,-0.288637,0.520393,-0.389904,-0.005177,-0.038461,-0.626315,0.619759,0.652031,0.610450,-0.091176,-0.005848,0.111206,-0.047923,0.062234,-0.398786
-0.248389,-0.367615,0.007215,-0.017821,-0.258447,-0.055839,0.059891,-0.312214,0.240909,0.688978,1.128624,0.237763,0.028136,-0.395936,-0.293248,0.520928,-0.364561,-0.007944,-0.046409,-0.600789,0.603454,0.656889,0.706785,-0.089099,0.013898,0.110750,-0.055149,0.067040,-0.411628
-0.312708,-0.363064,0.009370,-0.031029,-0.246884,-0.060486,0.061420,-0.293898,0.242435,0.795071,1.169657,0.211329,0.021425,-0.432263,-0.329010,0.516593,-0.331192,-0.016280,-0.051762,-0.556104,0.575604,0.656889,0.826112,-0.058085,0.077312,0.109220,-0.076847,0.076288,-0.425071
-0.373329,-0.351592,0.013980,-0.038842,-0.235429,-0.068332,0.075758,-0.275685,0.245026,0.898174,1.197013,0.186950,0.017684,-0.468988,-0.396504,0.513050,-0.303205,-0.020892,-0.054521,-0.503199,0.540568,0.638725,0.929820,-0.026486,0.141369,0.107439,-0.098559,0.087394,-0.433500
-0.426552,-0.326277,0.023498,-0.035864,-0.224193,-0.082577,0.115719,-0.257680,0.249749,0.995288,1.197013,0.166686,0.019886,-0.506509,-0.527460,0.513050,-0.285987,-0.018058,-0.052088,-0.433855,0.491163,0.582500,1.002281,0.006280,0.206708,0.107439,-0.120297,0.102215,-0.431897
-0.458576,-0.322499,0.039904,-0.038032,-0.232901,-0.109030,0.164532,-0.229962,0.258296,1.058347,1.208499,0.130158,0.019670,-0.543569,-0.645033,0.524878,-0.281389,-0.013327,-0.036344,-0.378269,0.455461,0.484391,1.027152,0.049394,0.289348,0.109064,-0.154295,0.134178,-0.454419
-0.480001,-0.329489,0.059755,-0.042772,-0.251580,-0.141586,0.217773,-0.197387,0.268755,1.104380,1.226231,0.085497,0.018246,-0.580400,-0.755916,0.543600,-0.283101,-0.007646,-0.013943,-0.329560,0.426611,0.365340,1.027152,0.097683,0.380641,0.112644,-0.194425,0.174710,-0.489002
-0.504970,-0.353664,0.073463,-0.027023,-0.247558,-0.158327,0.242990,-0.179882,0.262425,1.137205,1.237127,-0.007158,0.025249,-0.595713,-0.812899,0.557807,-0.306366,-0.013194,-0.015976,-0.310227,0.398313,0.236237,0.953847,0.152376,0.373945,0.130394,-0.224623,0.192894,-0.545369
-0.520743,-0.370913,0.081120,-0.008734,-0.241292,-0.171354,0.261111,-0.170135,0.255433,1.158341,1.242338,-0.110341,0.029918,-0.603044,-0.846080,0.565871,-0.334582,-0.020449,-0.018814,-0.300554,0.366169,0.126801,0.858542,0.203668,0.340073,0.147914,-0.243906,0.204435,-0.591535
-0.518124,-0.374311,0.076677,0.014632,-0.230540,-0.176955,0.265044,-0.175903,0.247121,1.158341,1.236178,-0.234576,0.029918,-0.594416,-0.831662,0.561647,-0.372700,-0.031117,-0.023258,-0.310203,0.326333,0.056703,0.720676,0.248159,0.251858,0.164975,-0.241355,0.204435,-0.617294
-0.487259,-0.356254,0.068642,0.036069,-0.220617,-0.185272,0.269517,-0.191136,0.239087,1.114367,1.197316,-0.355732,-0.001822,-0.567354,-0.787523,0.542880,-0.416595,-0.043254,-0.023318,-0.335937,0.309029,0.044820,0.609559,0.272135,0.164164,0.184079,-0.215330,0.218841,-0.629054
-0.442270,-0.327469,0.058811,0.056540,-0.211109,-0.194948,0.274931,-0.211102,0.231193,1.049527,1.142102,-0.475348,-0.048919,-0.531075,-0.728522,0.516841,-0.463378,-0.056127,-0.021187,-0.369712,0.302993,0.062049,0.511817,0.285852,0.076733,0.204205,-0.177567,0.240574,-0.633812
-0.371983,-0.291970,0.043655,0.074410,-0.182170,-0.196235,0.274931,-0.217859,0.211264,0.924750,1.061878,-0.580141,-0.122080,-0.463715,-0.616268,0.487861,-0.505638,-0.075068,0.023911,-0.415384,0.319171,0.154307,0.473424,0.317368,0.020368,0.245346,-0.130116,0.240574,-0.615378
-0.299728,-0.260715,0.030237,0.091705,-0.160436,-0.192479,0.278095,-0.223150,0.190478,0.791395,0.987739,-0.684778,-0.200807,-0.387376,-0.522292,0.460781,-0.547335,-0.093722,0.080615,-0.467273,0.344450,0.267179,0.453405,0.346592,-0.027356,0.276157,-0.087239,0.240958,-0.593949
-0.223529,-0.237947,0.020291,0.107852,-0.153109,-0.178636,0.285567,-0.225510,0.167976,0.640876,0.925765,-0.789112,-0.290670,-0.293070,-0.464862,0.437500,-0.587909,-0.111803,0.160534,-0.531601,0.387937,0.421290,0.470134,0.371237,-0.057799,0.286308,-0.053502,0.244355,-0.566529
-0.177128,-0.216657,0.015390,0.126904,-0.177348,-0.158748,0.287239,-0.252366,0.147792,0.533766,0.864985,-0.894851,-0.381391,-0.169958,-0.422323,0.412723,-0.627331,-0.119461,0.166046,-0.602585,0.447334,0.582837,0.510565,0.367111,-0.079603,0.279720,-0.032513,0.253748,-0.549742
-0.145624,-0.196104,0.012660,0.147409,-0.217370,-0.135837,0.286420,-0.291471,0.128766,0.448355,0.804799,-1.001297,-0.472544,-0.032438,-0.387227,0.387197,-0.666180,-0.121909,0.134355,-0.676900,0.514689,0.748109,0.562849,0.348599,-0.097087,0.264764,-0.017895,0.266139,-0.538271
-0.147868,-0.179229,0.012660,0.163985,-0.254349,-0.111211,0.267541,-0.316513,0.118288,0.433428,0.742862,-1.090274,-0.551958,0.020210,-0.344613,0.370860,-0.711801,-0.109036,0.083612,-0.773000,0.594461,0.888159,0.612273,0.305534,-0.101725,0.247018,-0.015389,0.260408,-0.530943
-0.151797,-0.165393,0.011616,0.182802,-0.286401,-0.084427,0.257720,-0.333207,0.110119,0.427522,0.687742,-1.174881,-0.630954,0.041248,-0.296423,0.358725,-0.763109,-0.103656,0.043280,-0.884203,0.682203,1.019205,0.659385,0.261968,-0.104426,0.228647,-0.014440,0.252303,-0.522669
-0.159096,-0.157635,0.009535,0.206103,-0.308601,-0.053326,0.266012,-0.333207,0.106569,0.439659,0.646252,-1.250753,-0.709124,-0.000933,-0.237080,0.354996,-0.825792,-0.113263,0.023770,-1.025620,0.785891,1.132255,0.701875,0.217395,-0.103254,0.209026,-0.016607,0.239452,-0.512504
-0.166184,-0.148803,0.009481,0.236267,-0.320087,-0.028698,0.283107,-0.325878,0.107268,0.457530,0.612620,-1.314138,-0.795138,-0.061552,-0.189780,0.360484,-0.899972,-0.120992,0.020192,-1.173948,0.904591,1.210629,0.732170,0.183247,-0.099234,0.194920,-0.021207,0.225538,-0.503747
-0.173168,-0.139433,0.010121,0.269863,-0.326217,-0.007307,0.304603,-0.314886,0.110091,0.478267,0.582918,-1.371278,-0.885070,-0.131389,-0.148502,0.370580,-0.979899,-0.127781,0.024579,-1.325729,1.030794,1.271664,0.756368,0.154311,-0.093789,0.183572,-0.027024,0.211093,-0.495695
-0.191476,-0.122042,-0.012359,0.314168,-0.321543,0.028337,0.335329,-0.297326,0.122398,0.528659,0.544964,-1.412250,-1.025742,-0.198154,-0.140168,0.347858,-1.032395,-0.123319,0.043185,-1.370292,1.188038,1.320649,0.775359,0.099343,-0.066610,0.164946,-0.043554,0.175474,-0.475295
-0.213038,-0.102931,-0.034324,0.362709,-0.311442,0.062361,0.360626,-0.280301,0.136417,0.584293,0.509385,-1.448061,-1.155338,-0.256292,-0.122215,0.327390,-1.072854,-0.120403,0.060774,-1.400000,1.314293,1.362160,0.794550,0.051753,-0.039932,0.149565,-0.059713,0.141656,-0.452405
-0.241109,-0.080384,-0.055257,0.419718,-0.290487,0.093145,0.375066,-0.264350,0.153858,0.650404,0.478557,-1.473549,-1.262775,-0.297175,-0.085027,0.311434,-1.089242,-0.120403,0.076326,-1.400000,1.378572,1.388721,0.814137,0.018923,-0.014259,0.140673,-0.075131,0.111443,-0.424537
-0.274158,-0.053810,-0.066691,0.465617,-0.268106,0.118643,0.366095,-0.262704,0.162144,0.709222,0.451447,-1.500066,-1.329733,-0.320262,-0.072195,0.296336,-1.095613,-0.120005,0.140052,-1.400000,1.400000,1.404410,0.814354,-0.004043,0.002960,0.134589,-0.086780,0.087210,-0.397832
-0.309692,-0.025227,-0.073373,0.505957,-0.245016,0.141495,0.345420,-0.268212,0.165852,0.764387,0.426199,-1.527094,-1.376445,-0.334448,-0.072195,0.281669,-1.096973,-0.120005,0.227859,-1.400000,1.400000,1.414661,0.804884,-0.022075,0.015950,0.129910,-0.096544,0.065971,-0.371711
-0.327713,-0.004644,-0.075397,0.531334,-0.215071,0.169410,0.305115,-0.281607,0.165852,0.792976,0.428810,-1.558637,-1.416143,-0.346914,-0.125484,0.268619,-1.093287,-0.114811,0.248224,-1.400000,1.400000,1.412500,0.780728,-0.028120,0.019023,0.128308,-0.100150,0.054858,-0.356931
-0.358345,0.004578,-0.080178,0.566978,-0.184288,0.202435,0.247042,-0.298722,0.171166,0.843394,0.471136,-1.594600,-1.461427,-0.374788,-0.210264,0.253223,-1.089855,-0.130331,0.261800,-1.400000,1.400000,1.415394,0.755357,-0.036475,0.023427,0.126899,-0.103961,0.038861,-0.335466
-0.414198,-0.008926,-0.090472,0.623157,-0.151830,0.245679,0.153434,-0.323275,0.187335,0.937470,0.592889,-1.639401,-1.517880,-0.433476,-0.357154,0.233136,-1.086931,-0.186363,0.261800,-1.400000,1.400000,1.428399,0.727555,-0.049449,0.030494,0.126899,-0.108184,0.013094,-0.300627
-0.468454,-0.034780,-0.094736,0.659651,-0.136959,0.261586,0.072211,-0.333813,0.200482,1.026479,0.717749,-1.660871,-1.551456,-0.468161,-0.452170,0.217759,-1.079521,-0.211769,0.261800,-1.400000,1.400000,1.444450,0.713516,-0.060787,0.037783,0.126567,-0.111162,-0.008940,-0.270118
-0.521909,-0.066808,-0.095983,0.686299,-0.130881,0.263822,-0.002818,-0.337343,0.212117,1.112952,0.844158,-1.670675,-1.573591,-0.490842,-0.521244,0.204738,-1.069867,-0.221861,0.261800,-1.400000,1.400000,1.462023,0.706361,-0.071306,0.045184,0.126567,-0.113517,-0.029107,-0.241775
-0.549203,-0.076124,-0.092604,0.682857,-0.142270,0.255169,-0.044916,-0.337343,0.219791,1.169869,0.922579,-1.676341,-1.576764,-0.496634,-0.561233,0.189524,-1.063528,-0.220891,0.261800,-1.400000,1.400000,1.469636,0.703718,-0.077553,0.050627,0.126575,-0.114222,-0.042582,-0.221896
-0.568901,-0.081230,-0.088952,0.676750,-0.153368,0.250316,-0.077980,-0.335757,0.222350,1.217492,0.986456,-1.681692,-1.576053,-0.504105,-0.596622,0.173991,-1.059301,-0.223415,0.261800,-1.400000,1.400000,1.476316,0.700994,-0.082976,0.055493,0.126604,-0.114877,-0.055071,-0.203447
-0.573409,-0.077919,-0.084753,0.665314,-0.163880,0.253067,-0.092974,-0.331174,0.214677,1.246530,1.021247,-1.686413,-1.567573,-0.514937,-0.622812,0.157816,-1.059301,-0.233896,0.261800,-1.400000,1.400000,1.481132,0.700994,-0.086748,0.059201,0.126604,-0.114877,-0.065589,-0.187853
-0.568854,-0.071362,-0.080824,0.649807,-0.172574,0.251242,-0.091360,-0.321484,0.197684,1.259676,1.026672,-1.682888,-1.555783,-0.519620,-0.630360,0.138149,-1.051646,-0.243964,0.261800,-1.400000,1.400000,1.492062,0.706052,-0.093681,0.066183,0.126318,-0.114652,-0.079043,-0.168173
-0.559769,-0.063182,-0.077030,0.632264,-0.180358,0.247131,-0.081442,-0.309240,0.176031,1.264876,1.017414,-1.675238,-1.542339,-0.521228,-0.628585,0.116736,-1.039769,-0.253825,0.261800,-1.400000,1.400000,1.506048,0.715082,-0.102194,0.074802,0.125988,-0.114478,-0.093964,-0.146451
-0.511359,-0.031850,-0.071200,0.604791,-0.194650,0.231840,-0.032403,-0.300501,0.152473,1.218705,0.942013,-1.668826,-1.526480,-0.499130,-0.579915,0.071976,-1.003125,-0.248161,0.261800,-1.400000,1.400000,1.536744,0.747986,-0.119392,0.095350,0.124688,-0.112032,-0.118257,-0.108114
-0.459017,0.000551,-0.064573,0.575782,-0.211863,0.209242,0.021394,-0.295626,0.130507,1.165465,0.858384,-1.658042,-1.512581,-0.471919,-0.520455,0.028085,-0.966420,-0.240610,0.261800,-1.400000,1.400000,1.570930,0.779462,-0.136465,0.115313,0.123256,-0.108927,-0.140257,-0.071435
-0.398806,0.035094,-0.056349,0.543696,-0.234916,0.172026,0.084709,-0.295626,0.111723,1.098080,0.758293,-1.638511,-1.502597,-0.434479,-0.439411,-0.014074,-0.929589,-0.229283,0.261800,-1.400000,1.400000,1.612103,0.808082,-0.153287,0.134107,0.123256,-0.104502,-0.157673,-0.038071
-0.357324,0.049466,-0.046060,0.505671,-0.266388,0.139541,0.129908,-0.295742,0.094349,1.049986,0.678219,-1.617843,-1.500778,-0.371540,-0.340045,-0.048435,-0.886836,-0.226803,0.261800,-1.400000,1.400000,1.652018,0.837598,-0.173449,0.153891,0.122690,-0.099984,-0.169647,-0.009584
-0.325203,0.053753,-0.034738,0.464677,-0.302071,0.109419,0.166051,-0.294907,0.077678,1.011536,0.608148,-1.596605,-1.503041,-0.295848,-0.231515,-0.078898,-0.841120,-0.228746,0.261800,-1.400000,1.400000,1.691307,0.867565,-0.195281,0.174169,0.122287,-0.095420,-0.178899,0.016465
-0.306462,0.014792,-0.013003,0.426074,-0.356135,0.089644,0.176881,-0.321781,0.068509,0.977836,0.614314,-1.588001,-1.509734,-0.308167,-0.154981,-0.081055,-0.813016,-0.234025,0.229492,-1.400000,1.400000,1.696523,0.887302,-0.208965,0.186133,0.122287,-0.091855,-0.182255,0.030966
-0.286561,-0.027150,0.009578,0.395590,-0.416135,0.067399,0.185921,-0.365179,0.063287,0.944296,0.642667,-1.581467,-1.517425,-0.333983,-0.109521,-0.079095,-0.788927,-0.228059,0.186816,-1.400000,1.400000,1.700000,0.903890,-0.221198,0.196479,0.122792,-0.088316,-0.185341,0.044815
-0.264336,-0.075052,0.033854,0.381345,-0.488012,0.040214,0.191380,-0.441628,0.065959,0.911073,0.715398,-1.581467,-1.527113,-0.386794,-0.126204,-0.068898,-0.772865,-0.199604,0.123401,-1.400000,1.400000,1.700000,0.914181,-0.230528,0.203589,0.122792,-0.084829,-0.187884,0.057362
-0.241407,-0.121768,0.054765,0.373252,-0.556239,0.007952,0.193637,-0.501728,0.075454,0.879922,0.813054,-1.581571,-1.535220,-0.432738,-0.179112,-0.056405,-0.766174,-0.162719,0.068805,-1.400000,1.400000,1.700000,0.918033,-0.236391,0.207453,0.124069,-0.081477,-0.189597,0.069263
-0.218125,-0.167892,0.073994,0.368236,-0.622644,-0.026849,0.194073,-0.553657,0.088362,0.849807,0.923176,-1.582923,-1.542538,-0.475250,-0.250135,-0.042764,-0.764167,-0.121617,0.017769,-1.400000,1.400000,1.700000,0.918456,-0.240804,0.209693,0.125230,-0.078192,-0.191313,0.080841
-0.191989,-0.211618,0.084865,0.355817,-0.650950,-0.058497,0.183043,-0.559306,0.103142,0.813949,1.006296,-1.582923,-1.548084,-0.495232,-0.311030,-0.029921,-0.769792,-0.106115,0.017769,-1.400000,1.400000,1.700000,0.910471,-0.240804,0.208184,0.125230,-0.076103,-0.191313,0.088689
-0.167685,-0.258346,0.093735,0.339704,-0.669070,-0.089659,0.172138,-0.548773,0.116321,0.779229,1.082009,-1.584854,-1.553554,-0.496369,-0.374116,-0.017679,-0.777664,-0.120587,0.034214,-1.400000,1.400000,1.700000,0.898432,-0.240276,0.205565,0.126288,-0.073946,-0.192700,0.097346
-0.147043,-0.311081,0.098603,0.316199,-0.669070,-0.119852,0.161480,-0.505875,0.126297,0.746782,1.142915,-1.589650,-1.558872,-0.459815,-0.441590,-0.006639,-0.790029,-0.195006,0.086094,-1.400000,1.400000,1.700000,0.878287,-0.237842,0.200728,0.126288,-0.071653,-0.192700,0.107621
-0.155644,-0.346126,0.101583,0.302059,-0.653342,-0.151696,0.161564,-0.474599,0.126541,0.756882,1.168237,-1.599641,-1.560061,-0.444721,-0.479678,-0.004722,-0.802423,-0.236607,0.128253,-1.400000,1.400000,1.700000,0.863304,-0.235814,0.196602,0.127259,-0.069930,-0.194580,0.115577
-0.178868,-0.372327,0.103620,0.292601,-0.630875,-0.184367,0.167017,-0.449132,0.121918,0.788255,1.175769,-1.612229,-1.559477,-0.440357,-0.503074,-0.007366,-0.814832,-0.261800,0.165553,-1.400000,1.400000,1.700000,0.850903,-0.233873,0.192832,0.127708,-0.067757,-0.196447,0.122375
-0.232640,-0.390897,0.111731,0.267208,-0.656530,-0.230390,0.174991,-0.421286,0.126124,0.881959,1.182914,-1.632541,-1.536727,-0.479520,-0.535634,-0.023117,-0.829189,-0.261800,0.157668,-1.400000,1.400000,1.700000,0.850903,-0.233873,0.190429,0.127708,-0.067757,-0.196447,0.127044
-0.276915,-0.412711,0.126130,0.244283,-0.685609,-0.270858,0.178374,-0.388813,0.136482,0.971450,1.208331,-1.654136,-1.507861,-0.518160,-0.562973,-0.044095,-0.845209,-0.261800,0.149634,-1.400000,1.400000,1.700000,0.852697,-0.234262,0.188347,0.127569,-0.066976,-0.197797,0.131498
-0.302197,-0.441016,0.153105,0.226295,-0.721536,-0.300219,0.172580,-0.347084,0.159145,1.052521,1.270293,-1.678297,-1.466761,-0.555761,-0.579874,-0.075528,-0.864557,-0.261800,0.141303,-1.400000,1.400000,1.700000,0.857938,-0.234262,0.186909,0.127569,-0.066976,-0.198980,0.135522
-0.316413,-0.463630,0.179235,0.219347,-0.741559,-0.310005,0.165034,-0.314820,0.176004,1.108687,1.320873,-1.699207,-1.433149,-0.583402,-0.578467,-0.104275,-0.882381,-0.261800,0.146547,-1.400000,1.400000,1.699892,0.858638,-0.234765,0.185436,0.127359,-0.067185,-0.200194,0.138835
-0.325097,-0.483399,0.204944,0.217919,-0.753631,-0.310199,0.156612,-0.287286,0.189961,1.152406,1.365769,-1.718492,-1.403277,-0.606066,-0.567907,-0.131681,-0.899445,-0.261800,0.158580,-1.400000,1.400000,1.700000,0.857067,-0.235376,0.183846,0.127896,-0.067441,-0.201014,0.141792
-0.329692,-0.475640,0.218502,0.219444,-0.756066,-0.299086,0.141816,-0.285320,0.195278,1.176100,1.384879,-1.732342,-1.378411,-0.617173,-0.562506,-0.159217,-0.919540,-0.261800,0.168906,-1.400000,1.400000,1.700000,0.855004,-0.235376,0.183846,0.127896,-0.067441,-0.202443,0.144350
-0.332189,-0.459627,0.228134,0.221136,-0.755028,-0.292259,0.124788,-0.294258,0.196186,1.187651,1.394043,-1.744161,-1.357440,-0.622434,-0.558178,-0.185960,-0.939277,-0.261800,0.177690,-1.400000,1.400000,1.700000,0.852178,-0.236254,0.183249,0.128663,-0.067961,-0.204064,0.146724
-0.332189,-0.427103,0.229915,0.221136,-0.747044,-0.294004,0.103291,-0.325008,0.188277,1.174917,1.383319,-1.751923,-1.344256,-0.616003,-0.555995,-0.211126,-0.958302,-0.261800,0.183392,-1.400000,1.400000,1.700000,0.847824,-0.237603,0.183249,0.128663,-0.067961,-0.206070,0.148730
-0.320562,-0.385172,0.226058,0.224993,-0.724998,-0.292931,0.082699,-0.368729,0.173387,1.128269,1.347112,-1.756643,-1.339001,-0.588215,-0.541582,-0.230891,-0.976470,-0.261800,0.182808,-1.400000,1.400000,1.700000,0.838850,-0.239561,0.185637,0.130015,-0.068660,-0.208497,0.150394
-0.303970,-0.338533,0.219381,0.229767,-0.695919,-0.290449,0.062555,-0.418940,0.155005,1.064657,1.298161,-1.759842,-1.338140,-0.549745,-0.521052,-0.247957,-0.994213,-0.261800,0.179081,-1.400000,1.400000,1.700000,0.827567,-0.241823,0.188822,0.130951,-0.068446,-0.211136,0.151887
-0.258096,-0.277804,0.202249,0.251812,-0.634819,-0.266013,0.059552,-0.466852,0.138369,0.949569,1.203556,-1.750864,-1.353439,-0.471564,-0.473392,-0.240884,-1.003100,-0.261800,0.174357,-1.400000,1.400000,1.700000,0.810116,-0.246816,0.200870,0.133405,-0.068446,-0.214377,0.153902
-0.216735,-0.229861,0.182757,0.276119,-0.570057,-0.234495,0.059256,-0.494174,0.122406,0.837820,1.117131,-1.743669,-1.370087,-0.388195,-0.413268,-0.233075,-1.005889,-0.261800,0.175388,-1.400000,1.400000,1.700000,0.797886,-0.252114,0.215652,0.135961,-0.067354,-0.217502,0.156197
-0.184406,-0.207498,0.158544,0.304949,-0.497979,-0.188811,0.064376,-0.480310,0.107791,0.732762,1.047074,-1.740043,-1.389430,-0.294456,-0.328220,-0.223794,-0.996482,-0.261800,0.187928,-1.400000,1.400000,1.700000,0.797886,-0.258025,0.235903,0.138724,-0.065238,-0.220396,0.159051
-0.183435,-0.196162,0.137329,0.333521,-0.433772,-0.150611,0.076212,-0.444649,0.100541,0.676396,0.990841,-1.742429,-1.403848,-0.198113,-0.288389,-0.221885,-0.988093,-0.253440,0.203408,-1.400000,1.400000,1.700000,0.804009,-0.261754,0.252264,0.141199,-0.063354,-0.223876,0.161576
-0.198143,-0.190340,0.117610,0.361964,-0.373500,-0.116150,0.091407,-0.398087,0.096971,0.644375,0.941516,-1.747821,-1.415806,-0.100464,-0.271166,-0.223662,-0.979727,-0.240900,0.220357,-1.400000,1.400000,1.700000,0.814084,-0.265166,0.266680,0.143532,-0.060838,-0.227649,0.164835
-0.224155,-0.167592,0.100481,0.394762,-0.363057,-0.088257,0.127125,-0.396247,0.101784,0.658812,0.906461,-1.760805,-1.421468,-0.081588,-0.306218,-0.230624,-0.979727,-0.208062,0.217703,-1.400000,1.400000,1.700000,0.823958,-0.265166,0.275101,0.145452,-0.060838,-0.230934,0.164835
-0.252197,-0.141244,0.085477,0.421690,-0.362966,-0.064059,0.157723,-0.403379,0.107181,0.690552,0.872048,-1.773917,-1.424882,-0.089144,-0.345470,-0.237984,-0.980547,-0.174286,0.201491,-1.400000,1.400000,1.700000,0.833560,-0.265938,0.282951,0.147424,-0.060123,-0.234289,0.165215
-0.284299,-0.107698,0.074724,0.436880,-0.383583,-0.047253,0.178079,-0.428455,0.113747,0.756899,0.838922,-1.787284,-1.424882,-0.149568,-0.393121,-0.246138,-0.984465,-0.138633,0.158163,-1.400000,1.400000,1.700000,0.842619,-0.265938,0.289658,0.149498,-0.060123,-0.237782,0.165215
-0.317090,-0.082285,0.068943,0.436102,-0.397117,-0.035434,0.179883,-0.436813,0.118637,0.828495,0.805750,-1.797675,-1.420605,-0.216092,-0.429227,-0.252538,-0.988263,-0.125568,0.114685,-1.400000,1.400000,1.700000,0.848379,-0.265476,0.294133,0.151163,-0.060691,-0.240568,0.163792
-0.350225,-0.060939,0.065647,0.427342,-0.407109,-0.026108,0.172411,-0.436221,0.122688,0.902717,0.772554,-1.806578,-1.414729,-0.285667,-0.459562,-0.258061,-0.992000,-0.123797,0.071129,-1.400000,1.400000,1.700000,0.852890,-0.264578,0.297493,0.152624,-0.061225,-0.242999,0.162887
-0.375195,-0.049178,0.069482,0.422877,-0.387397,-0.019244,0.160497,-0.400903,0.126314,0.964887,0.742970,-1.813297,-1.405938,-0.367028,-0.449842,-0.264515,-0.997314,-0.140581,0.141183,-1.400000,1.400000,1.700000,0.852890,-0.264578,0.299967,0.154361,-0.062536,-0.245868,0.161316
-0.390899,-0.045619,0.072038,0.419900,-0.373601,-0.012110,0.153364,-0.373118,0.128250,1.007447,0.735588,-1.817776,-1.400263,-0.428596,-0.448206,-0.269212,-1.002024,-0.152060,0.202670,-1.400000,1.400000,1.700000,0.851521,-0.263385,0.302347,0.155925,-0.063794,-0.248446,0.159347
-0.388067,-0.058464,0.072038,0.419900,-0.371637,-0.004435,0.155795,-0.360402,0.126804,1.010780,0.772612,-1.817776,-1.400263,-0.450570,-0.462735,-0.270396,-1.005529,-0.152060,0.247018,-1.400000,1.400000,1.700000,0.846218,-0.263385,0.302347,0.157145,-0.064948,-0.250443,0.159347
-0.403280,-0.097907,0.063006,0.437708,-0.370313,0.023746,0.136183,-0.354865,0.125681,1.031104,0.862593,-1.809202,-1.407693,-0.474084,-0.494302,-0.262225,-1.004103,-0.163499,0.261800,-1.400000,1.400000,1.700000,0.839443,-0.261989,0.303886,0.158426,-0.066222,-0.252494,0.157232
-0.427518,-0.150649,0.049386,0.464557,-0.369643,0.062181,0.105549,-0.352917,0.125040,1.059924,0.979053,-1.797326,-1.418561,-0.498369,-0.534389,-0.249377,-1.000211,-0.180226,0.261800,-1.400000,1.400000,1.700000,0.831169,-0.260187,0.305855,0.160300,-0.068378,-0.254572,0.155440
-0.470000,-0.162903,0.032230,0.486690,-0.369643,0.076311,0.057914,-0.359132,0.141615,1.135890,1.057689,-1.787388,-1.423582,-0.504166,-0.567283,-0.240210,-0.990688,-0.204325,0.261800,-1.400000,1.400000,1.700000,0.831169,-0.260187,0.305855,0.160300,-0.068378,-0.256236,0.154170
-0.507898,-0.171617,0.018966,0.503190,-0.372828,0.084248,0.014820,-0.364446,0.156814,1.205650,1.130047,-1.781821,-1.425496,-0.507368,-0.602997,-0.234944,-0.982273,-0.227372,0.261800,-1.400000,1.400000,1.700000,0.831319,-0.258976,0.306490,0.161238,-0.069766,-0.257933,0.153322
-0.536624,-0.173248,0.013489,0.508422,-0.383129,0.079800,-0.019187,-0.367957,0.169257,1.262995,1.189847,-1.784998,-1.421197,-0.507368,-0.644349,-0.234944,-0.976077,-0.248313,0.261800,-1.400000,1.400000,1.700000,0.834063,-0.258976,0.306490,0.161238,-0.069766,-0.259694,0.153322
-0.552049,-0.182915,0.019531,0.514558,-0.390395,0.073788,-0.033695,-0.362703,0.169412,1.298802,1.233475,-1.788159,-1.415836,-0.513077,-0.674570,-0.235995,-0.971741,-0.257896,0.261800,-1.400000,1.400000,1.700000,0.837868,-0.257372,0.306370,0.161800,-0.070738,-0.261124,0.153753
-0.560824,-0.196600,0.031335,0.521145,-0.396144,0.066994,-0.038455,-0.353066,0.163422,1.323842,1.269020,-1.791311,-1.409943,-0.523712,-0.699226,-0.236202,-0.968335,-0.261800,0.261800,-1.400000,1.400000,1.700000,0.842205,-0.254957,0.306342,0.161987,-0.071631,-0.262824,0.154066
-0.556271,-0.208973,0.043854,0.522887,-0.394875,0.063931,-0.026830,-0.340047,0.149096,1.320284,1.271263,-1.792970,-1.409943,-0.523712,-0.704186,-0.230672,-0.966058,-0.261800,0.261800,-1.400000,1.400000,1.700000,0.845816,-0.254957,0.306342,0.161987,-0.071631,-0.262824,0.154066
-0.543435,-0.216436,0.055533,0.520918,-0.393202,0.060808,-0.009437,-0.328591,0.134436,1.303432,1.259871,-1.793566,-1.412386,-0.518511,-0.700766,-0.223771,-0.963118,-0.261800,0.261800,-1.400000,1.400000,1.700000,0.849251,-0.253029,0.306658,0.162132,-0.072675,-0.263259,0.153702
-0.514033,-0.214078,0.065531,0.511529,-0.390720,0.057567,0.019490,-0.320260,0.119112,1.259995,1.221204,-1.792038,-1.417649,-0.499679,-0.680582,-0.214127,-0.958855,-0.261800,0.261800,-1.400000,1.400000,1.700000,0.852332,-0.253029,0.306658,0.162132,-0.072675,-0.263259,0.153702
-0.464914,-0.194454,0.071288,0.499083,-0.381711,0.057297,0.058168,-0.318332,0.104395,1.182280,1.146933,-1.784051,-1.424340,-0.462342,-0.637457,-0.200954,-0.949090,-0.261800,0.261800,-1.400000,1.400000,1.700000,0.856419,-0.251140,0.308802,0.161296,-0.074037,-0.263322,0.152467
-0.405935,-0.166196,0.074924,0.485108,-0.369436,0.058109,0.101724,-0.320224,0.089981,1.087423,1.054856,-1.772834,-1.431744,-0.415751,-0.582859,-0.186017,-0.936573,-0.261800,0.261800,-1.400000,1.400000,1.700000,0.861008,-0.251066,0.311016,0.160554,-0.074843,-0.263867,0.151257
-0.346860,-0.137479,0.079648,0.469515,-0.355178,0.058109,0.147124,-0.320224,0.079573,0.981995,0.954518,-1.756933,-1.441159,-0.354535,-0.513169,-0.166273,-0.921744,-0.260338,0.261800,-1.400000,1.400000,1.700000,0.867508,-0.251066,0.313758,0.157676,-0.076107,-0.263867,0.151257
-0.293515,-0.113655,0.083875,0.452520,-0.342946,0.054264,0.190595,-0.319948,0.070946,0.881035,0.859883,-1.738714,-1.452960,-0.285264,-0.439079,-0.141662,-0.907462,-0.253218,0.257262,-1.400000,1.400000,1.700000,0.873168,-0.253400,0.316203,0.153878,-0.077520,-0.263685,0.150829
-0.251635,-0.099620,0.087106,0.432722,-0.334768,0.041991,0.230208,-0.317267,0.065882,0.789015,0.776659,-1.715859,-1.469536,-0.199886,-0.356194,-0.107319,-0.894271,-0.234782,0.243647,-1.400000,1.400000,1.700000,0.877149,-0.257786,0.318053,0.148240,-0.079228,-0.261921,0.150829
-0.222695,-0.099793,0.084592,0.408730,-0.333590,0.023156,0.252336,-0.319595,0.062803,0.713022,0.723111,-1.682548,-1.493843,-0.132025,-0.270122,-0.049884,-0.880943,-0.202450,0.231247,-1.400000,1.400000,1.700000,0.881111,-0.265338,0.319825,0.140247,-0.080910,-0.254422,0.149353
-0.200223,-0.107071,0.079205,0.382638,-0.335911,0.001036,0.265724,-0.324429,0.060714,0.645035,0.684395,-1.644004,-1.522020,-0.072917,-0.182446,0.019107,-0.867545,-0.163165,0.219453,-1.399999,1.400000,1.700000,0.885066,-0.274476,0.321558,0.131074,-0.082580,-0.244053,0.147993
-0.190172,-0.122415,0.066827,0.344805,-0.339262,-0.016234,0.247056,-0.328060,0.055772,0.611044,0.680992,-1.604750,-1.565553,-0.111245,-0.197263,0.110861,-0.809327,-0.131871,0.205123,-1.373107,1.400000,1.690787,0.924540,-0.303309,0.330834,0.102175,-0.086786,-0.197463,0.134941
-0.189166,-0.145912,0.060017,0.309705,-0.336161,-0.020494,0.219529,-0.319159,0.050828,0.600056,0.695261,-1.548817,-1.608972,-0.164993,-0.238208,0.252466,-0.692049,-0.108207,0.184482,-1.287172,1.373507,1.602522,0.999077,-0.330614,0.332739,0.049843,-0.095279,-0.106752,0.098683
-0.206250,-0.185711,0.064340,0.280076,-0.320159,0.001262,0.174291,-0.285197,0.045879,0.635073,0.744869,-1.459537,-1.652159,-0.249570,-0.331402,0.493750,-0.456672,-0.099800,0.151223,-1.083172,1.294035,1.356181,1.143727,-0.354858,0.319902,-0.049342,-0.112346,0.072185,0.016021
-0.218985,-0.218820,0.074512,0.250115,-0.292190,0.014541,0.133005,-0.237568,0.048048,0.669804,0.773782,-1.316897,-1.675673,-0.324372,-0.402101,0.683847,-0.335546,-0.100167,0.134597,-0.840729,1.148345,1.099101,1.115604,-0.302335,0.220212,-0.105029,-0.106782,0.234075,-0.087751
-0.229545,-0.248583,0.087607,0.219989,-0.258237,0.023579,0.093696,-0.183106,0.053776,0.704391,0.792345,-1.147577,-1.689349,-0.394285,-0.461550,0.848344,-0.271555,-0.104142,0.125310,-0.579068,0.969543,0.836659,1.001083,-0.211425,0.077092,-0.138963,-0.089903,0.387437,-0.202076
-0.235029,-0.265598,0.124609,0.189323,-0.222254,0.036904,0.067988,-0.121336,0.061338,0.733139,0.782650,-1.020753,-1.639522,-0.438396,-0.451882,0.912030,-0.316919,-0.104142,0.125310,-0.381882,0.840563,0.679275,0.731223,-0.108978,-0.096325,-0.111098,-0.010404,0.510682,-0.282007
-0.239791,-0.293000,0.160527,0.165853,-0.192905,0.051829,0.051457,-0.064782,0.067638,0.758011,0.798010,-0.912208,-1.606958,-0.473998,-0.461997,0.979244,-0.345137,-0.114184,0.125861,-0.216943,0.740092,0.564612,0.490050,-0.038761,-0.225902,-0.089776,0.053205,0.607542,-0.339346
-0.243112,-0.341173,0.194271,0.156775,-0.176825,0.069950,0.053282,-0.018663,0.071416,0.775132,0.863480,-0.840232,-1.608922,-0.492576,-0.511683,1.053510,-0.339062,-0.146646,0.130459,-0.116513,0.696649,0.535404,0.306269,-0.033014,-0.267787,-0.081542,0.085025,0.651623,-0.351496
-0.286315,-0.426369,0.224141,0.166169,-0.151362,0.084588,0.057131,0.026817,0.066940,0.850645,0.968695,-0.772250,-1.623467,-0.533445,-0.542870,1.124344,-0.335295,-0.170782,0.136274,-0.048998,0.697079,0.574185,0.167046,-0.037418,-0.291401,-0.075757,0.100870,0.697883,-0.366773
-0.349460,-0.530077,0.252075,0.184800,-0.121207,0.097484,0.061991,0.071978,0.058337,0.955357,1.093784,-0.706266,-1.644305,-0.585458,-0.564807,1.193462,-0.332683,-0.190754,0.142699,0.002056,0.719447,0.646963,0.050104,-0.046899,-0.305880,-0.071196,0.108728,0.745232,-0.383614
-0.385088,-0.562504,0.250700,0.200113,-0.109300,0.107250,0.055300,0.080815,0.074771,1.046811,1.165500,-0.678056,-1.650416,-0.616915,-0.580873,1.224104,-0.326181,-0.199629,0.146393,-0.017865,0.775411,0.774015,0.048075,-0.061488,-0.300439,-0.064505,0.091834,0.765168,-0.409239
-0.398198,-0.564416,0.234939,0.204643,-0.110217,0.111685,0.044730,0.078542,0.091022,1.101685,1.207907,-0.666199,-1.646820,-0.633598,-0.594625,1.243698,-0.314722,-0.207635,0.149771,-0.081211,0.842092,0.911671,0.094207,-0.094361,-0.291349,-0.065362,0.070273,0.757543,-0.436538
-0.366266,-0.505294,0.190403,0.187603,-0.136786,0.105455,0.026404,0.054046,0.106907,1.083393,1.191688,-0.687049,-1.623809,-0.620734,-0.603752,1.243698,-0.293352,-0.213905,0.152516,-0.231404,0.930206,1.070528,0.236662,-0.163804,-0.274959,-0.081313,0.039378,0.694796,-0.467182
-0.306858,-0.415802,0.133982,0.168502,-0.161626,0.086401,0.009117,0.016146,0.118057,1.003292,1.119370,-0.690304,-1.592568,-0.576653,-0.582088,1.247491,-0.270368,-0.213368,0.153060,-0.414198,1.040223,1.158212,0.441662,-0.265639,-0.258938,-0.090069,0.016165,0.582508,-0.467740
-0.233712,-0.311127,0.071620,0.148370,-0.185600,0.060937,-0.007650,-0.028457,0.126839,0.892287,1.019004,-0.684759,-1.557211,-0.516963,-0.545030,1.254435,-0.246578,-0.209427,0.153060,-0.613288,1.161188,1.210304,0.677931,-0.383668,-0.243100,-0.095228,-0.003205,0.445453,-0.453255
-0.158555,-0.192737,0.049812,0.129040,-0.205094,0.011081,-0.009877,-0.087432,0.126484,0.751340,0.876300,-0.753766,-1.468904,-0.416271,-0.471712,1.213714,-0.279954,-0.178021,0.149378,-0.783595,1.303538,1.161939,0.901014,-0.475361,-0.169935,-0.030360,-0.047893,0.256792,-0.404588
-0.107667,-0.088459,0.041400,0.109990,-0.223657,-0.045290,-0.007223,-0.153046,0.129549,0.634854,0.744560,-0.843916,-1.357754,-0.300426,-0.389994,1.163790,-0.348676,-0.151554,0.130080,-0.963587,1.399220,1.105276,1.090610,-0.535170,-0.101284,0.022976,-0.085757,0.095717,-0.353274
-0.105320,-0.012406,0.059778,0.091501,-0.240360,-0.114688,0.005191,-0.231936,0.139808,0.567299,0.634755,-0.976346,-1.200923,-0.154280,-0.291481,1.095462,-0.488087,-0.134969,0.078808,-1.162950,1.399220,1.032025,1.213230,-0.531208,-0.041667,0.053244,-0.109970,-0.010178,-0.296670
-0.117830,0.033855,0.070606,0.087849,-0.247025,-0.124428,0.054541,-0.306287,0.158748,0.528816,0.564166,-1.097308,-1.026124,-0.104248,-0.203248,0.970099,-0.659637,-0.103352,-0.038440,-1.297644,1.400000,1.002049,1.275311,-0.517804,0.010005,0.055811,-0.121746,-0.079265,-0.250705
-0.137769,0.065216,0.077658,0.091616,-0.248670,-0.104335,0.122358,-0.378365,0.182028,0.504873,0.513190,-1.212531,-0.842346,-0.102279,-0.120158,0.816221,-0.847252,-0.064219,-0.188674,-1.399997,1.400000,0.993714,1.307118,-0.499678,0.057703,0.044526,-0.127301,-0.129944,-0.210060
-0.171851,0.043806,0.088458,0.100712,-0.208055,-0.062919,0.196824,-0.356005,0.203259,0.518091,0.497197,-1.332189,-0.578261,-0.156220,-0.132792,0.534796,-1.161202,-0.006849,-0.173483,-1.400000,1.261930,1.120680,1.162190,-0.488008,0.148099,0.016040,-0.123506,-0.181551,-0.158606
-0.204491,0.016621,0.090753,0.099963,-0.166508,-0.023190,0.254830,-0.321262,0.221865,0.527448,0.479574,-1.448810,-0.293644,-0.205369,-0.164570,0.251271,-1.403398,0.043134,-0.139237,-1.371376,1.077463,1.264473,1.067952,-0.466111,0.233368,-0.010811,-0.114413,-0.210583,-0.108300
-0.234242,-0.022110,0.076034,0.079524,-0.123098,0.013159,0.279912,-0.261756,0.235218,0.529083,0.458689,-1.559353,0.032025,-0.244929,-0.234631,-0.036439,-1.502073,0.078343,-0.066891,-1.285506,0.800214,1.441908,1.075102,-0.423761,0.308379,-0.034387,-0.094726,-0.194467,-0.060289
-0.256531,-0.052286,0.065013,0.044337,-0.094141,0.029977,0.274855,-0.217709,0.256433,0.521275,0.429190,-1.682318,0.273448,-0.270030,-0.303198,-0.268970,-1.482236,0.078558,-0.030667,-1.154069,0.603647,1.525415,1.143179,-0.327579,0.366570,-0.067456,-0.078556,-0.131355,-0.025773
-0.275087,-0.078181,0.055840,0.001778,-0.072413,0.037027,0.254729,-0.181395,0.281578,0.508746,0.395386,-1.811483,0.472728,-0.287899,-0.371013,-0.473892,-1.403141,0.061276,-0.012507,-0.999859,0.447437,1.561949,1.241716,-0.204486,0.416346,-0.105269,-0.064147,-0.044748,0.001992
-0.297702,-0.118878,0.022993,-0.047103,-0.066020,0.024203,0.218232,-0.143735,0.311275,0.499821,0.404466,-1.772574,0.626650,-0.285271,-0.412639,-0.406126,-1.339606,0.012253,-0.042960,-0.921488,0.370133,1.261456,1.287900,-0.065580,0.433975,-0.134428,-0.069339,0.029478,0.026897
-0.323923,-0.166259,-0.013461,-0.095421,-0.065924,0.008544,0.180053,-0.114036,0.335290,0.497212,0.433745,-1.722774,0.762797,-0.284360,-0.448712,-0.334108,-1.273712,-0.030843,-0.074609,-0.858447,0.301371,0.953295,1.335763,0.066450,0.448623,-0.155913,-0.076294,0.088661,0.050782
-0.357359,-0.227013,-0.057128,-0.142617,-0.078423,-0.012787,0.138507,-0.100257,0.347942,0.507235,0.503424,-1.651189,0.863405,-0.286883,-0.473682,-0.253582,-1.203093,-0.062087,-0.108650,-0.826062,0.249690,0.629777,1.386987,0.184736,0.457310,-0.162054,-0.086773,0.117763,0.072631
-0.397666,-0.323521,-0.098560,-0.178839,-0.109222,-0.046854,0.127320,-0.091612,0.354962,0.531999,0.654499,-1.594829,0.938269,-0.271042,-0.492853,-0.191167,-1.127358,-0.043876,-0.112373,-0.794956,0.197175,0.344797,1.434883,0.273115,0.460205,-0.161062,-0.092686,0.134695,0.086545
-0.441406,-0.437902,-0.138872,-0.209572,-0.149171,-0.087289,0.131313,-0.085535,0.359166,0.564132,0.846264,-1.546081,1.000261,-0.246020,-0.509124,-0.137809,-1.049069,-0.000939,-0.100938,-0.764491,0.144244,0.079093,1.481114,0.346539,0.460693,-0.156504,-0.096748,0.145542,0.096492
-0.549784,-0.554480,-0.176633,-0.222275,-0.185095,-0.131986,0.155664,-0.074393,0.368280,0.719838,1.041054,-1.508709,1.029701,-0.285806,-0.535428,-0.099172,-0.974698,0.019561,-0.084369,-0.715944,0.093183,-0.135264,1.507437,0.392210,0.460693,-0.152691,-0.096748,0.139714,0.107397
-0.650436,-0.650682,-0.213902,-0.231510,-0.217521,-0.170425,0.177157,-0.068767,0.380484,0.872349,1.211752,-1.473105,1.058217,-0.324279,-0.570664,-0.074700,-0.905798,0.038229,-0.072431,-0.669573,0.053928,-0.317714,1.526945,0.431397,0.463845,-0.147789,-0.096298,0.131543,0.124035
-0.735644,-0.706140,-0.250192,-0.233811,-0.242952,-0.196346,0.192936,-0.074171,0.398874,1.018483,1.334277,-1.441037,1.084888,-0.360130,-0.623766,-0.078555,-0.847833,0.053236,-0.069751,-0.627554,0.038284,-0.436368,1.532824,0.457618,0.471908,-0.140710,-0.093652,0.118682,0.152139
-0.787670,-0.735170,-0.268304,-0.228486,-0.253275,-0.200878,0.202685,-0.079413,0.413955,1.127641,1.420450,-1.434234,1.113646,-0.392007,-0.666006,-0.107219,-0.824054,0.066817,-0.068858,-0.602007,0.063144,-0.486351,1.525367,0.476581,0.453183,-0.129050,-0.088689,0.104765,0.211964
-0.823102,-0.750985,-0.277326,-0.219351,-0.256043,-0.194717,0.209418,-0.084575,0.427381,1.218307,1.488443,-1.440061,1.143445,-0.421895,-0.702813,-0.148284,-0.817368,0.079686,-0.068858,-0.584697,0.108252,-0.501999,1.511244,0.491914,0.421066,-0.115100,-0.082568,0.090320,0.287644
-0.806612,-0.732872,-0.258788,-0.190726,-0.228054,-0.178744,0.211155,-0.082812,0.435388,1.248760,1.491919,-1.463002,1.127581,-0.440787,-0.702814,-0.168744,-0.867972,0.084030,-0.068780,-0.626274,0.117159,-0.444516,1.503427,0.496543,0.398931,-0.107580,-0.083050,0.085979,0.321355
-0.776683,-0.707028,-0.233027,-0.157864,-0.194278,-0.167657,0.214836,-0.077553,0.438972,1.259215,1.476392,-1.479606,1.086487,-0.455319,-0.693703,-0.177168,-0.928277,0.085625,-0.069613,-0.682565,0.113105,-0.360587,1.497773,0.498893,0.388543,-0.096939,-0.084255,0.083526,0.344726
-0.719872,-0.665720,-0.192814,-0.116523,-0.148926,-0.166343,0.222407,-0.065298,0.433712,1.229673,1.422857,-1.483537,0.994928,-0.461131,-0.665177,-0.161521,-1.007986,0.081724,-0.069613,-0.768292,0.083131,-0.223759,1.496447,0.498893,0.401651,-0.080057,-0.086425,0.084850,0.347422
-0.640081,-0.605760,-0.145355,-0.070239,-0.095176,-0.157259,0.236408,-0.046269,0.425479,1.158046,1.326655,-1.460874,0.881283,-0.448619,-0.613527,-0.113789,-1.101985,0.074492,-0.069775,-0.848310,0.109237,-0.061977,1.477156,0.497012,0.408431,-0.047914,-0.097781,0.091555,0.331662
-0.548801,-0.536475,-0.094275,-0.021484,-0.037228,-0.144291,0.253623,-0.023852,0.415760,1.065377,1.209121,-1.424913,0.756599,-0.426944,-0.550315,-0.050017,-1.203127,0.065595,-0.069775,-0.925471,0.163384,0.112280,1.448882,0.495295,0.412046,-0.008142,-0.113730,0.100952,0.306673
-0.445262,-0.454383,-0.047351,0.021760,0.019929,-0.132102,0.292371,0.018097,0.390834,0.927766,1.045695,-1.355658,0.603332,-0.371195,-0.458975,0.068830,-1.306662,0.057431,-0.071025,-0.990582,0.248146,0.310800,1.354725,0.483850,0.401430,0.034035,-0.142768,0.127135,0.256998
