Lukebird17/AI3618-SONIC/reference/reference/example/dance_in_da_party_001__A464/joint_pos.csv
joint_0,joint_1,joint_2,joint_3,joint_4,joint_5,joint_6,joint_7,joint_8,joint_9,joint_10,joint_11,joint_12,joint_13,joint_14,joint_15,joint_16,joint_17,joint_18,joint_19,joint_20,joint_21,joint_22,joint_23,joint_24,joint_25,joint_26,joint_27,joint_28
0.128441,0.102713,0.020116,-0.019236,0.020960,-0.015831,0.175869,-0.137002,0.174060,0.020642,0.050691,-0.048029,-0.097087,-0.147584,-0.111343,0.249355,-0.284472,0.026962,-0.016655,-0.628862,0.669457,1.214126,1.202778,-0.059122,0.220654,0.039018,0.045179,0.153431,-0.014889
0.131314,0.105590,0.020116,-0.019236,0.020960,-0.015831,0.175869,-0.137002,0.174060,0.017218,0.047271,-0.058494,-0.108987,-0.147584,-0.111343,0.237598,-0.270303,0.026962,-0.016655,-0.630670,0.672009,1.233344,1.224110,-0.072395,0.238367,0.039018,0.043704,0.166229,-0.014889
0.133230,0.107654,0.019883,-0.019216,0.021498,-0.016026,0.175837,-0.136937,0.173294,0.014936,0.044648,-0.066018,-0.117878,-0.147391,-0.110509,0.229055,-0.259865,0.025922,-0.016327,-0.631094,0.673710,1.246919,1.239479,-0.084122,0.253976,0.039709,0.042287,0.177724,-0.014214
0.133230,0.107654,0.019883,-0.019216,0.021498,-0.016026,0.175837,-0.136937,0.173294,0.014936,0.044648,-0.067658,-0.120747,-0.147391,-0.110509,0.226942,-0.256888,0.025922,-0.016327,-0.631094,0.673710,1.249209,1.242922,-0.092756,0.265375,0.039709,0.040987,0.186617,-0.014214
0.134134,0.108282,0.019747,-0.019000,0.022044,-0.015825,0.176367,-0.136695,0.173616,0.014423,0.044305,-0.068205,-0.122259,-0.148003,-0.110524,0.225773,-0.254953,0.026090,-0.016131,-0.630311,0.673805,1.249973,1.243720,-0.099380,0.274038,0.039672,0.039772,0.193530,-0.014199
0.134082,0.108184,0.019534,-0.019049,0.022095,-0.016258,0.176708,-0.136310,0.174010,0.014427,0.044153,-0.068666,-0.123113,-0.148878,-0.110745,0.225309,-0.253458,0.026023,-0.016027,-0.630668,0.673633,1.250344,1.243370,-0.105000,0.281333,0.039639,0.038462,0.199452,-0.014725
0.134082,0.108184,0.019534,-0.019049,0.022095,-0.016258,0.176708,-0.136310,0.174010,0.014427,0.044153,-0.068666,-0.123113,-0.148878,-0.110745,0.225309,-0.253458,0.026023,-0.016027,-0.630668,0.673633,1.250344,1.242054,-0.108959,0.285831,0.039639,0.038462,0.203392,-0.014725
0.133473,0.107604,0.019590,-0.018883,0.022180,-0.016432,0.177088,-0.136197,0.174070,0.014140,0.043795,-0.068898,-0.123410,-0.149349,-0.111114,0.225225,-0.252344,0.025625,-0.016005,-0.631294,0.673303,1.250709,1.241176,-0.112470,0.289680,0.039578,0.037935,0.206866,-0.015368
0.133473,0.107604,0.019590,-0.018883,0.022180,-0.016432,0.177088,-0.136197,0.174070,0.014140,0.043795,-0.068898,-0.123410,-0.149349,-0.111114,0.225225,-0.252344,0.025625,-0.016005,-0.631294,0.673303,1.250709,1.241176,-0.115084,0.292232,0.039578,0.037935,0.209410,-0.015368
0.132446,0.106608,0.019773,-0.018229,0.022852,-0.016125,0.177365,-0.135954,0.173896,0.014347,0.043034,-0.068735,-0.123247,-0.149920,-0.110602,0.224906,-0.251304,0.025594,-0.015939,-0.631526,0.672868,1.250448,1.241182,-0.117042,0.294117,0.039872,0.037556,0.211364,-0.015685
0.131373,0.105870,0.020432,-0.017834,0.023270,-0.016072,0.177924,-0.135654,0.173896,0.014133,0.042008,-0.069620,-0.123887,-0.150354,-0.109655,0.224807,-0.250826,0.025157,-0.016176,-0.630969,0.673866,1.251487,1.242844,-0.118672,0.295669,0.040332,0.037521,0.213765,-0.015397
0.131373,0.105870,0.020432,-0.017834,0.023270,-0.016072,0.177924,-0.135654,0.173896,0.014133,0.042008,-0.069620,-0.123887,-0.150354,-0.109655,0.224807,-0.250826,0.025157,-0.016176,-0.630969,0.673866,1.251487,1.242844,-0.120325,0.297321,0.040332,0.037521,0.213765,-0.015397
0.131003,0.105528,0.021459,-0.017839,0.023318,-0.016361,0.178251,-0.135393,0.174337,0.014472,0.041519,-0.070807,-0.124200,-0.151277,-0.109235,0.224551,-0.250323,0.025776,-0.016029,-0.630839,0.674542,1.252068,1.244645,-0.121881,0.299278,0.040349,0.037703,0.214909,-0.014910
0.131003,0.105528,0.021459,-0.017839,0.023318,-0.016361,0.178251,-0.135393,0.174337,0.014472,0.041519,-0.070807,-0.124200,-0.151277,-0.109235,0.224551,-0.250323,0.025776,-0.016029,-0.630839,0.674542,1.252068,1.244645,-0.123246,0.299278,0.040349,0.037703,0.214909,-0.014910
0.130788,0.105353,0.021999,-0.017401,0.023874,-0.015845,0.178343,-0.135526,0.174310,0.014153,0.041010,-0.071371,-0.124220,-0.151992,-0.109439,0.223998,-0.250157,0.025585,-0.015976,-0.629568,0.674449,1.251775,1.245543,-0.123700,0.300608,0.040193,0.037706,0.215933,-0.014762
0.130788,0.105353,0.021999,-0.017401,0.023874,-0.015845,0.178343,-0.135526,0.174310,0.014153,0.041010,-0.071371,-0.124220,-0.151992,-0.109439,0.223998,-0.250157,0.025585,-0.015976,-0.629568,0.674449,1.251775,1.245543,-0.123700,0.300608,0.040193,0.037706,0.215933,-0.014762
0.130120,0.104482,0.022303,-0.017679,0.023598,-0.016322,0.178389,-0.135539,0.173712,0.014192,0.040883,-0.071991,-0.123903,-0.153098,-0.110081,0.223705,-0.250599,0.025218,-0.015702,-0.628384,0.674007,1.251325,1.245936,-0.124007,0.301612,0.040218,0.037591,0.217133,-0.015166
0.129067,0.103001,0.022328,-0.017763,0.023511,-0.016606,0.178752,-0.135126,0.172913,0.013906,0.041729,-0.073049,-0.124237,-0.154142,-0.111056,0.223412,-0.250923,0.025170,-0.015420,-0.627366,0.673954,1.250776,1.245723,-0.124270,0.302574,0.040133,0.037464,0.218282,-0.015375
0.129067,0.103001,0.022328,-0.017763,0.023511,-0.016606,0.178752,-0.135126,0.172913,0.013906,0.041729,-0.073049,-0.124237,-0.154142,-0.111056,0.223412,-0.250923,0.025170,-0.015420,-0.627366,0.673954,1.250776,1.245723,-0.124270,0.302574,0.040133,0.037464,0.218282,-0.015375
0.128025,0.101646,0.022625,-0.017843,0.023222,-0.016963,0.178914,-0.134810,0.172176,0.014058,0.042492,-0.074297,-0.124870,-0.155017,-0.112469,0.222871,-0.251399,0.025521,-0.015172,-0.626635,0.673889,1.250673,1.245638,-0.124431,0.303374,0.040063,0.037466,0.219205,-0.015649
0.127249,0.100635,0.022099,-0.018235,0.022711,-0.017963,0.179092,-0.134762,0.172049,0.014389,0.043330,-0.074883,-0.125375,-0.155882,-0.114131,0.222773,-0.251665,0.025502,-0.014521,-0.627650,0.674473,1.251012,1.244782,-0.124315,0.304537,0.040155,0.037612,0.219727,-0.015378
0.127249,0.100635,0.022099,-0.018235,0.022711,-0.017963,0.179092,-0.134762,0.172049,0.014389,0.043330,-0.076141,-0.126638,-0.155882,-0.114131,0.222773,-0.251665,0.025502,-0.014521,-0.627650,0.674473,1.251012,1.244782,-0.124315,0.304537,0.040155,0.037612,0.219727,-0.015378
0.126960,0.099725,0.021687,-0.018851,0.022437,-0.018766,0.178505,-0.134068,0.172296,0.014480,0.044185,-0.077922,-0.128385,-0.157205,-0.115955,0.222702,-0.251269,0.025343,-0.014163,-0.629037,0.675090,1.251681,1.243966,-0.124886,0.305752,0.040214,0.037590,0.219999,-0.014753
0.126960,0.099725,0.021687,-0.018851,0.022437,-0.018766,0.178505,-0.134068,0.172296,0.014480,0.044185,-0.077922,-0.128385,-0.157205,-0.115955,0.222702,-0.251269,0.025343,-0.014163,-0.629037,0.675090,1.251681,1.243966,-0.124886,0.307012,0.040214,0.037590,0.219999,-0.014753
0.126476,0.099202,0.020939,-0.018878,0.022142,-0.018979,0.178868,-0.133614,0.172610,0.014463,0.045141,-0.079130,-0.129662,-0.158592,-0.117874,0.221907,-0.250498,0.025731,-0.013877,-0.629113,0.674087,1.251988,1.243012,-0.125494,0.307433,0.040207,0.037158,0.220099,-0.015268
0.126052,0.098239,0.020178,-0.019507,0.021817,-0.019543,0.179076,-0.133170,0.172803,0.014733,0.045973,-0.079800,-0.130035,-0.159196,-0.119411,0.221361,-0.249635,0.026135,-0.013376,-0.629146,0.673374,1.251235,1.241680,-0.126238,0.307727,0.039910,0.036683,0.220118,-0.015642
0.126052,0.098239,0.020178,-0.019507,0.021817,-0.019543,0.179076,-0.133170,0.172803,0.014733,0.045973,-0.079800,-0.130035,-0.160679,-0.120773,0.221361,-0.249635,0.026135,-0.013376,-0.629146,0.673374,1.251235,1.241680,-0.126238,0.307727,0.039910,0.036683,0.220118,-0.015642
0.125198,0.097301,0.020209,-0.019865,0.021490,-0.019713,0.178724,-0.133381,0.173199,0.014440,0.046359,-0.080205,-0.130353,-0.162130,-0.122152,0.221173,-0.248894,0.025956,-0.013039,-0.628623,0.672651,1.249944,1.240960,-0.126566,0.306646,0.039458,0.036643,0.220141,-0.016196
0.125198,0.097301,0.020209,-0.019865,0.021490,-0.019713,0.178724,-0.133381,0.173199,0.014440,0.046359,-0.080205,-0.130353,-0.162130,-0.123566,0.221173,-0.248894,0.025956,-0.013039,-0.628623,0.672651,1.249944,1.240960,-0.126566,0.306646,0.039458,0.036643,0.220141,-0.016196
0.124234,0.096511,0.021437,-0.020188,0.021181,-0.019686,0.178585,-0.133575,0.173556,0.014319,0.045859,-0.080133,-0.130296,-0.163384,-0.124786,0.220640,-0.248265,0.025639,-0.012599,-0.628376,0.673214,1.249048,1.241121,-0.126129,0.305715,0.039261,0.036732,0.220226,-0.016226
0.124234,0.096511,0.021437,-0.020188,0.021181,-0.019686,0.178585,-0.133575,0.173556,0.014319,0.045859,-0.080133,-0.130296,-0.163384,-0.124786,0.220640,-0.248265,0.025639,-0.012599,-0.628376,0.673214,1.249048,1.241121,-0.126129,0.305715,0.039261,0.036732,0.220226,-0.016226
0.123627,0.096944,0.022848,-0.020042,0.021366,-0.018869,0.178749,-0.134766,0.173345,0.013961,0.042820,-0.080390,-0.129797,-0.165004,-0.126172,0.219758,-0.247789,0.025166,-0.012247,-0.628725,0.673236,1.249482,1.241657,-0.125723,0.305067,0.039222,0.037612,0.220193,-0.015287
0.123843,0.099171,0.023723,-0.019188,0.022171,-0.017749,0.178696,-0.136425,0.173894,0.013756,0.039290,-0.080937,-0.129163,-0.166646,-0.126148,0.219233,-0.248236,0.024654,-0.011027,-0.628916,0.673374,1.250952,1.240919,-0.125650,0.304704,0.039346,0.038005,0.220037,-0.013812
0.125095,0.103066,0.023723,-0.019188,0.022171,-0.017749,0.178696,-0.138850,0.173894,0.013756,0.033644,-0.080937,-0.129163,-0.166646,-0.124164,0.219233,-0.248236,0.024654,-0.011027,-0.628916,0.673374,1.250952,1.240919,-0.125650,0.304704,0.039346,0.038005,0.220037,-0.013812
0.127477,0.109105,0.024628,-0.017728,0.023643,-0.017031,0.178467,-0.142253,0.176215,0.012461,0.025119,-0.081852,-0.129294,-0.165203,-0.118046,0.219255,-0.249745,0.023190,-0.009264,-0.628529,0.674482,1.252164,1.239128,-0.125656,0.305701,0.039554,0.038596,0.219916,-0.012329
0.130423,0.116215,0.025294,-0.016928,0.023530,-0.015587,0.179783,-0.146146,0.178435,0.011496,0.015155,-0.082350,-0.129614,-0.161819,-0.109862,0.220295,-0.250633,0.022475,-0.007633,-0.627962,0.675144,1.252204,1.238328,-0.125781,0.307365,0.038990,0.038137,0.220803,-0.011753
0.133603,0.114998,0.026648,-0.016928,0.023530,-0.015587,0.179783,-0.151041,0.180222,0.007473,0.019971,-0.084206,-0.131601,-0.153353,-0.103749,0.220295,-0.252357,0.022475,-0.004824,-0.627962,0.675144,1.252204,1.239627,-0.125781,0.307365,0.038990,0.038137,0.220803,-0.011753
0.133807,0.108518,0.028499,-0.015493,0.022093,-0.013818,0.179918,-0.155764,0.181966,0.008455,0.034638,-0.086055,-0.133938,-0.146244,-0.100300,0.221711,-0.254244,0.022670,-0.001908,-0.627468,0.675024,1.250282,1.239967,-0.125107,0.308119,0.038277,0.037742,0.221801,-0.011864
0.128058,0.091515,0.028499,-0.012132,0.020487,-0.011247,0.179918,-0.160140,0.183626,0.019447,0.069007,-0.087889,-0.136973,-0.141848,-0.102177,0.221711,-0.256459,0.022670,0.001224,-0.624824,0.673089,1.245638,1.239967,-0.125107,0.308119,0.038277,0.037742,0.221801,-0.011864
0.111865,0.071318,0.029447,-0.009762,0.016281,-0.010726,0.179130,-0.162483,0.184853,0.049369,0.107679,-0.086194,-0.138297,-0.143959,-0.106386,0.223995,-0.259288,0.024967,0.005082,-0.612939,0.661609,1.228729,1.227914,-0.123614,0.305649,0.038333,0.040046,0.223645,-0.011362
0.090450,0.049524,0.028921,-0.007887,0.010775,-0.011061,0.178932,-0.163367,0.185527,0.088756,0.148502,-0.082734,-0.138608,-0.149325,-0.111761,0.226130,-0.262424,0.027606,0.009304,-0.596432,0.645357,1.205686,1.210626,-0.122729,0.301374,0.038505,0.043867,0.225629,-0.010890
0.044801,0.028602,0.022708,-0.001924,0.008737,-0.009870,0.174163,-0.164859,0.183756,0.167582,0.177515,-0.070306,-0.129347,-0.177580,-0.114034,0.236464,-0.270472,0.032653,0.012031,-0.570698,0.608358,1.137569,1.153553,-0.119526,0.281558,0.041579,0.063645,0.236606,-0.010890
-0.003902,0.010279,0.015442,0.006932,0.009839,-0.005213,0.169757,-0.167707,0.182316,0.251703,0.201098,-0.056063,-0.114342,-0.208129,-0.115000,0.248531,-0.280969,0.038141,0.012950,-0.544948,0.566600,1.050161,1.079248,-0.110053,0.250681,0.050961,0.098956,0.257938,-0.011337
-0.058714,-0.002844,0.006070,0.021575,0.017220,0.006377,0.166074,-0.173266,0.182316,0.346410,0.213819,-0.038191,-0.087852,-0.243262,-0.113350,0.264063,-0.296360,0.044510,0.012950,-0.519167,0.515325,0.924173,0.970480,-0.088040,0.197680,0.072961,0.165332,0.299980,-0.013206
-0.099493,-0.014262,0.001676,0.025233,0.024495,0.018617,0.149016,-0.176129,0.186233,0.403642,0.226446,-0.033292,-0.066559,-0.272103,-0.117323,0.271896,-0.308763,0.044437,0.010916,-0.492448,0.469783,0.781131,0.857674,-0.077927,0.165435,0.093679,0.217834,0.334328,-0.017750
-0.133255,-0.024827,-0.000229,0.023399,0.031716,0.031183,0.124739,-0.177644,0.192501,0.442136,0.239025,-0.034879,-0.047437,-0.297798,-0.124108,0.275878,-0.319670,0.041143,0.009213,-0.465262,0.427108,0.629562,0.742848,-0.073764,0.143567,0.113758,0.263398,0.364830,-0.023631
-0.163450,-0.043687,0.004286,0.021150,0.029881,0.034615,0.124739,-0.170140,0.211957,0.494528,0.278296,-0.056209,-0.047437,-0.303107,-0.162258,0.277742,-0.331434,0.060307,0.005740,-0.452979,0.405781,0.483284,0.653183,-0.114255,0.190166,0.103080,0.232466,0.387875,-0.041908
-0.198847,-0.074300,0.006531,0.021528,0.026526,0.036904,0.127265,-0.161692,0.234632,0.562253,0.343120,-0.082172,-0.054902,-0.313120,-0.208401,0.273384,-0.336328,0.078705,0.004221,-0.442145,0.382744,0.364429,0.586757,-0.159949,0.278517,0.069951,0.161519,0.413103,-0.045433
-0.244648,-0.128418,0.004234,0.027160,0.020130,0.036904,0.136434,-0.151357,0.263745,0.660646,0.459050,-0.117398,-0.078582,-0.332541,-0.270528,0.256579,-0.327484,0.095572,0.006609,-0.434207,0.356284,0.300420,0.566810,-0.216048,0.450372,-0.008080,0.010543,0.442697,-0.019455
-0.286079,-0.202939,0.001420,0.023059,-0.004595,0.023398,0.157141,-0.144161,0.284878,0.744348,0.604113,-0.136692,-0.093120,-0.355522,-0.323335,0.227337,-0.301360,0.108663,0.008042,-0.404718,0.307908,0.318658,0.578239,-0.270212,0.629684,-0.054360,-0.069305,0.445145,0.035922
-0.325326,-0.287663,-0.001651,0.014091,-0.038484,0.003542,0.183616,-0.138534,0.302022,0.820706,0.763744,-0.148019,-0.103087,-0.380284,-0.371482,0.191874,-0.266596,0.119865,0.008680,-0.364451,0.248573,0.378020,0.605356,-0.323408,0.812726,-0.084765,-0.113590,0.434020,0.106000
-0.334438,-0.359296,0.004835,-0.002697,-0.086662,-0.020758,0.213954,-0.138534,0.316823,0.862342,0.932980,-0.115394,-0.071869,-0.400198,-0.379534,0.170907,-0.241015,0.127423,-0.028575,-0.315376,0.205931,0.516596,0.664694,-0.421404,0.941168,-0.110317,-0.111457,0.413402,0.072641
-0.340903,-0.425368,0.011279,-0.017381,-0.128308,-0.040940,0.237771,-0.137557,0.329405,0.902365,1.111283,-0.060980,-0.023145,-0.419052,-0.394008,0.160075,-0.225262,0.135001,-0.059086,-0.257552,0.164984,0.634695,0.724186,-0.557308,1.063911,-0.139797,-0.109273,0.399657,0.014207
-0.340903,-0.480315,0.017637,-0.027857,-0.156889,-0.052884,0.248549,-0.133880,0.337548,0.939166,1.307720,0.037011,0.060591,-0.435782,-0.421328,0.169517,-0.229163,0.142618,-0.076111,-0.182230,0.127427,0.711843,0.783986,-0.769031,1.175260,-0.177133,-0.106984,0.399657,-0.094376
-0.337064,-0.528415,0.022880,-0.037940,-0.174242,-0.055847,0.254628,-0.126084,0.332364,0.957258,1.505976,0.172527,0.180413,-0.442476,-0.450285,0.191910,-0.246197,0.152023,-0.088198,-0.058139,0.028876,0.698830,0.800437,-1.019622,1.351940,-0.206820,-0.125132,0.448498,-0.233821
-0.330722,-0.573092,0.027566,-0.047827,-0.185982,-0.054319,0.258359,-0.115282,0.320518,0.965995,1.705142,0.326804,0.318279,-0.444152,-0.480060,0.220778,-0.269798,0.162321,-0.097815,0.090338,-0.100173,0.640735,0.795214,-1.289648,1.561286,-0.232683,-0.153499,0.522034,-0.388697
-0.318567,-0.611836,0.026014,-0.055782,-0.189340,-0.043506,0.255365,-0.115282,0.301866,0.929272,1.866397,0.461671,0.453726,-0.418565,-0.496967,0.262295,-0.304737,0.171372,-0.115509,0.265310,-0.270604,0.575639,0.742465,-1.360045,1.653095,-0.247300,-0.203024,0.553229,-0.482070
-0.302237,-0.651095,0.021131,-0.062576,-0.187259,-0.030825,0.250277,-0.115430,0.283797,0.874400,2.009216,0.582292,0.573337,-0.382545,-0.508775,0.312811,-0.347592,0.177906,-0.131806,0.431466,-0.428251,0.524565,0.690133,-1.394366,1.710269,-0.255973,-0.248016,0.573639,-0.559043
-0.277559,-0.691387,0.009584,-0.067044,-0.174298,-0.014411,0.240998,-0.118712,0.266895,0.783229,2.115162,0.674421,0.661277,-0.325657,-0.510385,0.381323,-0.406277,0.179408,-0.145307,0.579983,-0.560326,0.501532,0.638640,-1.356532,1.698172,-0.252760,-0.283942,0.573639,-0.603212
-0.232591,-0.730840,-0.007544,-0.070286,-0.155406,0.003449,0.227904,-0.128330,0.250437,0.644400,2.180642,0.742792,0.718979,-0.248378,-0.508271,0.468520,-0.481161,0.177723,-0.157194,0.713794,-0.674823,0.504253,0.586143,-1.292989,1.649684,-0.244322,-0.312921,0.573974,-0.633562
-0.177478,-0.769875,-0.027463,-0.072915,-0.133547,0.022030,0.212903,-0.141117,0.234201,0.481740,2.225890,0.799286,0.762451,-0.160903,-0.504295,0.565060,-0.564145,0.174445,-0.168273,0.840252,-0.780530,0.519850,0.533144,-1.216592,1.583000,-0.233271,-0.338426,0.574695,-0.657003
-0.120235,-0.807876,-0.054535,-0.055852,-0.109676,0.049944,0.197647,-0.177152,0.215547,0.325228,2.209536,0.823996,0.762451,-0.098751,-0.500859,0.700312,-0.675505,0.149962,-0.169618,0.934425,-0.858279,0.568973,0.486864,-1.128186,1.493952,-0.218167,-0.353535,0.588790,-0.666798
-0.073520,-0.843610,-0.079812,-0.039440,-0.088791,0.073819,0.190702,-0.207649,0.196958,0.216435,2.173239,0.831194,0.745459,-0.063919,-0.499998,0.850953,-0.797088,0.132074,-0.170065,1.007906,-0.922261,0.623335,0.445881,-1.043278,1.403882,-0.203700,-0.365368,0.605425,-0.672738
-0.047863,-0.874807,-0.101499,-0.024330,-0.073878,0.089614,0.200380,-0.227069,0.178499,0.203082,2.097058,0.803365,0.691813,-0.083726,-0.504286,1.032370,-0.939116,0.127377,-0.168714,1.040001,-0.958708,0.688174,0.415495,-0.965371,1.311770,-0.190508,-0.370645,0.627138,-0.672738
-0.030072,-0.893687,-0.112053,-0.020157,-0.062082,0.096271,0.200464,-0.234024,0.161163,0.253502,1.984489,0.712146,0.594038,-0.108070,-0.510343,1.220636,-1.075243,0.129548,-0.162312,0.996499,-0.942660,0.741811,0.380842,-0.899285,1.221697,-0.177092,-0.365551,0.644650,-0.672149
-0.016212,-0.906408,-0.117039,-0.020157,-0.051844,0.098358,0.195751,-0.234024,0.144389,0.335808,1.853725,0.589230,0.474197,-0.134683,-0.517285,1.412329,-1.208420,0.135154,-0.153383,0.915200,-0.900364,0.789847,0.344057,-0.839109,1.132643,-0.163563,-0.355272,0.660061,-0.672149
0.014939,-0.900469,-0.109004,-0.041730,-0.037898,0.100407,0.160777,-0.232173,0.135737,0.403890,1.683797,0.426687,0.320241,-0.131946,-0.524474,1.479308,-1.254156,0.122415,-0.142422,0.789070,-0.803574,0.726926,0.258823,-0.792606,1.055396,-0.143297,-0.326184,0.661349,-0.668202
0.054027,-0.889790,-0.097387,-0.053912,-0.019101,0.109253,0.134011,-0.235913,0.127899,0.437846,1.493337,0.259943,0.161067,-0.164074,-0.528418,1.511827,-1.271648,0.117668,-0.135670,0.650337,-0.687358,0.650829,0.172838,-0.743932,0.975820,-0.120521,-0.290014,0.660730,-0.660589
0.108990,-0.869631,-0.078608,-0.049039,0.009398,0.131694,0.123661,-0.251800,0.121686,0.403551,1.261810,0.084792,-0.008544,-0.265934,-0.525874,1.475427,-1.232653,0.128903,-0.137340,0.486397,-0.532286,0.548382,0.085349,-0.690917,0.891582,-0.092728,-0.239680,0.656297,-0.644998
0.150967,-0.813934,-0.055447,-0.062756,0.026436,0.128153,0.131257,-0.250506,0.121233,0.356917,0.981099,-0.077091,-0.153585,-0.321042,-0.511167,1.413767,-1.176738,0.143041,-0.135736,0.329466,-0.379246,0.477490,0.057342,-0.612012,0.761748,-0.048018,-0.157078,0.650502,-0.620681
0.186451,-0.740468,-0.030096,-0.085768,0.037744,0.111621,0.147826,-0.240621,0.123658,0.304113,0.675796,-0.232337,-0.286340,-0.352773,-0.490378,1.339477,-1.112364,0.158630,-0.132494,0.176040,-0.227224,0.422376,0.059076,-0.520162,0.609117,0.005151,-0.058342,0.644027,-0.592000
0.207985,-0.646661,-0.017863,-0.133137,0.022402,0.061186,0.161452,-0.196224,0.144567,0.297086,0.396742,-0.367119,-0.382509,-0.358699,-0.449508,1.243573,-1.046339,0.171831,-0.084330,0.037911,-0.097242,0.432790,0.153571,-0.482522,0.534612,0.030663,-0.016123,0.632674,-0.564759
0.221816,-0.565338,-0.011976,-0.175049,-0.003141,0.013649,0.165642,-0.156078,0.168041,0.302130,0.173694,-0.501860,-0.469784,-0.368609,-0.401344,1.150412,-0.985764,0.182762,-0.031875,-0.108722,0.019737,0.467886,0.257877,-0.447212,0.480823,0.046701,0.015301,0.621349,-0.535289
0.221816,-0.508992,-0.018783,-0.206040,-0.049084,-0.028090,0.150961,-0.124437,0.196645,0.331315,0.062672,-0.636508,-0.539263,-0.386487,-0.338596,1.062742,-0.936094,0.189154,0.029157,-0.272349,0.110700,0.552344,0.381799,-0.416562,0.468473,0.043793,0.025135,0.610080,-0.501361
0.221957,-0.497627,-0.007567,-0.227865,-0.089561,-0.054175,0.147424,-0.123760,0.224546,0.355735,0.102883,-0.750930,-0.600892,-0.402376,-0.308730,0.972323,-0.899792,0.194746,0.028984,-0.407399,0.198341,0.649421,0.502692,-0.371150,0.474515,0.029004,0.034636,0.585185,-0.451190
0.222624,-0.508752,0.012661,-0.245105,-0.127304,-0.072054,0.149459,-0.138564,0.252096,0.377772,0.218710,-0.855241,-0.658597,-0.417271,-0.295304,0.880530,-0.870175,0.199938,-0.001792,-0.528162,0.284321,0.752810,0.622072,-0.318355,0.489752,0.008275,0.043971,0.553477,-0.392897
0.242539,-0.520069,0.048827,-0.236044,-0.136570,-0.072054,0.163601,-0.190539,0.266924,0.359035,0.386302,-0.880221,-0.682934,-0.411422,-0.293171,0.813028,-0.860997,0.195856,-0.055830,-0.588442,0.424563,0.792047,0.705907,-0.281305,0.474866,-0.003048,0.050224,0.517735,-0.343729
0.256330,-0.527120,0.078915,-0.219294,-0.141045,-0.068514,0.172246,-0.243258,0.274830,0.336938,0.539823,-0.888947,-0.698442,-0.399990,-0.299132,0.751079,-0.857358,0.189977,-0.106847,-0.643278,0.570736,0.817473,0.767612,-0.253861,0.454620,-0.011697,0.053348,0.489491,-0.301655
0.257872,-0.527120,0.096848,-0.187170,-0.135938,-0.059032,0.169893,-0.297466,0.268890,0.308119,0.665207,-0.865164,-0.696292,-0.377394,-0.321281,0.700235,-0.864796,0.180507,-0.151821,-0.687227,0.728772,0.815276,0.785061,-0.245630,0.423652,-0.014998,0.050215,0.476246,-0.273768
0.240759,-0.523834,0.099786,-0.146305,-0.125693,-0.045497,0.160013,-0.348365,0.260041,0.296089,0.765599,-0.828437,-0.675952,-0.358804,-0.341598,0.652233,-0.868647,0.168361,-0.192393,-0.720125,0.842948,0.810612,0.757404,-0.238479,0.380043,-0.018209,0.048207,0.464880,-0.245968
0.214316,-0.519645,0.095226,-0.101071,-0.112877,-0.029935,0.146369,-0.397609,0.249737,0.292452,0.853498,-0.785239,-0.646516,-0.342216,-0.360999,0.605651,-0.870704,0.154876,-0.230765,-0.747499,0.935195,0.804715,0.707195,-0.231868,0.330113,-0.021374,0.047243,0.454454,-0.218212
0.169568,-0.502619,0.084126,-0.061598,-0.104013,-0.013718,0.135498,-0.447788,0.247006,0.319808,0.887078,-0.735361,-0.580193,-0.314186,-0.371713,0.550781,-0.852984,0.125550,-0.246911,-0.753792,0.949922,0.818690,0.648235,-0.212021,0.277058,-0.029641,0.044370,0.438529,-0.197260
0.124883,-0.478032,0.074851,-0.025758,-0.098786,-0.001809,0.135877,-0.497386,0.245759,0.349244,0.896972,-0.684778,-0.506807,-0.284270,-0.381108,0.490703,-0.829417,0.085283,-0.256894,-0.752711,0.954393,0.847090,0.599371,-0.193832,0.234614,-0.042347,0.037037,0.420558,-0.180974
0.080325,-0.438323,0.069225,0.002815,-0.100831,0.001486,0.158756,-0.545820,0.247477,0.382840,0.859493,-0.632788,-0.419297,-0.250580,-0.387868,0.420209,-0.794156,0.023131,-0.254553,-0.736883,0.938350,0.904341,0.570698,-0.178957,0.213396,-0.063928,0.020785,0.398493,-0.174018
0.049053,-0.402737,0.069086,0.031346,-0.105010,-0.001109,0.199566,-0.588054,0.246183,0.390496,0.800457,-0.585012,-0.334276,-0.266240,-0.397230,0.348614,-0.744906,0.017514,-0.254543,-0.702008,0.914368,0.979711,0.571770,-0.175254,0.209696,-0.081411,0.002489,0.376402,-0.172709
0.024425,-0.369213,0.071690,0.059856,-0.110256,-0.006649,0.249343,-0.627187,0.243382,0.385182,0.730644,-0.539343,-0.250501,-0.306574,-0.407895,0.276471,-0.688662,0.039776,-0.255312,-0.657610,0.886415,1.064140,0.587715,-0.177139,0.214756,-0.096844,-0.016829,0.354299,-0.172809
0.019525,-0.349569,0.082311,0.077525,-0.112922,-0.008094,0.301360,-0.664977,0.224944,0.356315,0.660453,-0.506878,-0.176267,-0.304372,-0.415508,0.205262,-0.607043,0.039776,-0.245820,-0.594795,0.846973,1.178740,0.666418,-0.197550,0.229284,-0.099137,-0.038562,0.324682,-0.172809
0.019149,-0.332633,0.091705,0.089965,-0.113407,-0.006883,0.341267,-0.703429,0.205289,0.326359,0.597377,-0.469644,-0.109486,-0.303722,-0.426716,0.147988,-0.521135,0.026234,-0.235633,-0.526110,0.801361,1.284364,0.757393,-0.237608,0.249672,-0.101601,-0.058703,0.291080,-0.170710
0.027821,-0.321111,0.098646,0.091946,-0.109533,-0.000359,0.356956,-0.743201,0.183202,0.294227,0.548529,-0.422872,-0.057611,-0.306178,-0.445114,0.118582,-0.426650,-0.013231,-0.224053,-0.445687,0.743412,1.372037,0.872914,-0.316958,0.281778,-0.101601,-0.075661,0.249507,-0.167143
0.043077,-0.313522,0.100078,0.079620,-0.115492,0.005182,0.380232,-0.754047,0.168644,0.281600,0.529146,-0.367423,-0.003076,-0.347863,-0.459700,0.114489,-0.364317,-0.030065,-0.219110,-0.375429,0.683602,1.455116,0.962431,-0.440648,0.320270,-0.088352,-0.077513,0.192554,-0.171929
0.061626,-0.307898,0.098754,0.060140,-0.126367,0.010233,0.407302,-0.750429,0.157850,0.278725,0.524496,-0.307635,0.052790,-0.409163,-0.472381,0.123051,-0.318059,-0.035583,-0.217485,-0.310252,0.622862,1.535898,1.038946,-0.586506,0.361956,-0.067076,-0.071812,0.127911,-0.180891
0.043391,-0.366613,0.087011,0.063329,-0.143061,0.026710,0.460432,-0.679774,0.157711,0.384634,0.634471,-0.251414,0.089399,-0.509233,-0.472922,0.151349,-0.314538,-0.031450,-0.237228,-0.298626,0.574744,1.560177,1.103503,-0.721416,0.392695,-0.017659,-0.049074,0.073952,-0.185819
0.021678,-0.417236,0.073662,0.093067,-0.139212,0.049747,0.513331,-0.613051,0.161135,0.523806,0.738728,-0.180253,0.124214,-0.599364,-0.472803,0.188009,-0.313391,-0.034946,-0.249163,-0.272455,0.514144,1.575677,1.161163,-0.833540,0.414224,0.028777,-0.023392,0.035340,-0.186985
-0.006993,-0.451672,0.057101,0.175902,-0.094276,0.085905,0.565766,-0.554191,0.171825,0.729501,0.831549,-0.079214,0.155444,-0.669617,-0.470828,0.241391,-0.316993,-0.053701,-0.245480,-0.217195,0.428583,1.573618,1.205029,-0.900092,0.417330,0.069252,0.008178,0.027421,-0.180628
-0.045950,-0.461540,0.035425,0.263704,-0.045161,0.117267,0.587560,-0.515434,0.174266,0.938653,0.883338,0.027875,0.199764,-0.651487,-0.476729,0.305035,-0.327697,-0.008773,-0.246797,-0.132666,0.324001,1.570853,1.207870,-0.944434,0.427059,0.118728,0.046823,0.044176,-0.183373
-0.090051,-0.459123,0.011192,0.353990,0.006044,0.146230,0.594033,-0.486729,0.172583,1.149532,0.914610,0.137988,0.250631,-0.589164,-0.486568,0.373810,-0.341952,0.067994,-0.250615,-0.033505,0.209909,1.568640,1.190197,-0.977669,0.440098,0.172704,0.089003,0.073269,-0.190669
-0.188562,-0.437688,-0.008326,0.421834,0.027064,0.147618,0.542052,-0.455504,0.177331,1.370736,0.922137,0.220620,0.288723,-0.459706,-0.491097,0.443452,-0.366715,0.099716,-0.236831,0.006015,0.154791,1.568640,1.170991,-0.967668,0.552173,0.198421,0.083658,0.112225,-0.198827
-0.281764,-0.422945,-0.028468,0.471448,0.039328,0.141242,0.494774,-0.419566,0.184615,1.551947,0.935805,0.303067,0.311509,-0.362224,-0.495078,0.505853,-0.392933,0.115396,-0.221413,0.013036,0.119663,1.566789,1.158988,-0.948703,0.648351,0.205166,0.073049,0.150334,-0.202866
-0.364345,-0.421585,-0.049859,0.484599,0.034081,0.119338,0.456904,-0.374203,0.196968,1.653173,0.961752,0.385144,0.303679,-0.328693,-0.495078,0.553769,-0.422060,0.098992,-0.202724,-0.044943,0.124514,1.558524,1.161391,-0.911813,0.712732,0.173968,0.051913,0.186750,-0.198668
-0.421846,-0.422078,-0.064577,0.500232,0.038705,0.096311,0.437788,-0.315293,0.209020,1.697505,0.977554,0.461947,0.283744,-0.329804,-0.491421,0.589086,-0.444758,0.075178,-0.187878,-0.112083,0.142800,1.544653,1.152286,-0.868509,0.729391,0.123316,0.036850,0.231603,-0.214057
-0.466807,-0.423024,-0.075959,0.517105,0.048264,0.072722,0.428049,-0.249611,0.220921,1.713388,0.988285,0.536113,0.257757,-0.348237,-0.484493,0.618103,-0.464242,0.047658,-0.174955,-0.183803,0.167805,1.527980,1.137425,-0.821998,0.722188,0.062937,0.024824,0.280674,-0.239240
-0.489169,-0.415571,-0.083748,0.554669,0.069128,0.058779,0.425731,-0.183481,0.225779,1.670989,0.977023,0.582038,0.230583,-0.358421,-0.472109,0.629846,-0.472043,0.033985,-0.165048,-0.233725,0.200472,1.517432,1.111841,-0.775400,0.704080,0.028638,0.012865,0.299166,-0.280667
-0.503572,-0.401735,-0.094094,0.583079,0.083859,0.046835,0.422453,-0.122118,0.228732,1.611633,0.959689,0.614228,0.205754,-0.362866,-0.459537,0.634612,-0.475577,0.025657,-0.152701,-0.268207,0.224968,1.505773,1.088231,-0.732882,0.686645,0.002777,-0.000862,0.306747,-0.317036
-0.502058,-0.375130,-0.109554,0.593180,0.083859,0.038890,0.417256,-0.070289,0.228732,1.518365,0.930210,0.618950,0.185616,-0.355834,-0.446588,0.625428,-0.470578,0.028017,-0.135474,-0.271807,0.233124,1.491890,1.068567,-0.698529,0.670556,-0.006205,-0.018122,0.292505,-0.343290
-0.487101,-0.347661,-0.125623,0.585560,0.074912,0.031527,0.414705,-0.022903,0.224962,1.404797,0.895617,0.601217,0.169212,-0.331333,-0.432671,0.607063,-0.459518,0.012715,-0.115694,-0.276708,0.233444,1.484147,1.051319,-0.677915,0.651081,0.001729,-0.037199,0.258914,-0.345137
-0.465423,-0.320035,-0.141997,0.569079,0.060258,0.024456,0.413478,0.022262,0.219737,1.281078,0.858468,0.572255,0.154674,-0.298099,-0.418269,0.584106,-0.445429,-0.011418,-0.094636,-0.282260,0.229847,1.479475,1.035279,-0.664169,0.629912,0.018120,-0.057183,0.215648,-0.334781
-0.438351,-0.320035,-0.151875,0.554705,0.048369,0.016677,0.420136,0.072242,0.212354,1.166204,0.842322,0.531062,0.133802,-0.253920,-0.411632,0.556051,-0.426254,-0.039482,-0.069660,-0.329320,0.242528,1.476508,1.026492,-0.643983,0.615388,0.037454,-0.068978,0.188770,-0.308258
-0.410056,-0.327354,-0.159237,0.540988,0.039297,0.008669,0.425111,0.124738,0.206747,1.061549,0.835419,0.488750,0.111408,-0.216016,-0.410867,0.528663,-0.407161,-0.063091,-0.043172,-0.380804,0.260209,1.469607,1.019823,-0.622777,0.601160,0.051932,-0.077524,0.169786,-0.284058
-0.379313,-0.348485,-0.161567,0.528586,0.035864,0.000200,0.426719,0.182263,0.206747,0.977337,0.847003,0.444203,0.085969,-0.190663,-0.421847,0.502611,-0.388232,-0.077793,-0.013660,-0.441133,0.287889,1.454839,1.017389,-0.599531,0.587523,0.056696,-0.079569,0.166595,-0.264503
-0.345284,-0.378994,-0.163590,0.518164,0.035224,-0.006572,0.430650,0.235205,0.210996,0.919161,0.881486,0.396717,0.058741,-0.170064,-0.440852,0.482679,-0.371281,-0.092768,0.015663,-0.497496,0.320182,1.437364,1.018964,-0.577597,0.570635,0.052671,-0.077577,0.170145,-0.247967
-0.309611,-0.414193,-0.165458,0.508732,0.035224,-0.012495,0.435742,0.285854,0.218397,0.874003,0.927421,0.347760,0.030618,-0.151840,-0.463870,0.465807,-0.355318,-0.107881,0.044890,-0.551877,0.354782,1.418536,1.022545,-0.556320,0.552121,0.044251,-0.073566,0.177067,-0.232940
-0.280200,-0.459302,-0.167637,0.497266,0.042308,-0.011675,0.439461,0.331962,0.231406,0.867153,1.007813,0.295578,0.008596,-0.116355,-0.505272,0.465806,-0.346276,-0.168514,0.074477,-0.589226,0.384985,1.394852,1.024683,-0.539661,0.519539,0.005137,-0.062974,0.180729,-0.218804
-0.253436,-0.499980,-0.170093,0.482063,0.044759,-0.008514,0.445196,0.376687,0.245959,0.876046,1.085810,0.247285,-0.005719,-0.117996,-0.547381,0.472599,-0.342621,-0.219508,0.106239,-0.618673,0.409678,1.367020,1.018329,-0.526983,0.489803,-0.035440,-0.053185,0.179502,-0.207980
-0.231964,-0.531795,-0.173103,0.459383,0.038950,-0.001491,0.454965,0.418647,0.263600,0.916423,1.159019,0.206770,-0.005719,-0.193892,-0.590904,0.493932,-0.349742,-0.251227,0.142352,-0.632317,0.423350,1.330894,0.994990,-0.522270,0.465762,-0.078947,-0.045001,0.168495,-0.203779
-0.216868,-0.554919,-0.174364,0.443083,0.030608,0.009617,0.460393,0.449976,0.280008,0.968541,1.227201,0.171395,0.003119,-0.285285,-0.631629,0.521863,-0.364310,-0.261800,0.173802,-0.637439,0.436581,1.302205,0.974068,-0.518864,0.446827,-0.114972,-0.037865,0.157385,-0.200916
-0.204961,-0.573696,-0.175060,0.429972,0.021000,0.022768,0.463649,0.475987,0.295798,1.026528,1.292867,0.138592,0.015824,-0.384424,-0.670954,0.553094,-0.382603,-0.261800,0.202921,-0.638013,0.449590,1.277236,0.954355,-0.516282,0.430444,-0.147256,-0.031252,0.146224,-0.198721
-0.229454,-0.596506,-0.175060,0.426885,0.011662,0.033889,0.447844,0.493466,0.306519,1.112350,1.364444,0.111912,0.023755,-0.458915,-0.712589,0.598932,-0.409903,-0.261800,0.223585,-0.646496,0.477691,1.267625,0.957693,-0.516282,0.420802,-0.171988,-0.025978,0.141665,-0.190405
-0.252686,-0.609919,-0.174781,0.422731,0.000644,0.044334,0.427076,0.504237,0.318431,1.187468,1.425581,0.087638,0.026950,-0.516923,-0.747687,0.643933,-0.434369,-0.261800,0.238772,-0.655378,0.513213,1.259503,0.977578,-0.518719,0.415203,-0.192703,-0.022929,0.141779,-0.178874
-0.273395,-0.604539,-0.174781,0.416442,-0.013733,0.053428,0.396384,0.501592,0.332728,1.241177,1.465838,0.068172,0.020672,-0.541967,-0.769713,0.687260,-0.453164,-0.261800,0.243004,-0.665056,0.563577,1.254356,1.030559,-0.525521,0.417691,-0.205383,-0.024330,0.151240,-0.160916
-0.288234,-0.590708,-0.164141,0.404837,-0.033238,0.065086,0.368481,0.489544,0.338456,1.261148,1.479500,0.050874,0.013062,-0.549030,-0.782943,0.722996,-0.460985,-0.261800,0.242778,-0.666232,0.620731,1.241919,1.102162,-0.535056,0.421236,-0.214229,-0.027324,0.167883,-0.134911
-0.300140,-0.572651,-0.149256,0.390574,-0.055308,0.078025,0.341972,0.472793,0.339899,1.264248,1.479742,0.034660,0.004785,-0.547101,-0.791776,0.754937,-0.463318,-0.261800,0.240324,-0.663157,0.681278,1.225836,1.183075,-0.545959,0.425309,-0.221157,-0.031115,0.188118,-0.104884
-0.301397,-0.547022,-0.114468,0.365897,-0.080813,0.092945,0.322074,0.447188,0.328048,1.214111,1.440989,0.012488,0.011811,-0.516197,-0.782099,0.763923,-0.451898,-0.261800,0.231964,-0.639078,0.725490,1.197086,1.253327,-0.548186,0.417990,-0.217766,-0.024918,0.204622,-0.070026
-0.299139,-0.515905,-0.078236,0.339049,-0.107306,0.107129,0.300326,0.414853,0.314236,1.148012,1.389712,-0.008589,0.021671,-0.472672,-0.765122,0.767137,-0.437087,-0.261800,0.220154,-0.608136,0.760500,1.159912,1.317301,-0.542140,0.411355,-0.206611,-0.014376,0.218435,-0.032190
-0.289850,-0.473815,-0.039116,0.307855,-0.135777,0.119838,0.274880,0.369058,0.296501,1.049986,1.313385,-0.027474,0.037201,-0.403903,-0.733548,0.758806,-0.415493,-0.261800,0.201442,-0.563464,0.777108,1.105892,1.368723,-0.519550,0.406084,-0.179929,0.004856,0.226866,0.011606
-0.274798,-0.426941,-0.008018,0.279879,-0.158138,0.127028,0.246601,0.310496,0.275167,0.923323,1.223668,-0.038562,0.053554,-0.324662,-0.693130,0.753208,-0.392886,-0.261800,0.176901,-0.523698,0.778441,1.055072,1.399562,-0.485326,0.409881,-0.152231,0.031164,0.226310,0.057742
-0.256865,-0.377674,0.019068,0.253511,-0.177446,0.131459,0.216905,0.245551,0.252033,0.782340,1.127257,-0.045754,0.070320,-0.240183,-0.648292,0.748976,-0.369772,-0.261800,0.149446,-0.486384,0.772135,1.005851,1.420110,-0.445286,0.418212,-0.124025,0.061010,0.221260,0.105049
-0.239786,-0.323318,0.030111,0.249388,-0.190208,0.138459,0.227856,0.160952,0.229493,0.650541,1.018869,-0.048699,0.091005,-0.219822,-0.598962,0.751765,-0.363977,-0.158961,0.127058,-0.468741,0.760100,0.979806,1.398988,-0.423083,0.413148,-0.137686,0.089187,0.193462,0.128740
-0.230504,-0.270754,0.039587,0.245759,-0.203831,0.144751,0.255022,0.075503,0.209334,0.553089,0.912761,-0.051833,0.112508,-0.210024,-0.547653,0.756157,-0.365902,-0.070060,0.109149,-0.454610,0.751474,0.953867,1.367638,-0.406291,0.403654,-0.153427,0.112455,0.165909,0.142894
-0.236815,-0.221777,0.045929,0.245759,-0.219175,0.149626,0.314615,-0.011643,0.193937,0.524327,0.811216,-0.055346,0.135646,-0.221351,-0.492391,0.763752,-0.383264,-0.009036,0.100200,-0.447507,0.749667,0.928145,1.315835,-0.400320,0.385302,-0.173329,0.125905,0.138845,0.137976
-0.243533,-0.180675,0.057626,0.248115,-0.225116,0.154034,0.376541,-0.087077,0.185812,0.543611,0.726707,-0.058675,0.157773,-0.231134,-0.439414,0.778665,-0.412899,0.043843,0.100138,-0.446923,0.767688,0.908777,1.253056,-0.397412,0.364042,-0.183208,0.129842,0.123012,0.119452
-0.250454,-0.143513,0.072000,0.252969,-0.225116,0.158208,0.439634,-0.156652,0.181323,0.586921,0.650718,-0.061912,0.179393,-0.240145,-0.387582,0.797237,-0.448669,0.092650,0.104519,-0.449599,0.795623,0.892586,1.184788,-0.396035,0.341329,-0.188076,0.129842,0.112794,0.094123
-0.243683,-0.121980,0.087676,0.257910,-0.215433,0.163884,0.492805,-0.195357,0.183444,0.644415,0.606444,-0.063844,0.208159,-0.253341,-0.342682,0.823593,-0.507272,0.140989,0.129699,-0.453600,0.826630,0.899061,1.090539,-0.398419,0.301847,-0.188076,0.120391,0.117617,0.056863
-0.233747,-0.105901,0.101482,0.261328,-0.200989,0.170660,0.539748,-0.220287,0.185883,0.696326,0.572402,-0.063487,0.241429,-0.268856,-0.301831,0.853117,-0.575274,0.180514,0.154374,-0.457539,0.851295,0.909052,0.982539,-0.401008,0.257088,-0.186663,0.112303,0.125781,0.023474
-0.217482,-0.100730,0.111548,0.261328,-0.178675,0.179637,0.574231,-0.220287,0.188960,0.737071,0.558822,-0.058548,0.283708,-0.289008,-0.269079,0.888976,-0.662072,0.202407,0.178036,-0.461352,0.863277,0.926076,0.847040,-0.404007,0.201775,-0.181239,0.105851,0.140623,-0.002170
-0.198521,-0.102854,0.114251,0.260468,-0.147486,0.188731,0.598754,-0.190358,0.191702,0.764548,0.560641,-0.044473,0.332137,-0.304000,-0.248294,0.936435,-0.764025,0.212751,0.184640,-0.472148,0.859764,0.945399,0.688339,-0.408785,0.154208,-0.173178,0.105843,0.157784,-0.006787
-0.178213,-0.108626,0.113598,0.258991,-0.111857,0.197884,0.618297,-0.146773,0.194276,0.785391,0.570161,-0.025829,0.383642,-0.316411,-0.233493,0.989696,-0.873556,0.217320,0.182714,-0.486435,0.848503,0.965871,0.518035,-0.414451,0.110514,-0.163799,0.109057,0.176105,-0.000891
-0.146691,-0.096454,0.093172,0.264111,-0.078420,0.195355,0.653714,-0.088389,0.190910,0.800181,0.561581,0.014394,0.464893,-0.319581,-0.268581,1.054235,-1.013404,0.234576,0.157263,-0.501323,0.774903,0.999209,0.292187,-0.425155,0.066376,-0.154271,0.125330,0.195005,0.043461
-0.111671,-0.076186,0.063857,0.266784,-0.047625,0.186109,0.690995,-0.038565,0.182642,0.800754,0.542741,0.067966,0.555502,-0.345463,-0.319377,1.120822,-1.151629,0.204217,0.136499,-0.506832,0.667799,1.035960,0.057391,-0.436138,0.015626,-0.143758,0.148702,0.211294,0.115418
-0.069652,-0.039724,0.016767,0.264561,-0.022114,0.163430,0.732003,-0.005857,0.164571,0.772890,0.503381,0.148236,0.664828,-0.416769,-0.401592,1.191507,-1.286608,0.078623,0.125105,-0.493582,0.493684,1.079539,-0.195305,-0.447678,-0.048349,-0.131274,0.186271,0.222364,0.242587
-0.051081,-0.004638,-0.045214,0.262694,-0.008284,0.114339,0.725262,-0.017809,0.146652,0.761069,0.491600,0.247395,0.693168,-0.491734,-0.484109,1.256363,-1.370784,-0.004762,0.106882,-0.451848,0.325996,1.132345,-0.378258,-0.453122,-0.081792,-0.116538,0.212081,0.224277,0.353332
-0.044233,0.029760,-0.114641,0.261004,-0.000293,0.052043,0.694649,-0.052090,0.128810,0.757270,0.493608,0.356001,0.681016,-0.568530,-0.566776,1.319267,-1.429560,-0.067044,0.085246,-0.395870,0.161519,1.189766,-0.526341,-0.455518,-0.099969,-0.100677,0.232011,0.222285,0.455866
-0.112140,-0.018878,-0.227336,0.246455,-0.033047,-0.047392,0.612060,-0.118542,0.095007,0.839936,0.635274,0.498731,0.486186,-0.599671,-0.638178,1.319267,-1.462104,-0.061017,0.071798,-0.271795,0.041368,1.274706,-0.610275,-0.449316,-0.083239,-0.066266,0.241633,0.222285,0.574184
-0.168102,-0.070916,-0.341723,0.223438,-0.078385,-0.133487,0.543284,-0.177072,0.057974,0.911112,0.786753,0.630778,0.248864,-0.626661,-0.688550,1.288799,-1.481323,-0.053834,0.059498,-0.158299,-0.051691,1.345858,-0.672552,-0.438254,-0.063842,-0.032910,0.241482,0.227374,0.651316
-0.200174,-0.129756,-0.459501,0.183483,-0.148895,-0.192907,0.502133,-0.219760,0.014477,0.959308,0.957866,0.741462,-0.073464,-0.645351,-0.696861,1.194501,-1.473893,-0.044341,0.049495,-0.065959,-0.090566,1.389438,-0.691518,-0.417471,-0.039111,-0.001663,0.221782,0.240625,0.646076
-0.204226,-0.214523,-0.536826,0.149321,-0.203310,-0.198405,0.481085,-0.218148,-0.012496,0.966729,1.149359,0.796874,-0.391404,-0.653862,-0.600012,1.069919,-1.448502,-0.033266,0.007376,-0.032455,-0.110936,1.400051,-0.677060,-0.395666,0.020690,0.029943,0.181366,0.237416,0.537584
-0.194269,-0.312252,-0.593924,0.118056,-0.249678,-0.176943,0.470088,-0.194387,-0.031209,0.953763,1.351039,0.824650,-0.707145,-0.657285,-0.450590,0.930195,-1.414134,-0.021399,-0.050797,-0.028368,-0.122054,1.394181,-0.645890,-0.373352,0.098026,0.061728,0.130592,0.225977,0.377468
-0.207764,-0.391758,-0.593924,0.104233,-0.288627,-0.117640,0.437069,-0.201075,-0.027118,0.945482,1.452906,0.764592,-0.934656,-0.660292,-0.420577,0.827127,-1.401863,-0.014816,-0.045519,-0.085633,-0.151747,1.402242,-0.608517,-0.379569,0.358929,0.088491,-0.026294,0.133450,0.124329
-0.216761,-0.455692,-0.586117,0.087887,-0.333856,-0.059814,0.397145,-0.216648,-0.018828,0.930262,1.529575,0.694386,-1.145547,-0.661334,-0.402527,0.731307,-1.396297,-0.010962,-0.041408,-0.142324,-0.186839,1.411987,-0.571681,-0.381221,0.594037,0.113502,-0.182558,0.040798,-0.089701
-0.216761,-0.488477,-0.561001,0.066498,-0.391643,-0.004941,0.343411,-0.249991,-0.002140,0.901165,1.555847,0.603887,-1.323192,-0.658445,-0.408403,0.649989,-1.404144,-0.012566,-0.041408,-0.197865,-0.232728,1.425101,-0.535920,-0.373743,0.777547,0.135008,-0.337573,-0.052099,-0.225507
-0.208615,-0.504186,-0.528785,0.046929,-0.442636,0.039938,0.285286,-0.283177,0.012322,0.864143,1.546536,0.529032,-1.460658,-0.651611,-0.411314,0.577611,-1.411132,-0.023681,-0.032555,-0.247794,-0.290419,1.428951,-0.471467,-0.362388,0.846507,0.142716,-0.413914,-0.105032,-0.296463
-0.196464,-0.511356,-0.493019,0.028271,-0.490230,0.079818,0.224967,-0.316284,0.025670,0.823158,1.519434,0.462001,-1.578030,-0.642803,-0.412744,0.509705,-1.417112,-0.039552,-0.020165,-0.294917,-0.354011,1.428430,-0.392670,-0.349093,0.858190,0.143255,-0.450916,-0.137983,-0.334991
-0.169697,-0.497232,-0.461807,0.030196,-0.504198,0.100915,0.174413,-0.341737,0.040944,0.757480,1.438871,0.402653,-1.664802,-0.634158,-0.414104,0.455890,-1.417112,-0.084472,0.007261,-0.326446,-0.350500,1.441693,-0.282230,-0.337972,0.836134,0.127075,-0.477116,-0.168224,-0.396788
-0.143015,-0.478389,-0.435311,0.044176,-0.508456,0.114270,0.140128,-0.357877,0.050064,0.696029,1.345617,0.357424,-1.727424,-0.623976,-0.414462,0.412011,-1.412696,-0.122098,0.033874,-0.346197,-0.337956,1.453007,-0.154896,-0.331706,0.823453,0.110228,-0.501383,-0.196249,-0.465692
-0.116501,-0.450110,-0.418245,0.082266,-0.493296,0.112142,0.138380,-0.355394,0.050064,0.643030,1.226971,0.340430,-1.741750,-0.610723,-0.414462,0.388000,-1.401185,-0.145141,0.058866,-0.342393,-0.307348,1.460423,0.006232,-0.335147,0.829520,0.092047,-0.521785,-0.219842,-0.548812
-0.097908,-0.414202,-0.415384,0.119075,-0.467835,0.092890,0.140605,-0.329418,0.038276,0.601736,1.094085,0.342961,-1.716488,-0.603718,-0.403959,0.387234,-1.395015,-0.154872,0.071802,-0.326234,-0.254214,1.469428,0.207962,-0.340438,0.836536,0.080910,-0.520752,-0.238852,-0.600939
-0.083276,-0.374480,-0.419625,0.155243,-0.437223,0.065078,0.144815,-0.291696,0.022186,0.566297,0.954082,0.355255,-1.671431,-0.598972,-0.389029,0.398092,-1.391516,-0.157948,0.078710,-0.303897,-0.189818,1.479226,0.429990,-0.346654,0.844026,0.073296,-0.509000,-0.255571,-0.637570
-0.095219,-0.318945,-0.447823,0.202169,-0.399276,-0.015105,0.158406,-0.234640,-0.008378,0.576886,0.813915,0.395645,-1.527109,-0.598972,-0.341765,0.476042,-1.410463,-0.138124,0.070891,-0.279579,-0.050564,1.494866,0.688968,-0.350049,0.846940,0.069277,-0.451333,-0.278375,-0.589698
-0.117258,-0.267478,-0.460106,0.255994,-0.362890,-0.114126,0.176044,-0.177788,-0.026083,0.604183,0.699240,0.426932,-1.307490,-0.593086,-0.286716,0.583885,-1.460458,-0.114272,0.060514,-0.261864,0.102358,1.502551,0.888742,-0.351984,0.851157,0.066574,-0.381792,-0.300198,-0.508355
-0.159490,-0.224146,-0.440560,0.323616,-0.329626,-0.250824,0.201774,-0.121342,-0.018070,0.664896,0.635548,0.440013,-0.937273,-0.578028,-0.216098,0.751515,-1.572548,-0.082361,0.045022,-0.257356,0.282619,1.494323,0.970102,-0.351984,0.857980,0.066574,-0.288504,-0.320060,-0.360069
-0.205189,-0.192435,-0.377513,0.377383,-0.312655,-0.337722,0.207570,-0.085116,0.023758,0.735143,0.640345,0.420500,-0.540121,-0.567984,-0.196704,0.907762,-1.699772,-0.068024,0.120989,-0.296593,0.309502,1.458840,0.964876,-0.347529,0.840530,0.068130,-0.230280,-0.327706,-0.241149
-0.252621,-0.166536,-0.292715,0.424221,-0.303831,-0.399717,0.203399,-0.059001,0.082494,0.810158,0.679389,0.384690,-0.130047,-0.560447,-0.202924,1.058316,-1.834561,-0.062475,0.242684,-0.357701,0.259691,1.409729,0.916353,-0.341339,0.810944,0.070500,-0.189589,-0.329243,-0.136914
-0.300395,-0.171127,-0.336310,0.461496,-0.309759,-0.421601,0.175881,-0.065180,0.064041,0.894543,0.799967,0.428221,-0.130047,-0.566221,-0.311633,1.100776,-1.827540,-0.137253,0.254154,-0.334604,0.122739,1.426163,0.733427,-0.336014,0.770065,0.075924,-0.188052,-0.320544,-0.052060
-0.354854,-0.184023,-0.408663,0.494616,-0.320753,-0.429765,0.146618,-0.071649,0.028206,0.983550,0.919430,0.490004,-0.229015,-0.575310,-0.422918,1.114300,-1.798507,-0.202043,0.261800,-0.289381,0.036691,1.449024,0.523924,-0.331335,0.743620,0.080376,-0.192106,-0.308305,0.022957
-0.422685,-0.213529,-0.538535,0.519426,-0.341878,-0.410487,0.113860,-0.078699,-0.042395,1.081805,1.036668,0.588295,-0.524311,-0.591032,-0.539361,1.069950,-1.725446,-0.246860,0.261800,-0.199906,0.052453,1.484739,0.261262,-0.327947,0.746040,0.080376,-0.207343,-0.288986,0.078302
-0.501190,-0.259960,-0.626298,0.531014,-0.354738,-0.354197,0.072063,-0.080273,-0.087129,1.169549,1.137725,0.632501,-0.783268,-0.601830,-0.607701,1.017071,-1.668099,-0.261800,0.261800,-0.158171,0.055498,1.497703,0.057388,-0.321174,0.764646,0.079538,-0.228640,-0.268969,0.099049
-0.585033,-0.314855,-0.693006,0.535990,-0.363464,-0.279399,0.025747,-0.079497,-0.118930,1.252037,1.230691,0.649663,-1.024058,-0.610166,-0.651989,0.959927,-1.618608,-0.261800,0.261800,-0.140307,0.052186,1.499290,-0.117093,-0.312708,0.791346,0.077028,-0.252966,-0.248603,0.102497
-0.626812,-0.341596,-0.702105,0.534736,-0.366639,-0.208414,-0.003268,-0.069485,-0.111788,1.310116,1.279639,0.611376,-1.235405,-0.618011,-0.672875,0.900257,-1.604478,-0.261800,0.261800,-0.160513,0.046225,1.487388,-0.161208,-0.296312,0.835720,0.078237,-0.287238,-0.228773,0.069010
-0.650154,-0.362337,-0.702253,0.534715,-0.368756,-0.148975,-0.017300,-0.053487,-0.100448,1.355415,1.313080,0.568237,-1.423939,-0.625337,-0.686205,0.841662,-1.595535,-0.261800,0.261800,-0.182747,0.049057,1.471686,-0.160900,-0.282834,0.885026,0.078159,-0.328785,-0.209799,0.019459
-0.636622,-0.371081,-0.684501,0.537163,-0.368756,-0.112627,-0.001366,-0.025519,-0.080714,1.375152,1.315507,0.515397,-1.566840,-0.631628,-0.684423,0.785223,-1.595535,-0.261800,0.261800,-0.209037,0.069475,1.448386,-0.071747,-0.275190,0.944194,0.075507,-0.384880,-0.192542,-0.062215
-0.605497,-0.377094,-0.674543,0.545504,-0.359065,-0.103756,0.032272,0.004568,-0.072732,1.368323,1.290172,0.484452,-1.596155,-0.630734,-0.664149,0.740606,-1.602345,-0.261800,0.261800,-0.221973,0.084117,1.431224,0.084184,-0.287193,0.989570,0.065941,-0.434154,-0.178158,-0.151277
-0.565576,-0.381742,-0.668484,0.556793,-0.344834,-0.108623,0.074763,0.035713,-0.070628,1.348211,1.250955,0.464456,-1.568675,-0.626247,-0.634628,0.701900,-1.611843,-0.261800,0.261800,-0.228231,0.095870,1.417130,0.273506,-0.309018,1.028048,0.052918,-0.480019,-0.165213,-0.244034
-0.521498,-0.388185,-0.662394,0.570083,-0.319095,-0.135143,0.128097,0.066307,-0.070628,1.305050,1.180858,0.445580,-1.418221,-0.609935,-0.581772,0.673224,-1.628572,-0.261800,0.261800,-0.202441,0.131086,1.410627,0.477355,-0.331028,1.043707,0.041542,-0.481982,-0.151438,-0.277321
-0.463139,-0.387488,-0.637433,0.579620,-0.294952,-0.171225,0.197494,0.097153,-0.067185,1.242545,1.084186,0.420914,-1.213283,-0.583678,-0.505805,0.655022,-1.635672,-0.258883,0.261800,-0.181647,0.136303,1.401615,0.659195,-0.359495,1.071296,0.026147,-0.462067,-0.124120,-0.283254
-0.376217,-0.372510,-0.574734,0.581651,-0.274002,-0.226434,0.299020,0.128503,-0.055587,1.141352,0.934361,0.384664,-0.899378,-0.537533,-0.383618,0.657767,-1.623511,-0.250134,0.261800,-0.170848,0.081519,1.387583,0.797021,-0.400879,1.122745,0.002712,-0.398398,-0.069715,-0.234478
-0.291975,-0.363859,-0.500637,0.582328,-0.264360,-0.256321,0.407980,0.113770,-0.025783,1.046808,0.801487,0.336190,-0.635186,-0.495650,-0.327053,0.640239,-1.588679,-0.236304,0.177600,-0.187771,0.044955,1.381096,0.817031,-0.442169,1.145799,-0.024294,-0.310101,-0.018179,-0.149506
-0.209073,-0.358370,-0.420842,0.582069,-0.260371,-0.273547,0.520660,0.075994,0.013126,0.955588,0.677087,0.281604,-0.395847,-0.455897,-0.303302,0.612572,-1.542508,-0.219935,0.051298,-0.218556,0.016575,1.378381,0.778129,-0.483413,1.154655,-0.053087,-0.209490,0.031922,-0.046435
-0.132418,-0.385133,-0.357177,0.577621,-0.246695,-0.263089,0.631961,-0.007885,0.044333,0.858477,0.669597,0.235341,-0.253391,-0.399711,-0.322630,0.575218,-1.479114,-0.217458,0.004285,-0.275862,0.016575,1.389953,0.621879,-0.509922,0.999706,-0.089880,-0.125032,0.050438,0.004807
-0.064562,-0.413932,-0.303664,0.566260,-0.237577,-0.250114,0.729121,-0.091023,0.071527,0.768399,0.691433,0.192802,-0.143447,-0.344553,-0.343604,0.539640,-1.414844,-0.219125,-0.034914,-0.339093,0.038507,1.400871,0.460595,-0.524991,0.822986,-0.122311,-0.044647,0.062304,0.037618
-0.014305,-0.446799,-0.270457,0.541075,-0.237577,-0.232107,0.797991,-0.172672,0.090696,0.692394,0.771918,0.157714,-0.098531,-0.291454,-0.367868,0.507615,-1.348825,-0.229080,-0.058481,-0.414169,0.107084,1.410482,0.289250,-0.517178,0.602736,-0.146021,0.027590,0.062304,0.033569
0.025638,-0.463066,-0.240545,0.500172,-0.248660,-0.214197,0.826067,-0.239572,0.105893,0.625086,0.860474,0.123975,-0.074548,-0.246532,-0.383475,0.479354,-1.277993,-0.244159,-0.083226,-0.487516,0.201306,1.419561,0.160996,-0.505103,0.453365,-0.157277,0.081945,0.060524,0.030487
0.060424,-0.471032,-0.212280,0.451410,-0.264684,-0.196336,0.833745,-0.299096,0.119104,0.562126,0.953066,0.090911,-0.061032,-0.205699,-0.394752,0.452975,-1.204755,-0.261800,-0.108559,-0.559998,0.308349,1.428375,0.054289,-0.490896,0.339435,-0.162305,0.127357,0.058572,0.027888
0.089184,-0.467343,-0.173593,0.389444,-0.285764,-0.174401,0.791853,-0.329533,0.125857,0.510825,1.022406,0.065801,-0.045816,-0.198666,-0.389495,0.426238,-1.132721,-0.261800,-0.136367,-0.593906,0.420965,1.426796,0.045703,-0.482921,0.304949,-0.161025,0.142000,0.058973,0.029234
0.119847,-0.466185,-0.132790,0.323699,-0.307761,-0.152516,0.739643,-0.352517,0.128914,0.454930,1.082687,0.042624,-0.035323,-0.198372,-0.384143,0.399260,-1.061976,-0.261078,-0.162107,-0.619273,0.537035,1.426686,0.071102,-0.474946,0.275606,-0.157971,0.152660,0.060473,0.030734
0.154314,-0.470086,-0.087752,0.250398,-0.331590,-0.130729,0.666798,-0.360592,0.124579,0.389851,1.124846,0.023314,-0.035323,-0.211557,-0.378598,0.371804,-0.993813,-0.261078,-0.183710,-0.627555,0.660008,1.426686,0.164476,-0.466971,0.256550,-0.151370,0.152660,0.063772,0.030734
0.188198,-0.483010,-0.042362,0.181993,-0.346789,-0.106718,0.582546,-0.358635,0.118101,0.327083,1.149806,0.009130,-0.043227,-0.241139,-0.377748,0.350313,-0.929669,-0.248846,-0.203236,-0.629382,0.778176,1.429673,0.303460,-0.462076,0.247016,-0.144021,0.143895,0.066858,0.029616
0.221791,-0.500444,0.003204,0.116036,-0.357673,-0.081594,0.492591,-0.351660,0.110551,0.265472,1.166167,-0.002493,-0.055606,-0.278921,-0.378746,0.331806,-0.867535,-0.231581,-0.221723,-0.628447,0.893943,1.432738,0.465251,-0.459206,0.242241,-0.136298,0.129402,0.069837,0.027034
0.261249,-0.518301,0.037970,0.057690,-0.356016,-0.055297,0.447393,-0.337416,0.105546,0.208202,1.159063,-0.002493,-0.064968,-0.347727,-0.363670,0.319259,-0.786584,-0.234543,-0.216638,-0.612843,0.965251,1.438585,0.656406,-0.459206,0.248228,-0.129992,0.114648,0.069837,0.023682
0.303569,-0.539137,0.067441,-0.000322,-0.346244,-0.030620,0.430801,-0.312968,0.103137,0.153190,1.155115,0.004676,-0.069491,-0.411903,-0.373137,0.308885,-0.694165,-0.235716,-0.180302,-0.591276,1.012282,1.444605,0.847125,-0.461038,0.254725,-0.123903,0.107748,0.069087,0.018621
0.351613,-0.565930,0.086321,-0.057667,-0.320238,-0.009184,0.471425,-0.268110,0.103137,0.102692,1.157483,0.026341,-0.064337,-0.466820,-0.431689,0.302857,-0.578807,-0.235716,-0.081459,-0.557782,1.010755,1.450971,1.036970,-0.465073,0.262241,-0.118247,0.116556,0.069087,0.010142
0.387283,-0.600782,0.090198,-0.109032,-0.270596,0.014061,0.536056,-0.208823,0.100742,0.064583,1.169460,0.060507,-0.052156,-0.508359,-0.492762,0.299119,-0.479906,-0.227110,-0.016847,-0.520936,0.980718,1.457456,1.189551,-0.473295,0.268059,-0.111679,0.137359,0.069421,-0.005723
0.416765,-0.639665,0.086574,-0.157408,-0.209137,0.038212,0.612692,-0.142320,0.095755,0.032668,1.186241,0.100925,-0.036461,-0.543210,-0.555094,0.296526,-0.389233,-0.215403,0.030060,-0.482414,0.936426,1.464000,1.323503,-0.483610,0.273028,-0.104655,0.164158,0.071452,-0.025280
0.396254,-0.658019,0.065428,-0.132881,-0.127197,0.065330,0.690793,-0.094197,0.095755,0.148398,1.202492,0.137756,-0.028397,-0.597568,-0.555094,0.286333,-0.299062,-0.226076,0.030060,-0.438064,0.846743,1.486621,1.448418,-0.511834,0.296906,-0.065963,0.215572,0.091477,-0.074162
0.361048,-0.668970,0.039697,-0.083197,-0.049616,0.089410,0.754117,-0.059434,0.103448,0.307160,1.211333,0.161386,-0.011770,-0.646776,-0.548410,0.276284,-0.236495,-0.214779,0.021698,-0.403795,0.764061,1.511883,1.538060,-0.532929,0.328690,-0.020978,0.254472,0.113801,-0.098455
0.296451,-0.665116,0.004795,0.016803,0.019249,0.107417,0.787889,-0.051391,0.126956,0.551998,1.205357,0.158611,0.021984,-0.685691,-0.526728,0.266524,-0.229127,-0.159541,-0.001614,-0.389686,0.695375,1.542430,1.557165,-0.539765,0.376289,0.036598,0.268344,0.140724,-0.073570
0.198945,-0.627988,-0.028686,0.122620,0.070296,0.112063,0.752173,-0.039446,0.154646,0.833057,1.154281,0.143734,0.052260,-0.586030,-0.503195,0.267395,-0.227818,-0.049599,-0.018343,-0.421897,0.674873,1.554497,1.565997,-0.540189,0.429031,0.087354,0.282258,0.151607,-0.008671
0.084983,-0.574222,-0.061458,0.231348,0.112434,0.110029,0.681712,-0.025550,0.184426,1.132232,1.080655,0.122807,0.080798,-0.417080,-0.478737,0.273581,-0.229537,0.087696,-0.031781,-0.477267,0.678462,1.557323,1.569693,-0.537407,0.484347,0.134702,0.296193,0.154471,0.076236
-0.047703,-0.547643,-0.088890,0.292496,0.128893,0.102919,0.606661,-0.009319,0.214902,1.300408,1.042025,0.096769,0.101297,-0.373803,-0.461625,0.289732,-0.240820,0.071811,-0.032114,-0.556243,0.714959,1.549400,1.560231,-0.533200,0.496128,0.136466,0.305262,0.140212,0.139133
-0.174301,-0.526228,-0.115478,0.346460,0.140462,0.094026,0.537991,0.008577,0.242633,1.432721,1.012090,0.072162,0.119798,-0.345929,-0.447233,0.307659,-0.256675,0.043010,-0.030933,-0.629739,0.747337,1.541133,1.545590,-0.531298,0.496495,0.127023,0.309792,0.128262,0.196281
-0.288724,-0.515144,-0.140378,0.386054,0.142248,0.081565,0.482082,0.029803,0.264875,1.493312,0.999543,0.050415,0.134302,-0.348859,-0.438281,0.329138,-0.281674,-0.011624,-0.026393,-0.692275,0.771479,1.532178,1.520591,-0.531298,0.474034,0.095164,0.305241,0.120929,0.241931
-0.368914,-0.501341,-0.159588,0.422148,0.134960,0.062286,0.450434,0.059199,0.279407,1.490722,0.992739,0.030366,0.143751,-0.351015,-0.435297,0.350275,-0.305764,-0.041069,-0.019414,-0.724302,0.775938,1.519904,1.498294,-0.536395,0.449475,0.061258,0.297206,0.119401,0.267509
-0.431986,-0.486179,-0.175953,0.456490,0.123135,0.039598,0.430915,0.092681,0.290084,1.456543,0.988806,0.011167,0.150674,-0.352785,-0.435271,0.371242,-0.329400,-0.057919,-0.011217,-0.741073,0.770556,1.505972,1.477350,-0.542686,0.423868,0.026330,0.287429,0.120775,0.283052
-0.447528,-0.465115,-0.187830,0.480071,0.113518,0.022018,0.423792,0.129544,0.292204,1.357661,0.987279,-0.003162,0.160960,-0.358918,-0.437484,0.389263,-0.350953,-0.035225,-0.000586,-0.724180,0.732168,1.481046,1.444396,-0.547464,0.407670,0.000058,0.276188,0.127126,0.261611
-0.450661,-0.443479,-0.198778,0.495792,0.104368,0.006351,0.417593,0.166745,0.292089,1.248780,0.987440,-0.013638,0.175064,-0.359807,-0.442469,0.407041,-0.373035,-0.022980,0.009694,-0.705862,0.687818,1.453340,1.405168,-0.551704,0.395523,-0.024753,0.259819,0.135474,0.223805
-0.428978,-0.420702,-0.207870,0.495792,0.096151,-0.005488,0.413244,0.204619,0.287502,1.119899,0.990979,-0.016406,0.196803,-0.350206,-0.452999,0.424335,-0.396173,-0.031637,0.019273,-0.684694,0.631542,1.420072,1.353391,-0.554867,0.391481,-0.046643,0.233194,0.147818,0.153268
-0.398575,-0.406234,-0.213664,0.475887,0.088263,-0.015129,0.391270,0.246411,0.279517,1.004406,1.006107,-0.016554,0.212971,-0.326759,-0.476565,0.443375,-0.418224,-0.065276,0.036666,-0.673996,0.581318,1.383799,1.302471,-0.549474,0.402954,-0.058950,0.201024,0.156596,0.093463
-0.363814,-0.395921,-0.217808,0.445680,0.080540,-0.023670,0.360484,0.290160,0.269833,0.895608,1.027029,-0.015780,0.226353,-0.296389,-0.506648,0.463288,-0.439730,-0.111406,0.057965,-0.668533,0.534120,1.346024,1.251980,-0.539802,0.422184,-0.066466,0.166083,0.164066,0.039026
-0.326301,-0.400096,-0.223715,0.410395,0.075494,-0.030787,0.316921,0.339347,0.265724,0.847409,1.072320,-0.013490,0.220509,-0.265847,-0.544432,0.495744,-0.469027,-0.125915,0.083978,-0.694351,0.512173,1.303016,1.199455,-0.518739,0.441638,-0.069674,0.143083,0.164066,0.021031
-0.293964,-0.406955,-0.228661,0.370801,0.067917,-0.038000,0.275167,0.389441,0.264468,0.824069,1.121601,-0.010385,0.212924,-0.246525,-0.581731,0.532668,-0.501183,-0.160829,0.110676,-0.718045,0.492531,1.253589,1.141643,-0.493348,0.455648,-0.073296,0.124926,0.165154,0.009658
-0.271978,-0.419184,-0.231684,0.322588,0.055275,-0.045407,0.237030,0.441349,0.268918,0.850447,1.178865,-0.005648,0.201860,-0.249640,-0.618063,0.578525,-0.539059,-0.236557,0.138745,-0.737491,0.477497,1.191325,1.073255,-0.459301,0.458770,-0.077747,0.116452,0.166990,0.011529
-0.258894,-0.434843,-0.233021,0.284474,0.044285,-0.043890,0.220285,0.486898,0.275254,0.892896,1.234712,-0.008453,0.189663,-0.302897,-0.655740,0.622704,-0.578551,-0.261800,0.168568,-0.749235,0.469794,1.131568,1.007489,-0.425954,0.450692,-0.080922,0.112903,0.172388,0.018143
-0.250259,-0.452218,-0.233351,0.251408,0.034119,-0.037911,0.214235,0.529269,0.282532,0.943384,1.289853,-0.015029,0.176900,-0.381229,-0.694091,0.666045,-0.618853,-0.261800,0.199269,-0.757128,0.465757,1.073062,0.943033,-0.392955,0.437015,-0.083844,0.112178,0.179566,0.027128
-0.276032,-0.483179,-0.229608,0.235989,0.025274,-0.027151,0.214235,0.551909,0.275709,1.000665,1.347549,-0.034012,0.174997,-0.451377,-0.731290,0.709183,-0.647153,-0.261800,0.218797,-0.749749,0.468292,1.015993,0.909996,-0.365195,0.419272,-0.083844,0.105252,0.190786,0.033675
-0.302540,-0.504626,-0.221596,0.220929,0.015143,-0.015558,0.205632,0.565233,0.270455,1.053252,1.395596,-0.059516,0.174181,-0.504840,-0.763151,0.742382,-0.663163,-0.261800,0.232670,-0.735412,0.470749,0.963871,0.898933,-0.332764,0.401768,-0.080288,0.092955,0.205308,0.035085
-0.330516,-0.507042,-0.205049,0.206585,0.002439,-0.002300,0.181284,0.559922,0.268341,1.096449,1.424341,-0.098065,0.175537,-0.524929,-0.784334,0.755700,-0.654588,-0.261800,0.235234,-0.707159,0.470749,0.921646,0.931819,-0.290991,0.384747,-0.068469,0.069913,0.226433,0.026218
-0.346068,-0.496366,-0.181870,0.192408,-0.011252,0.011418,0.153404,0.540755,0.259200,1.096660,1.420354,-0.143439,0.174752,-0.517970,-0.787898,0.731550,-0.624010,-0.261800,0.228675,-0.665123,0.473384,0.896824,0.990751,-0.227657,0.371086,-0.040814,0.045326,0.265002,0.003217
-0.355408,-0.479142,-0.155375,0.178314,-0.025437,0.025366,0.123759,0.514659,0.246546,1.075375,1.399998,-0.192226,0.172895,-0.497485,-0.782653,0.688664,-0.582428,-0.261800,0.217554,-0.616196,0.476184,0.880703,1.062705,-0.153543,0.359107,-0.005241,0.019968,0.312294,-0.026851
-0.345079,-0.449680,-0.125223,0.157520,-0.045765,0.028310,0.088605,0.474468,0.234819,0.992607,1.340879,-0.222315,0.174940,-0.442469,-0.760577,0.633972,-0.535666,-0.261800,0.200152,-0.564273,0.490506,0.839303,1.119803,-0.105649,0.364801,0.017203,0.030346,0.362835,-0.031364
-0.331428,-0.417179,-0.096997,0.141536,-0.063541,0.031240,0.053658,0.428500,0.225990,0.897411,1.273005,-0.243851,0.175867,-0.376804,-0.734368,0.584381,-0.491281,-0.261800,0.180347,-0.522282,0.511394,0.787915,1.169561,-0.068809,0.369767,0.030180,0.041385,0.409000,-0.022642
-0.311138,-0.378603,-0.072627,0.135173,-0.076216,0.034142,0.019124,0.370977,0.222956,0.777364,1.187624,-0.248282,0.174561,-0.289841,-0.699894,0.544990,-0.451652,-0.261800,0.155734,-0.500154,0.545415,0.716552,1.204637,-0.054076,0.373278,0.024223,0.053745,0.446411,0.012551
-0.299664,-0.346913,-0.054627,0.157582,-0.073807,0.041720,0.014960,0.305773,0.221478,0.664319,1.106679,-0.240701,0.176372,-0.222245,-0.666028,0.520064,-0.422560,-0.255026,0.125084,-0.497266,0.577501,0.636164,1.205374,-0.048408,0.362660,0.012360,0.057064,0.462525,0.051241
-0.292599,-0.318667,-0.039812,0.194377,-0.063857,0.051635,0.025980,0.236732,0.221012,0.554779,1.027956,-0.227114,0.179743,-0.164335,-0.632467,0.502372,-0.398739,-0.244866,0.091417,-0.504000,0.608618,0.551269,1.188942,-0.047652,0.344977,-0.002456,0.055862,0.467992,0.091677
-0.318143,-0.290261,-0.035424,0.214479,-0.070018,0.059947,0.093764,0.175186,0.223602,0.547683,0.938267,-0.210555,0.191935,-0.169053,-0.588368,0.492252,-0.403170,-0.139864,0.072005,-0.527878,0.632982,0.476260,1.115973,-0.034772,0.316898,-0.004031,0.062789,0.453097,0.103025
-0.345063,-0.261604,-0.030920,0.229698,-0.074984,0.066478,0.155569,0.116016,0.226446,0.566070,0.850360,-0.191562,0.206090,-0.180907,-0.543354,0.484367,-0.414743,-0.060169,0.052470,-0.555078,0.658212,0.411060,1.035798,-0.018288,0.285979,-0.004361,0.072100,0.436576,0.102720
-0.374736,-0.232445,-0.026181,0.235151,-0.077559,0.069445,0.205411,0.061599,0.229798,0.635428,0.766021,-0.167700,0.224169,-0.207033,-0.496512,0.480955,-0.440603,-0.031095,0.032693,-0.588918,0.685177,0.365480,0.941215,0.005405,0.249381,-0.002204,0.086177,0.416803,0.079111
-0.392873,-0.205220,-0.021309,0.232881,-0.077030,0.066144,0.239057,0.015930,0.233362,0.716179,0.692277,-0.138309,0.239710,-0.231481,-0.457177,0.474781,-0.464741,-0.017324,0.016313,-0.616699,0.700512,0.353134,0.858569,0.021989,0.210234,-0.005733,0.095938,0.402547,0.046406
-0.405243,-0.178960,-0.016370,0.226751,-0.074950,0.059709,0.264608,-0.025367,0.237032,0.802629,0.623827,-0.106152,0.253982,-0.255091,-0.421594,0.467227,-0.488018,-0.011205,0.001633,-0.641450,0.710034,0.357404,0.781890,0.034075,0.169811,-0.012106,0.103541,0.391049,0.009152
-0.403701,-0.167732,-0.014788,0.224862,-0.069876,0.051376,0.283885,-0.060716,0.238268,0.883037,0.587351,-0.068828,0.263900,-0.269143,-0.401214,0.452498,-0.500152,0.001597,-0.001443,-0.644644,0.693500,0.399738,0.728164,0.034075,0.136394,-0.022631,0.106788,0.387076,-0.017750
-0.398862,-0.163971,-0.013106,0.227718,-0.059267,0.046543,0.300902,-0.085414,0.239572,0.958512,0.566739,-0.034345,0.270052,-0.279921,-0.385259,0.435500,-0.510566,0.014737,-0.002129,-0.643545,0.674647,0.451616,0.683711,0.030308,0.109804,-0.032340,0.109495,0.385587,-0.040354
-0.387429,-0.175143,-0.011224,0.240063,-0.037587,0.046543,0.313396,-0.088810,0.241010,1.024116,0.577859,-0.005542,0.270052,-0.284151,-0.378153,0.413967,-0.517540,0.028553,0.001963,-0.633859,0.651158,0.522579,0.657807,0.021836,0.096872,-0.040415,0.111120,0.389066,-0.054360
-0.377217,-0.206676,-0.009245,0.249887,-0.011086,0.050697,0.315421,-0.077922,0.241199,1.079040,0.624530,0.013688,0.256862,-0.288635,-0.383846,0.389895,-0.520397,0.038456,0.005172,-0.619760,0.626312,0.610455,0.652028,0.005849,0.091176,-0.047924,0.111206,0.398786,-0.062233
-0.367616,-0.248389,-0.007216,0.258451,0.017825,0.055845,0.312210,-0.059893,0.240909,1.128627,0.688978,0.028133,0.237765,-0.293246,-0.395937,0.364553,-0.520929,0.046404,0.007940,-0.603455,0.600787,0.706789,0.656887,-0.013897,0.089100,-0.055149,0.110751,0.411629,-0.067039
-0.363066,-0.312708,-0.009371,0.246887,0.031033,0.060491,0.293894,-0.061422,0.242435,1.169659,0.795073,0.021421,0.211330,-0.329009,-0.432264,0.331181,-0.516595,0.051758,0.016275,-0.575605,0.556102,0.826117,0.656887,-0.077312,0.058085,-0.076848,0.109221,0.425072,-0.076287
-0.351594,-0.373329,-0.013980,0.235433,0.038846,0.068337,0.275681,-0.075761,0.245026,1.197015,0.898176,0.017681,0.186952,-0.396502,-0.468989,0.303196,-0.513054,0.054516,0.020887,-0.540569,0.503197,0.929824,0.638723,-0.141369,0.026487,-0.098560,0.107439,0.433500,-0.087393
-0.326279,-0.426552,-0.023499,0.224197,0.035868,0.082582,0.257676,-0.115721,0.249749,1.197015,0.995288,0.019884,0.166689,-0.527458,-0.506509,0.285985,-0.513054,0.052083,0.018053,-0.491164,0.433853,1.002284,0.582497,-0.206707,-0.006280,-0.120298,0.107439,0.431898,-0.102215
-0.322500,-0.458576,-0.039905,0.232905,0.038036,0.109034,0.229958,-0.164535,0.258296,1.208500,1.058346,0.019669,0.130160,-0.645031,-0.543570,0.281389,-0.524885,0.036339,0.013321,-0.455463,0.378267,1.027153,0.484389,-0.289347,-0.049394,-0.154296,0.109065,0.454420,-0.134177
-0.329490,-0.480001,-0.059755,0.251585,0.042777,0.141590,0.197384,-0.217776,0.268755,1.226232,1.104379,0.018245,0.085499,-0.755915,-0.580401,0.283100,-0.543609,0.013938,0.007641,-0.426612,0.329558,1.027153,0.365338,-0.380641,-0.097683,-0.194425,0.112645,0.489003,-0.174710
-0.353665,-0.504970,-0.073463,0.247563,0.027027,0.158330,0.179879,-0.242993,0.262425,1.237128,1.137204,0.025249,-0.007156,-0.812897,-0.595713,0.306365,-0.557817,0.015971,0.013188,-0.398314,0.310226,0.953848,0.236235,-0.373944,-0.152375,-0.224624,0.130394,0.545370,-0.192893
-0.370915,-0.520743,-0.081120,0.241298,0.008739,0.171357,0.170132,-0.261115,0.255433,1.242339,1.158340,0.029918,-0.110340,-0.846079,-0.603045,0.334581,-0.565881,0.018808,0.020443,-0.366170,0.300554,0.858543,0.126799,-0.340073,-0.203668,-0.243906,0.147915,0.591535,-0.204435
-0.374313,-0.518124,-0.076677,0.230545,-0.014628,0.176958,0.175900,-0.265048,0.247121,1.236180,1.158340,0.029918,-0.234574,-0.831661,-0.594417,0.372698,-0.561658,0.023252,0.031111,-0.326334,0.310205,0.720678,0.056700,-0.251857,-0.248159,-0.241355,0.164976,0.617295,-0.204435
-0.356256,-0.487259,-0.068642,0.220622,-0.036064,0.185274,0.191133,-0.269520,0.239088,1.197318,1.114367,-0.001823,-0.355731,-0.787522,-0.567356,0.416590,-0.542891,0.023312,0.043248,-0.309031,0.335939,0.609560,0.044817,-0.164164,-0.272134,-0.215330,0.184080,0.629055,-0.218841
-0.327470,-0.442269,-0.058811,0.211114,-0.056536,0.194949,0.211099,-0.274934,0.231194,1.142104,1.049529,-0.048922,-0.475346,-0.728521,-0.531077,0.463369,-0.516851,0.021181,0.056121,-0.302995,0.369716,0.511819,0.062046,-0.076732,-0.285851,-0.177567,0.204206,0.633813,-0.240574
-0.291971,-0.371983,-0.043656,0.182175,-0.074405,0.196238,0.217856,-0.274934,0.211264,1.061880,0.924751,-0.122082,-0.580139,-0.616268,-0.463717,0.505631,-0.487868,-0.023916,0.075063,-0.319172,0.415386,0.473426,0.154304,-0.020367,-0.317367,-0.130117,0.245347,0.615379,-0.240574
-0.260717,-0.299728,-0.030237,0.160440,-0.091701,0.192483,0.223147,-0.278098,0.190478,0.987741,0.791396,-0.200809,-0.684776,-0.522292,-0.387378,0.547328,-0.460786,-0.080620,0.093717,-0.344451,0.467273,0.453407,0.267176,0.027356,-0.346591,-0.087239,0.276157,0.593950,-0.240958
-0.237950,-0.223529,-0.020291,0.153109,-0.107848,0.178640,0.225508,-0.285569,0.167976,0.925766,0.640878,-0.290672,-0.789110,-0.464862,-0.293072,0.587900,-0.437503,-0.160539,0.111798,-0.387936,0.531600,0.470136,0.421287,0.057800,-0.371236,-0.053503,0.286308,0.566530,-0.244355
-0.216658,-0.177128,-0.015390,0.177352,-0.126900,0.158752,0.252364,-0.287241,0.147792,0.864986,0.533767,-0.381393,-0.894849,-0.422322,-0.169960,0.627321,-0.412726,-0.166051,0.119457,-0.447333,0.602585,0.510568,0.582834,0.079604,-0.367110,-0.032513,0.279721,0.549743,-0.253748
-0.196104,-0.145624,-0.012660,0.217382,-0.147406,0.135840,0.291468,-0.286422,0.128767,0.804801,0.448355,-0.472546,-1.001295,-0.387227,-0.032440,0.666169,-0.387201,-0.134360,0.121905,-0.514687,0.676901,0.562854,0.748105,0.097088,-0.348598,-0.017896,0.264764,0.538272,-0.266138
-0.179228,-0.147868,-0.012660,0.254360,-0.163982,0.111215,0.316510,-0.267543,0.118288,0.742864,0.433428,-0.551960,-1.090271,-0.344611,0.020208,0.711794,-0.370867,-0.083616,0.109031,-0.594460,0.773003,0.612278,0.888153,0.101726,-0.305534,-0.015389,0.247018,0.530943,-0.260407
-0.165393,-0.151797,-0.011616,0.286411,-0.182799,0.084432,0.333204,-0.257722,0.110119,0.687743,0.427523,-0.630957,-1.174877,-0.296421,0.041246,0.763103,-0.358735,-0.043284,0.103652,-0.682203,0.884207,0.659389,1.019197,0.103841,-0.261968,-0.014440,0.228648,0.522669,-0.252303
-0.157635,-0.159095,-0.009535,0.308609,-0.206102,0.053332,0.333204,-0.266014,0.106570,0.646251,0.439660,-0.709126,-1.250750,-0.237077,-0.000935,0.825787,-0.355007,-0.023774,0.113259,-0.785893,1.025624,0.701879,1.132246,0.103841,-0.217395,-0.016607,0.209027,0.512504,-0.239451
-0.148802,-0.166185,-0.009481,0.320095,-0.236265,0.028704,0.325875,-0.283109,0.107268,0.612619,0.457531,-0.795139,-1.314135,-0.189777,-0.061554,0.899965,-0.360496,-0.020196,0.120988,-0.904592,1.173952,0.732175,1.210618,0.099235,-0.183247,-0.021208,0.194921,0.503748,-0.225537
-0.139431,-0.173169,-0.010122,0.326225,-0.269859,0.007312,0.314883,-0.304605,0.110090,0.582917,0.478268,-0.885072,-1.371275,-0.148500,-0.131391,0.979890,-0.370594,-0.024582,0.127777,-1.030792,1.325733,0.756373,1.271652,0.093790,-0.154312,-0.027025,0.183572,0.495696,-0.211092
-0.122041,-0.191475,0.012359,0.321551,-0.314168,-0.028333,0.297323,-0.335330,0.122398,0.544962,0.528661,-1.025744,-1.412247,-0.140165,-0.198157,1.032384,-0.347874,-0.043189,0.123315,-1.188037,1.370294,0.775367,1.320634,0.066611,-0.099343,-0.043554,0.164947,0.475296,-0.175473
-0.102931,-0.213036,0.034324,0.311448,-0.362711,-0.062358,0.280299,-0.360627,0.136416,0.509383,0.584295,-1.155340,-1.448058,-0.122212,-0.256296,1.072842,-0.327410,-0.060777,0.120399,-1.314293,1.400000,0.794560,1.362141,0.039933,-0.051755,-0.059713,0.149566,0.452406,-0.141656
-0.080384,-0.241106,0.055258,0.290489,-0.419721,-0.093144,0.264348,-0.375067,0.153858,0.478554,0.650407,-1.262776,-1.473547,-0.085024,-0.297179,1.089228,-0.311456,-0.076329,0.120399,-1.378572,1.400000,0.814150,1.388700,0.014259,-0.018925,-0.075131,0.140674,0.424538,-0.111442
-0.053811,-0.274155,0.066692,0.268109,-0.465620,-0.118642,0.262702,-0.366096,0.162144,0.451444,0.709225,-1.329736,-1.500063,-0.072192,-0.320266,1.095595,-0.296362,-0.140056,0.120001,-1.400000,1.400000,0.814369,1.404387,-0.002960,0.004041,-0.086781,0.134590,0.397832,-0.087210
-0.025227,-0.309690,0.073375,0.245022,-0.505959,-0.141495,0.268210,-0.345421,0.165852,0.426198,0.764391,-1.376448,-1.527090,-0.072192,-0.334452,1.096953,-0.281698,-0.227863,0.120001,-1.400000,1.400000,0.804901,1.414635,-0.015950,0.022073,-0.096545,0.129911,0.371711,-0.065970
-0.004642,-0.327713,0.075398,0.215076,-0.531331,-0.169409,0.281605,-0.305118,0.165852,0.428809,0.792979,-1.416146,-1.558633,-0.125481,-0.346918,1.093266,-0.268649,-0.248226,0.114808,-1.400000,1.400000,0.780747,1.412472,-0.019023,0.028118,-0.100150,0.128309,0.356932,-0.054858
0.004579,-0.358346,0.080178,0.184292,-0.566972,-0.202433,0.298721,-0.247045,0.171166,0.471135,0.843396,-1.461429,-1.594595,-0.210261,-0.374791,1.089834,-0.253255,-0.261800,0.130328,-1.400000,1.400000,0.755377,1.415364,-0.023427,0.036472,-0.103962,0.126900,0.335466,-0.038861
-0.008926,-0.414198,0.090473,0.151834,-0.623153,-0.245674,0.323274,-0.153437,0.187335,0.592887,0.937472,-1.517883,-1.639395,-0.357151,-0.433479,1.086909,-0.233172,-0.261800,0.186359,-1.400000,1.400000,0.727576,1.428366,-0.030493,0.049447,-0.108184,0.126900,0.300627,-0.013094
-0.034780,-0.468454,0.094737,0.136961,-0.659648,-0.261580,0.333812,-0.072213,0.200482,0.717747,1.026481,-1.551459,-1.660864,-0.452167,-0.468164,1.079497,-0.217798,-0.261800,0.211766,-1.400000,1.400000,0.713539,1.444414,-0.037782,0.060784,-0.111162,0.126559,0.270118,0.008941
-0.066808,-0.521909,0.095985,0.130882,-0.686296,-0.263817,0.337342,0.002814,0.212118,0.844157,1.112954,-1.573595,-1.670667,-0.521241,-0.490845,1.069841,-0.204779,-0.261800,0.221858,-1.400000,1.400000,0.706384,1.461985,-0.045183,0.071303,-0.113517,0.126559,0.241776,0.029108
-0.076124,-0.549203,0.092606,0.142269,-0.682857,-0.255163,0.337342,0.044913,0.219792,0.922577,1.169872,-1.576768,-1.676334,-0.561230,-0.496637,1.063501,-0.189567,-0.261800,0.220888,-1.400000,1.400000,0.703743,1.469596,-0.050626,0.077550,-0.114223,0.126576,0.221897,0.042582
-0.081231,-0.568901,0.088954,0.153368,-0.676752,-0.250311,0.335757,0.077977,0.222350,0.986453,1.217495,-1.576056,-1.681685,-0.596618,-0.504108,1.059274,-0.174035,-0.261800,0.223411,-1.400000,1.400000,0.701020,1.476274,-0.055491,0.082972,-0.114928,0.126563,0.203448,0.055071
-0.077918,-0.573409,0.084755,0.163887,-0.665318,-0.253064,0.331172,0.092973,0.214677,1.021245,1.246533,-1.567577,-1.686406,-0.622809,-0.514940,1.059274,-0.157863,-0.261800,0.233892,-1.400000,1.400000,0.701020,1.481089,-0.059200,0.086745,-0.114928,0.126563,0.187854,0.065589
-0.071361,-0.568855,0.080827,0.172583,-0.649807,-0.251240,0.321481,0.091359,0.197685,1.026671,1.259678,-1.555788,-1.682880,-0.630357,-0.519622,1.051615,-0.138197,-0.261800,0.243960,-1.400000,1.400000,0.706080,1.492016,-0.066182,0.093678,-0.114827,0.126318,0.168174,0.079043
-0.063181,-0.559769,0.077033,0.180366,-0.632259,-0.247129,0.309237,0.081439,0.176032,1.017413,1.264878,-1.542343,-1.675230,-0.628583,-0.521231,1.039737,-0.116786,-0.261800,0.253821,-1.400000,1.400000,0.715112,1.506001,-0.074801,0.102191,-0.114478,0.125989,0.146452,0.093964
-0.031849,-0.511360,0.071203,0.194660,-0.604786,-0.231839,0.300498,0.032400,0.152473,0.942012,1.218707,-1.526486,-1.668818,-0.579913,-0.499132,1.003087,-0.072029,-0.261800,0.248158,-1.400000,1.400000,0.748020,1.536694,-0.095349,0.119389,-0.112033,0.124689,0.108114,0.118257
0.000551,-0.459018,0.064576,0.211870,-0.575776,-0.209241,0.295624,-0.021396,0.130507,0.858383,1.165467,-1.512587,-1.658032,-0.520452,-0.471921,0.966377,-0.028140,-0.261800,0.240606,-1.400000,1.400000,0.779500,1.570878,-0.115312,0.136462,-0.108927,0.123256,0.071436,0.140258
0.035093,-0.398808,0.056353,0.234915,-0.543687,-0.172024,0.295624,-0.084711,0.111723,0.758292,1.098082,-1.502604,-1.638501,-0.439408,-0.434481,0.929541,0.014017,-0.261800,0.229279,-1.400000,1.400000,0.808124,1.612049,-0.134107,0.153284,-0.104502,0.123256,0.038071,0.157674
0.049465,-0.357324,0.046064,0.266391,-0.505668,-0.139540,0.295740,-0.129910,0.094349,0.678218,1.049989,-1.500785,-1.617833,-0.340042,-0.371542,0.886784,0.048377,-0.261800,0.226799,-1.400000,1.400000,0.837645,1.651964,-0.153891,0.173446,-0.099984,0.122690,0.009584,0.169648
0.053754,-0.325203,0.034742,0.302083,-0.464682,-0.109420,0.294904,-0.166051,0.077677,0.608148,1.011538,-1.503048,-1.596596,-0.231512,-0.295850,0.841065,0.078840,-0.261800,0.228743,-1.400000,1.400000,0.867616,1.691253,-0.174169,0.195277,-0.095420,0.122287,-0.016464,0.178900
0.014790,-0.306463,0.013008,0.356137,-0.426075,-0.089642,0.321779,-0.176882,0.068509,0.614313,0.977839,-1.509743,-1.587994,-0.154978,-0.308170,0.812957,0.081027,-0.229494,0.234021,-1.400000,1.400000,0.887356,1.696501,-0.186133,0.208962,-0.091855,0.122287,-0.030966,0.182256
-0.027152,-0.286562,-0.009573,0.416131,-0.395587,-0.067396,0.365178,-0.185923,0.063287,0.642665,0.944299,-1.517435,-1.581463,-0.109517,-0.333985,0.788865,0.079087,-0.186819,0.228055,-1.400000,1.400000,0.903946,1.700000,-0.196479,0.221195,-0.088316,0.122792,-0.044816,0.185342
-0.075054,-0.264338,-0.033850,0.488011,-0.381336,-0.040211,0.441626,-0.191383,0.065959,0.715396,0.911076,-1.527122,-1.581463,-0.126200,-0.386796,0.772801,0.068892,-0.123404,0.199600,-1.400000,1.400000,0.914241,1.700000,-0.203589,0.230525,-0.084829,0.122792,-0.057362,0.187885
-0.121770,-0.241409,-0.054761,0.556239,-0.373242,-0.007949,0.501726,-0.193639,0.075454,0.813052,0.879925,-1.535230,-1.581567,-0.179108,-0.432740,0.766105,0.056400,-0.068808,0.162715,-1.400000,1.400000,0.918098,1.700000,-0.207453,0.236388,-0.081477,0.124069,-0.069263,0.189598
-0.167895,-0.218127,-0.073990,0.622645,-0.368226,0.026853,0.553654,-0.194076,0.088361,0.923175,0.849809,-1.542548,-1.582919,-0.250131,-0.475252,0.764095,0.042759,-0.017772,0.121613,-1.400000,1.400000,0.918523,1.700000,-0.209693,0.240800,-0.078192,0.125229,-0.080842,0.191313
-0.211621,-0.191990,-0.084860,0.650953,-0.355814,0.058500,0.559304,-0.183044,0.103140,1.006294,0.813951,-1.548095,-1.582919,-0.311025,-0.495234,0.769716,0.029915,-0.017772,0.106110,-1.400000,1.400000,0.910541,1.700000,-0.208183,0.240800,-0.076102,0.125229,-0.088689,0.191313
-0.258348,-0.167685,-0.093730,0.669074,-0.339703,0.089662,0.548771,-0.172138,0.116319,1.082008,0.779232,-1.553566,-1.584850,-0.374111,-0.496371,0.777583,0.017672,-0.034217,0.120582,-1.400000,1.400000,0.898507,1.700000,-0.205565,0.240272,-0.073945,0.126287,-0.097346,0.192700
-0.311081,-0.147044,-0.098597,0.669074,-0.316196,0.119856,0.505873,-0.161482,0.126295,1.142915,0.746785,-1.558886,-1.589644,-0.441586,-0.459817,0.789942,0.006632,-0.086096,0.195002,-1.400000,1.400000,0.878366,1.700000,-0.200728,0.237839,-0.071653,0.126287,-0.107621,0.192700
-0.346127,-0.155645,-0.101576,0.653346,-0.302056,0.151700,0.474597,-0.161565,0.126539,1.168237,0.756885,-1.560076,-1.599634,-0.479674,-0.444724,0.802331,0.004714,-0.128255,0.236605,-1.400000,1.400000,0.863388,1.700000,-0.196602,0.235810,-0.069929,0.127258,-0.115577,0.194580
-0.372330,-0.178868,-0.103612,0.630877,-0.292599,0.184372,0.449131,-0.167018,0.121916,1.175769,0.788259,-1.559492,-1.612223,-0.503070,-0.440360,0.814736,0.007357,-0.165556,0.261800,-1.400000,1.400000,0.850991,1.700000,-0.192831,0.233984,-0.067756,0.127636,-0.122375,0.196447
-0.390898,-0.232642,-0.111723,0.656535,-0.267208,0.230396,0.421284,-0.174991,0.126120,1.182914,0.881963,-1.536743,-1.632534,-0.535630,-0.479522,0.829089,0.023108,-0.157670,0.261800,-1.400000,1.400000,0.850991,1.700000,-0.190428,0.233984,-0.067756,0.127636,-0.127045,0.196447
-0.412711,-0.276917,-0.126122,0.685614,-0.244283,0.270864,0.388810,-0.178376,0.136478,1.208331,0.971454,-1.507877,-1.654129,-0.562970,-0.518163,0.845105,0.044086,-0.149636,0.261800,-1.400000,1.400000,0.852792,1.700000,-0.188346,0.234259,-0.067021,0.127569,-0.131499,0.197797
-0.441018,-0.302200,-0.153099,0.721539,-0.226291,0.300224,0.347081,-0.172581,0.159141,1.270293,1.052525,-1.466776,-1.678292,-0.579871,-0.555763,0.864451,0.075519,-0.141305,0.261800,-1.400000,1.400000,0.858037,1.700000,-0.186908,0.234259,-0.067021,0.127569,-0.135523,0.198980
-0.463632,-0.316415,-0.179229,0.741561,-0.219346,0.310011,0.314817,-0.165035,0.176000,1.320873,1.108691,-1.433163,-1.699202,-0.578464,-0.583404,0.882272,0.104267,-0.146549,0.261800,-1.400000,1.400000,0.858739,1.699890,-0.185633,0.234762,-0.067184,0.127451,-0.138835,0.200194
-0.483402,-0.325098,-0.204938,0.753635,-0.217923,0.310202,0.287283,-0.156611,0.189957,1.365768,1.152409,-1.403291,-1.718488,-0.567903,-0.606068,0.899334,0.131674,-0.158582,0.261800,-1.400000,1.400000,0.857171,1.700000,-0.183844,0.235371,-0.067440,0.127895,-0.141793,0.201014
-0.475643,-0.329694,-0.218497,0.756068,-0.219440,0.299090,0.285317,-0.141817,0.195274,1.384878,1.176103,-1.378425,-1.732337,-0.562503,-0.617174,0.919427,0.159210,-0.168908,0.261800,-1.400000,1.400000,0.855111,1.700000,-0.183844,0.235371,-0.067440,0.127895,-0.144351,0.202443
-0.459630,-0.332191,-0.228129,0.755029,-0.221134,0.292264,0.294255,-0.124790,0.196183,1.394043,1.187655,-1.357454,-1.744157,-0.558175,-0.622435,0.939162,0.185954,-0.177692,0.261800,-1.400000,1.400000,0.852286,1.700000,-0.183246,0.236250,-0.067959,0.128663,-0.146725,0.204064
-0.427107,-0.332191,-0.229910,0.747045,-0.221134,0.294011,0.325006,-0.103291,0.188274,1.383318,1.174921,-1.344271,-1.751918,-0.555992,-0.616005,0.958184,0.211121,-0.183393,0.261800,-1.400000,1.400000,0.847933,1.700000,-0.183246,0.237599,-0.067959,0.128663,-0.148731,0.206070
-0.385176,-0.320564,-0.226052,0.724999,-0.224996,0.292939,0.368727,-0.082698,0.173384,1.347112,1.128273,-1.339016,-1.756637,-0.541579,-0.588217,0.976351,0.230886,-0.182809,0.261800,-1.400000,1.400000,0.838961,1.700000,-0.185634,0.239557,-0.068486,0.130014,-0.150395,0.208497
-0.338537,-0.303972,-0.219375,0.695918,-0.229767,0.290456,0.418937,-0.062555,0.155002,1.298160,1.064661,-1.338156,-1.759836,-0.521049,-0.549746,0.994091,0.247952,-0.179082,0.261800,-1.400000,1.400000,0.827678,1.700000,-0.188819,0.241819,-0.068445,0.130950,-0.151888,0.211136
-0.277807,-0.258098,-0.202244,0.634821,-0.251816,0.266020,0.466849,-0.059550,0.138366,1.203557,0.949573,-1.353455,-1.750858,-0.473389,-0.471566,1.002977,0.240879,-0.174359,0.261800,-1.400000,1.400000,0.810229,1.700000,-0.200867,0.246811,-0.068445,0.133404,-0.153903,0.214377
-0.229863,-0.216737,-0.182752,0.570061,-0.276124,0.234502,0.494172,-0.059254,0.122404,1.117132,0.837824,-1.370101,-1.743664,-0.413265,-0.388196,1.005767,0.233071,-0.175389,0.261800,-1.400000,1.400000,0.798001,1.700000,-0.215649,0.252110,-0.067352,0.135961,-0.156197,0.217502
-0.207502,-0.184408,-0.158540,0.497978,-0.304949,0.188821,0.480309,-0.064375,0.107789,1.047074,0.732766,-1.389443,-1.740038,-0.328217,-0.294458,0.996363,0.223790,-0.187929,0.261800,-1.400000,1.400000,0.798001,1.700000,-0.235899,0.258020,-0.065237,0.138724,-0.159051,0.220396
-0.196166,-0.183437,-0.137325,0.433771,-0.333522,0.150621,0.444648,-0.076212,0.100538,0.990840,0.676400,-1.403861,-1.742424,-0.288386,-0.198115,0.987976,0.221881,-0.203409,0.253439,-1.400000,1.400000,0.804123,1.700000,-0.252259,0.261750,-0.063353,0.141199,-0.161576,0.223876
-0.190343,-0.198145,-0.117607,0.373501,-0.361970,0.116160,0.398086,-0.091406,0.096969,0.941516,0.644379,-1.415818,-1.747816,-0.271163,-0.100466,0.979610,0.223659,-0.220359,0.240897,-1.400000,1.400000,0.814198,1.700000,-0.266675,0.265161,-0.060837,0.143532,-0.164835,0.227649
-0.167594,-0.224156,-0.100477,0.363059,-0.394767,0.088265,0.396246,-0.127124,0.101782,0.906460,0.658816,-1.421480,-1.760800,-0.306215,-0.081590,0.979610,0.230621,-0.217704,0.208059,-1.400000,1.400000,0.824071,1.700000,-0.275095,0.265161,-0.060837,0.145452,-0.164835,0.230935
-0.141245,-0.252199,-0.085473,0.362970,-0.421694,0.064065,0.403377,-0.157723,0.107179,0.872048,0.690556,-1.425255,-1.773912,-0.345467,-0.089147,0.980429,0.237981,-0.201492,0.174283,-1.400000,1.400000,0.833673,1.700000,-0.282945,0.265933,-0.060122,0.147424,-0.165215,0.234289
-0.107699,-0.284301,-0.074720,0.383588,-0.436880,0.047258,0.428453,-0.178080,0.113745,0.838922,0.756903,-1.425255,-1.787280,-0.393118,-0.149570,0.984347,0.246134,-0.158165,0.138630,-1.400000,1.400000,0.842732,1.700000,-0.289653,0.265933,-0.060122,0.149498,-0.165215,0.237783
-0.082288,-0.317091,-0.068939,0.397119,-0.436102,0.035440,0.436811,-0.179884,0.118635,0.805750,0.828498,-1.420618,-1.797671,-0.429224,-0.216094,0.988144,0.252534,-0.114687,0.125565,-1.400000,1.400000,0.848493,1.700000,-0.294128,0.265470,-0.060689,0.151164,-0.163792,0.240568
-0.060943,-0.350226,-0.065643,0.407108,-0.427342,0.026115,0.436220,-0.172411,0.122686,0.772554,0.902720,-1.414742,-1.806574,-0.459558,-0.285670,0.991882,0.258057,-0.071132,0.123792,-1.400000,1.400000,0.853004,1.700000,-0.297487,0.264573,-0.061224,0.152624,-0.162887,0.243000
-0.049182,-0.375196,-0.069478,0.387397,-0.422877,0.019251,0.400902,-0.160498,0.126312,0.742970,0.964890,-1.405951,-1.813292,-0.449839,-0.367030,0.997195,0.264512,-0.141186,0.140578,-1.400000,1.400000,0.853004,1.700000,-0.299961,0.264573,-0.062535,0.154361,-0.161316,0.245869
-0.045622,-0.390900,-0.072034,0.373603,-0.419899,0.012116,0.373116,-0.153365,0.128248,0.735588,1.007450,-1.400091,-1.817443,-0.448202,-0.428597,1.001905,0.269801,-0.202672,0.152056,-1.400000,1.400000,0.851636,1.700000,-0.302340,0.263379,-0.064370,0.155925,-0.159347,0.248447
-0.058465,-0.388069,-0.072034,0.371643,-0.419899,0.004441,0.360399,-0.155796,0.126802,0.772612,1.010781,-1.400091,-1.817443,-0.462732,-0.450571,1.005410,0.269801,-0.247018,0.152056,-1.400000,1.400000,0.846333,1.700000,-0.302340,0.263379,-0.064370,0.157145,-0.159347,0.250444
-0.097907,-0.403283,-0.063003,0.370318,-0.437703,-0.023740,0.354863,-0.136184,0.125679,0.862592,1.031105,-1.407705,-1.809198,-0.494299,-0.474085,1.003984,0.262222,-0.261800,0.163496,-1.400000,1.400000,0.839558,1.700000,-0.304082,0.261983,-0.066221,0.158426,-0.157232,0.252495
-0.150650,-0.427520,-0.049384,0.369647,-0.464550,-0.062175,0.352916,-0.105551,0.125038,0.979053,1.059925,-1.418573,-1.797321,-0.534386,-0.498369,1.000093,0.249375,-0.261800,0.180223,-1.400000,1.400000,0.831283,1.700000,-0.305848,0.260181,-0.068377,0.160300,-0.155440,0.254573
-0.162904,-0.470002,-0.032227,0.369647,-0.486681,-0.076307,0.359129,-0.057916,0.141614,1.057689,1.135892,-1.423594,-1.787384,-0.567280,-0.504167,0.990568,0.240206,-0.261800,0.204321,-1.400000,1.400000,0.831283,1.700000,-0.305848,0.260181,-0.068377,0.160300,-0.154170,0.256237
-0.171617,-0.507900,-0.018962,0.372834,-0.503182,-0.084244,0.364443,-0.014822,0.156812,1.130047,1.205652,-1.425509,-1.781818,-0.602994,-0.507369,0.982153,0.234940,-0.261800,0.227368,-1.400000,1.400000,0.831434,1.700000,-0.306602,0.258970,-0.069765,0.161238,-0.153322,0.257934
-0.173248,-0.536626,-0.013486,0.383137,-0.508421,-0.079793,0.367954,0.019186,0.169256,1.189847,1.262997,-1.421210,-1.784994,-0.644346,-0.507369,0.975957,0.234940,-0.261800,0.248309,-1.400000,1.400000,0.834178,1.700000,-0.306602,0.258970,-0.069765,0.161238,-0.153322,0.259695
-0.182915,-0.552051,-0.019528,0.390401,-0.514555,-0.073780,0.362701,0.033694,0.169411,1.233476,1.298805,-1.415849,-1.788154,-0.674567,-0.513077,0.971621,0.235992,-0.261800,0.257893,-1.400000,1.400000,0.837984,1.700000,-0.306364,0.257366,-0.070737,0.161800,-0.153753,0.261125
-0.196602,-0.560825,-0.031331,0.396146,-0.521137,-0.066987,0.353065,0.038453,0.163421,1.269020,1.323844,-1.410301,-1.791306,-0.699224,-0.522636,0.968215,0.236198,-0.261800,0.261800,-1.400000,1.400000,0.842321,1.700000,-0.306335,0.254951,-0.071630,0.161988,-0.154066,0.262825
-0.208975,-0.556272,-0.043850,0.394877,-0.522884,-0.063925,0.340045,0.026828,0.149094,1.271263,1.320285,-1.410301,-1.792965,-0.704184,-0.523928,0.965937,0.230668,-0.261800,0.261800,-1.400000,1.400000,0.845932,1.700000,-0.306335,0.254951,-0.071630,0.161988,-0.154066,0.262825
-0.216438,-0.543436,-0.055529,0.393204,-0.520918,-0.060804,0.328589,0.009436,0.134434,1.259871,1.303434,-1.412399,-1.793562,-0.700763,-0.518512,0.962998,0.223767,-0.261800,0.261800,-1.400000,1.400000,0.849367,1.700000,-0.306651,0.253024,-0.072674,0.162132,-0.153701,0.263260
-0.214080,-0.514034,-0.065528,0.390724,-0.511522,-0.057563,0.320258,-0.019492,0.119110,1.221205,1.259997,-1.417663,-1.792034,-0.680580,-0.499680,0.958735,0.214123,-0.261800,0.261800,-1.400000,1.400000,0.852449,1.700000,-0.306651,0.253024,-0.072674,0.162132,-0.153701,0.263260
-0.194456,-0.464915,-0.071285,0.381711,-0.499078,-0.057293,0.318331,-0.058170,0.104393,1.146932,1.182282,-1.424353,-1.784047,-0.637454,-0.462343,0.948969,0.200951,-0.261800,0.261800,-1.400000,1.400000,0.856535,1.700000,-0.308794,0.251134,-0.074036,0.161296,-0.152467,0.263323
-0.166200,-0.405936,-0.074920,0.369432,-0.485110,-0.058103,0.320223,-0.101724,0.089979,1.054855,1.087425,-1.431758,-1.772830,-0.582856,-0.415752,0.936452,0.186014,-0.261800,0.261800,-1.400000,1.400000,0.861124,1.700000,-0.311008,0.251060,-0.075896,0.160554,-0.151256,0.263868
-0.137480,-0.346861,-0.079644,0.355179,-0.469513,-0.058103,0.320223,-0.147125,0.079571,0.954517,0.981997,-1.441173,-1.756929,-0.513166,-0.354536,0.921623,0.166269,-0.261800,0.260337,-1.400000,1.400000,0.867625,1.700000,-0.313751,0.251060,-0.075896,0.157677,-0.151256,0.263868
-0.113655,-0.293517,-0.083870,0.342950,-0.452517,-0.054261,0.319946,-0.190596,0.070944,0.859883,0.881037,-1.452975,-1.738710,-0.439077,-0.285266,0.907339,0.141657,-0.257262,0.253216,-1.400000,1.400000,0.873287,1.700000,-0.316196,0.253394,-0.077519,0.153879,-0.150828,0.263686
-0.099622,-0.251637,-0.087101,0.334771,-0.432720,-0.041986,0.317264,-0.230209,0.065880,0.776658,0.789016,-1.469550,-1.715855,-0.356191,-0.199887,0.894147,0.107315,-0.243649,0.234779,-1.400000,1.400000,0.877269,1.700000,-0.318046,0.257779,-0.079227,0.148241,-0.150828,0.261921
-0.099794,-0.222697,-0.084587,0.333593,-0.408727,-0.023150,0.319592,-0.252337,0.062801,0.723110,0.713024,-1.493858,-1.682543,-0.270119,-0.132026,0.880818,0.049879,-0.231249,0.202447,-1.400000,1.400000,0.881233,1.700000,-0.319817,0.265332,-0.080909,0.140247,-0.149353,0.254422
-0.107070,-0.200226,-0.079200,0.335917,-0.382633,-0.001029,0.324425,-0.265726,0.060713,0.684394,0.645037,-1.522035,-1.643999,-0.182444,-0.072918,0.867417,-0.019113,-0.219454,0.163163,-1.400000,1.399999,0.885189,1.700000,-0.321550,0.274469,-0.082579,0.131075,-0.147993,0.244054
-0.122415,-0.190173,-0.066823,0.339268,-0.344800,0.016238,0.328058,-0.247057,0.055770,0.680991,0.611045,-1.565567,-1.604745,-0.197261,-0.111248,0.809206,-0.110867,-0.205125,0.131868,-1.400000,1.373113,0.924658,1.690784,-0.330827,0.303303,-0.086785,0.102175,-0.134941,0.197464
-0.145912,-0.189167,-0.060013,0.336165,-0.309702,0.020497,0.319157,-0.219531,0.050826,0.695260,0.600057,-1.608986,-1.548813,-0.238207,-0.164995,0.691942,-0.252475,-0.184485,0.108203,-1.373507,1.287180,0.999181,1.602517,-0.332733,0.330609,-0.095279,0.049844,-0.098682,0.106753
-0.185712,-0.206251,-0.064337,0.320158,-0.280077,-0.001257,0.285196,-0.174292,0.045879,0.744867,0.635074,-1.652173,-1.459532,-0.331400,-0.249572,0.456599,-0.493763,-0.151225,0.099797,-1.294035,1.083176,1.143798,1.356169,-0.319897,0.354855,-0.112346,-0.049341,-0.016019,-0.072185
-0.218821,-0.218985,-0.074510,0.292188,-0.250116,-0.014535,0.237568,-0.133006,0.048048,0.773780,0.669806,-1.675684,-1.316893,-0.402098,-0.324374,0.335504,-0.683860,-0.134601,0.100163,-1.148345,0.840731,1.115645,1.099091,-0.220208,0.302334,-0.106783,-0.105028,0.087753,-0.234075
-0.248583,-0.229545,-0.087607,0.258236,-0.219989,-0.023573,0.183105,-0.093696,0.053776,0.792342,0.704394,-1.689355,-1.147575,-0.461547,-0.394287,0.271543,-0.848351,-0.125314,0.104137,-0.969544,0.579070,1.001096,0.836654,-0.077090,0.211425,-0.089903,-0.138962,0.202078,-0.387436
-0.265598,-0.235029,-0.124610,0.222256,-0.189324,-0.036900,0.121334,-0.067988,0.061338,0.782647,0.733141,-1.639526,-1.020754,-0.451879,-0.438398,0.316911,-0.912038,-0.125314,0.104137,-0.840561,0.381888,0.731231,0.679270,0.096326,0.108978,-0.010404,-0.111097,0.282008,-0.510681
-0.293000,-0.239793,-0.160527,0.192908,-0.165852,-0.051826,0.064780,-0.051458,0.067638,0.798008,0.758014,-1.606960,-0.912211,-0.461995,-0.474000,0.345133,-0.979251,-0.125866,0.114179,-0.740087,0.216951,0.490054,0.564607,0.225903,0.038762,0.053204,-0.089775,0.339347,-0.607542
-0.341174,-0.243113,-0.194271,0.176825,-0.156765,-0.069948,0.018661,-0.053285,0.071416,0.863478,0.775134,-1.608924,-0.840233,-0.511680,-0.492577,0.339059,-1.053514,-0.130463,0.146641,-0.696642,0.116516,0.306273,0.535401,0.267788,0.033014,0.085025,-0.081541,0.351497,-0.651623
-0.426369,-0.286316,-0.224142,0.151364,-0.166161,-0.084585,-0.026820,-0.057133,0.066940,0.968693,0.850647,-1.623469,-0.772251,-0.542867,-0.533445,0.335293,-1.124349,-0.136279,0.170776,-0.697075,0.049001,0.167049,0.574182,0.291403,0.037419,0.100870,-0.075756,0.366774,-0.697883
-0.530077,-0.349461,-0.252076,0.121214,-0.184800,-0.097479,-0.071982,-0.061992,0.058337,1.093780,0.955357,-1.644306,-0.706268,-0.564805,-0.585459,0.332680,-1.193469,-0.142705,0.190748,-0.719450,-0.002051,0.050108,0.646958,0.305881,0.046900,0.108728,-0.071195,0.383614,-0.745232
-0.562504,-0.385089,-0.250701,0.109301,-0.200110,-0.107245,-0.080818,-0.055302,0.074771,1.165498,1.046812,-1.650417,-0.678058,-0.580870,-0.616916,0.326178,-1.224108,-0.146398,0.199623,-0.775409,0.017869,0.048079,0.774012,0.300440,0.061488,0.091834,-0.064504,0.409240,-0.765168
-0.564415,-0.398198,-0.234939,0.110217,-0.204637,-0.111681,-0.078544,-0.044733,0.091022,1.207904,1.101687,-1.646822,-0.666201,-0.594623,-0.633599,0.314719,-1.243703,-0.149776,0.207630,-0.842088,0.081214,0.094212,0.911669,0.291350,0.094362,0.070273,-0.065361,0.436539,-0.757543
-0.505294,-0.366267,-0.190404,0.136794,-0.187599,-0.105453,-0.054050,-0.026407,0.106907,1.191685,1.083395,-1.623811,-0.687052,-0.603749,-0.620735,0.293347,-1.243703,-0.152522,0.213899,-0.930199,0.231409,0.236668,1.070524,0.274960,0.163804,0.039378,-0.081312,0.467182,-0.694796
-0.415802,-0.306858,-0.133983,0.161636,-0.168499,-0.086398,-0.016150,-0.009119,0.118057,1.119368,1.003294,-1.592570,-0.690306,-0.582086,-0.576654,0.270360,-1.247498,-0.153065,0.213362,-1.040218,0.414202,0.441671,1.158208,0.258939,0.265639,0.016165,-0.090068,0.467740,-0.582508
-0.311127,-0.233713,-0.071621,0.185608,-0.148370,-0.060932,0.028453,0.007649,0.126839,1.019002,0.892290,-1.557214,-0.684760,-0.545028,-0.516965,0.246567,-1.254439,-0.153065,0.209422,-1.161186,0.613288,0.677943,1.210301,0.243102,0.383668,-0.003205,-0.095227,0.453255,-0.445452
-0.192737,-0.158556,-0.049813,0.205097,-0.129038,-0.011074,0.087430,0.009876,0.126484,0.876298,0.751342,-1.468907,-0.753765,-0.471709,-0.416273,0.279936,-1.213717,-0.149382,0.178016,-1.303535,0.783594,0.901031,1.161937,0.169936,0.475362,-0.047893,-0.030359,0.404588,-0.256791
-0.088459,-0.107668,-0.041400,0.223658,-0.109987,0.045298,0.153045,0.007221,0.129549,0.744559,0.634857,-1.357758,-0.843914,-0.389992,-0.300428,0.348651,-1.163792,-0.130084,0.151550,-1.399217,0.963586,1.090634,1.105274,0.101284,0.535170,-0.085757,0.022978,0.353274,-0.095716
-0.012406,-0.105321,-0.059777,0.240362,-0.091497,0.114696,0.231935,-0.005193,0.139807,0.634755,0.567301,-1.200929,-0.976342,-0.291479,-0.154281,0.488055,-1.095467,-0.078812,0.134965,-1.399217,1.162948,1.213260,1.032021,0.041666,0.531209,-0.109971,0.053245,0.296671,0.010180
0.033853,-0.117831,-0.070604,0.247028,-0.087845,0.124433,0.306285,-0.054543,0.158748,0.564167,0.528818,-1.026130,-1.097305,-0.203245,-0.104250,0.659599,-0.970110,0.038436,0.103348,-1.400000,1.297643,1.275345,1.002042,-0.010007,0.517804,-0.121746,0.055812,0.250705,0.079266
0.065214,-0.137770,-0.077655,0.248674,-0.091612,0.104336,0.378362,-0.122361,0.182028,0.513191,0.504874,-0.842353,-1.212529,-0.120155,-0.102281,0.847208,-0.816240,0.188670,0.064215,-1.400000,1.399997,1.307154,0.993701,-0.057704,0.499678,-0.127301,0.044527,0.210060,0.129945
0.043804,-0.171852,-0.088455,0.208060,-0.100708,0.062921,0.356003,-0.196826,0.203258,0.497198,0.518091,-0.578280,-1.332184,-0.132789,-0.156221,1.161153,-0.534823,0.173479,0.006844,-1.261946,1.400000,1.162230,1.120659,-0.148099,0.488006,-0.123506,0.016040,0.158607,0.181551
0.016620,-0.204491,-0.090749,0.166512,-0.099959,0.023195,0.321260,-0.254832,0.221864,0.479575,0.527448,-0.293668,-1.448802,-0.164568,-0.205370,1.403355,-0.251305,0.139233,-0.043139,-1.077487,1.371379,1.067985,1.264445,-0.233368,0.466109,-0.114414,-0.010810,0.108302,0.210584
-0.022112,-0.234242,-0.076032,0.123101,-0.079520,-0.013154,0.261754,-0.279914,0.235218,0.458691,0.529083,0.032010,-1.559343,-0.234629,-0.244930,1.502056,0.036405,0.066887,-0.078347,-0.800228,1.285517,1.075110,1.441877,-0.308378,0.423760,-0.094727,-0.034386,0.060292,0.194468
-0.052287,-0.256531,-0.065012,0.094145,-0.044332,-0.029973,0.217708,-0.274857,0.256433,0.429191,0.521274,0.273440,-1.682307,-0.303197,-0.270031,1.482229,0.268946,0.030662,-0.078563,-0.603655,1.154084,1.143178,1.525392,-0.366569,0.327579,-0.078558,-0.067455,0.025775,0.131356
-0.078182,-0.275086,-0.055839,0.072418,-0.001773,-0.037025,0.181394,-0.254731,0.281578,0.395386,0.508745,0.472726,-1.811474,-0.371012,-0.287899,1.403139,0.473882,0.012502,-0.061281,-0.447441,0.999875,1.241714,1.561939,-0.416346,0.204488,-0.064148,-0.105267,-0.001991,0.044752
-0.118878,-0.297701,-0.022993,0.066025,0.047108,-0.024200,0.143734,-0.218234,0.311275,0.404468,0.499819,0.626646,-1.772568,-0.412639,-0.285270,1.339602,0.406121,0.042955,-0.012258,-0.370139,0.921497,1.287898,1.261451,-0.433975,0.065581,-0.069340,-0.134427,-0.026896,-0.029475
-0.166260,-0.323922,0.013460,0.065929,0.095425,-0.008541,0.114035,-0.180054,0.335290,0.433748,0.497210,0.762793,-1.722771,-0.448712,-0.284359,1.273707,0.334106,0.074603,0.030838,-0.301378,0.858453,1.335761,0.953293,-0.448622,-0.066449,-0.076295,-0.155913,-0.050782,-0.088659
-0.227013,-0.357358,0.057128,0.078427,0.142622,0.012791,0.100256,-0.138508,0.347942,0.503425,0.507233,0.863405,-1.651187,-0.473681,-0.286882,1.203092,0.253580,0.108645,0.062082,-0.249693,0.826068,1.386987,0.629775,-0.457310,-0.184735,-0.086773,-0.162054,-0.072631,-0.117761
-0.323521,-0.397664,0.098559,0.109227,0.178843,0.046858,0.091611,-0.127322,0.354962,0.654499,0.531997,0.938270,-1.594826,-0.492852,-0.271042,1.127358,0.191165,0.112368,0.043871,-0.197176,0.794964,1.434883,0.344796,-0.460205,-0.273114,-0.092686,-0.161062,-0.086545,-0.134694
-0.437902,-0.441405,0.138871,0.149175,0.209577,0.087291,0.085533,-0.131315,0.359166,0.846264,0.564130,1.000261,-1.546078,-0.509124,-0.246019,1.049068,0.137807,0.100932,0.000934,-0.144245,0.764501,1.481114,0.079092,-0.460925,-0.346537,-0.096748,-0.156504,-0.096491,-0.145541
-0.554481,-0.549783,0.176631,0.185104,0.222278,0.131990,0.074389,-0.155666,0.368280,1.041055,0.719836,1.029700,-1.508706,-0.535428,-0.285806,0.974697,0.099169,0.084364,-0.019565,-0.093186,0.715947,1.507437,-0.135266,-0.460925,-0.392208,-0.096748,-0.152691,-0.107396,-0.139714
-0.650683,-0.650435,0.213900,0.217529,0.231511,0.170429,0.068762,-0.177159,0.380485,1.211753,0.872348,1.058216,-1.473102,-0.570664,-0.324280,0.905795,0.074696,0.072425,-0.038234,-0.053933,0.669572,1.526944,-0.317718,-0.463845,-0.431395,-0.096298,-0.147789,-0.124034,-0.131542
-0.706140,-0.735643,0.250191,0.242951,0.233808,0.196351,0.074168,-0.192938,0.398874,1.334278,1.018483,1.084885,-1.441034,-0.623765,-0.360131,0.847829,0.078551,0.069746,-0.053241,-0.038291,0.627553,1.532822,-0.436372,-0.471908,-0.457616,-0.093652,-0.140710,-0.152139,-0.118682
-0.735170,-0.787668,0.268303,0.253273,0.228486,0.200883,0.079411,-0.202688,0.413955,1.420450,1.127640,1.113644,-1.434230,-0.666005,-0.392008,0.824050,0.107215,0.068853,-0.066823,-0.063149,0.602010,1.525365,-0.486353,-0.453183,-0.476579,-0.088689,-0.129050,-0.211964,-0.104765
-0.750985,-0.823102,0.277325,0.256043,0.219356,0.194721,0.084571,-0.209422,0.427381,1.488443,1.218306,1.143444,-1.440058,-0.702813,-0.421895,0.817365,0.148281,0.068853,-0.079691,-0.108255,0.584705,1.511243,-0.502000,-0.421065,-0.491912,-0.082569,-0.115101,-0.287644,-0.090320
-0.732872,-0.806611,0.258788,0.228057,0.190728,0.178748,0.082808,-0.211158,0.435388,1.491919,1.248759,1.127578,-1.462998,-0.702814,-0.440787,0.867968,0.168741,0.068774,-0.084035,-0.117163,0.626280,1.503426,-0.444518,-0.398931,-0.496542,-0.083050,-0.107580,-0.321354,-0.085979
-0.707029,-0.776682,0.233026,0.194282,0.157864,0.167661,0.077549,-0.214839,0.438973,1.476392,1.259214,1.086483,-1.479603,-0.693703,-0.455319,0.928273,0.177165,0.069607,-0.085631,-0.113111,0.682571,1.497772,-0.360590,-0.388543,-0.498892,-0.084255,-0.096939,-0.344726,-0.083527
-0.665721,-0.719871,0.192813,0.148930,0.116526,0.166346,0.065294,-0.222410,0.433712,1.422858,1.229672,0.994922,-1.483534,-0.665177,-0.461132,1.007982,0.161516,0.069607,-0.081729,-0.083138,0.768298,1.496445,-0.223762,-0.401651,-0.498892,-0.086425,-0.080057,-0.347421,-0.084850
-0.605761,-0.640080,0.145354,0.095180,0.070243,0.157263,0.046265,-0.236411,0.425480,1.326656,1.158044,0.881280,-1.460870,-0.613527,-0.448620,1.101983,0.113784,0.069769,-0.074497,-0.109242,0.848317,1.477154,-0.061981,-0.408431,-0.497011,-0.097781,-0.047914,-0.331661,-0.091556
-0.536475,-0.548800,0.094273,0.037232,0.021488,0.144295,0.023849,-0.253626,0.415760,1.209122,1.065375,0.756598,-1.424909,-0.550316,-0.426945,1.203127,0.050010,0.069769,-0.065600,-0.163386,0.925479,1.448883,0.112274,-0.412046,-0.495293,-0.113730,-0.008142,-0.306673,-0.100952
-0.454383,-0.445262,0.047350,-0.019925,-0.021755,0.132107,-0.018100,-0.292374,0.390834,1.045695,0.927764,0.603329,-1.355653,-0.458975,-0.371196,1.306660,-0.068839,0.071020,-0.057435,-0.248150,0.990588,1.354724,0.310793,-0.401430,-0.483848,-0.142769,0.034035,-0.256998,-0.127135
-0.371749,-0.346540,0.009808,-0.067783,-0.057570,0.124948,-0.057986,-0.334191,0.359712,0.872395,0.788039,0.425116,-1.276256,-0.363711,-0.305914,1.396045,-0.207625,0.063671,-0.072871,-0.337248,1.047678,1.228655,0.507559,-0.382602,-0.458890,-0.174360,0.069628,-0.193735,-0.162071
