Lukebird17/AI3618-SONIC/reference/reference/example/forward_lunge_R_001__A359_M/joint_pos.csv
joint_0,joint_1,joint_2,joint_3,joint_4,joint_5,joint_6,joint_7,joint_8,joint_9,joint_10,joint_11,joint_12,joint_13,joint_14,joint_15,joint_16,joint_17,joint_18,joint_19,joint_20,joint_21,joint_22,joint_23,joint_24,joint_25,joint_26,joint_27,joint_28
0.214951,0.213196,-0.062977,-0.036225,0.036478,0.025551,0.216934,0.018469,0.149546,-0.009619,0.011369,0.016012,0.025144,-0.150048,-0.152826,0.185495,-0.196579,0.024341,-0.027219,-0.433522,0.339373,1.255943,1.166724,-0.064623,0.004093,0.058667,0.070865,0.040703,-0.091976
0.214951,0.211750,-0.062977,-0.036225,0.036478,0.026927,0.220375,0.018469,0.149546,-0.014177,0.006851,0.008519,0.019151,-0.153122,-0.154363,0.180840,-0.194411,0.020861,-0.027219,-0.433522,0.339373,1.264580,1.173285,-0.075913,0.012835,0.058667,0.073299,0.047668,-0.105086
0.212224,0.206959,-0.061656,-0.035181,0.037744,0.028417,0.223978,0.019312,0.147951,-0.015580,0.008323,0.003524,0.014744,-0.158115,-0.158685,0.177698,-0.192480,0.017433,-0.027756,-0.432331,0.338369,1.269550,1.177660,-0.085112,0.020132,0.059928,0.075363,0.053244,-0.115885
0.206001,0.195478,-0.061656,-0.032909,0.037744,0.030133,0.227907,0.019312,0.147951,-0.010673,0.021773,0.003524,0.013511,-0.166947,-0.168577,0.177698,-0.192480,0.014111,-0.027756,-0.432331,0.338369,1.267189,1.177660,-0.090129,0.024539,0.059928,0.075363,0.056043,-0.122061
0.197642,0.181045,-0.061035,-0.029646,0.040254,0.031800,0.232192,0.020654,0.147196,-0.000128,0.041973,0.003253,0.013100,-0.178528,-0.181904,0.178052,-0.191472,0.010651,-0.030127,-0.432315,0.336556,1.264369,1.175147,-0.092548,0.026517,0.061088,0.075806,0.057504,-0.126092
0.188214,0.165135,-0.061403,-0.025889,0.042444,0.033443,0.236653,0.022159,0.148538,0.013238,0.065548,0.002979,0.013005,-0.191484,-0.196950,0.179316,-0.191248,0.007123,-0.032716,-0.433505,0.335708,1.261319,1.171994,-0.092645,0.027026,0.062192,0.076293,0.058032,-0.129949
0.177253,0.149711,-0.063341,-0.021679,0.044900,0.034778,0.240968,0.023702,0.148538,0.028918,0.087693,0.000230,0.016120,-0.204327,-0.210920,0.179316,-0.191248,0.003273,-0.036090,-0.438636,0.335708,1.258469,1.162865,-0.092645,0.024902,0.062192,0.076293,0.058032,-0.129949
0.166998,0.134994,-0.065625,-0.017817,0.047090,0.036479,0.245009,0.025601,0.149840,0.043255,0.108641,-0.002989,0.020183,-0.216400,-0.224644,0.180656,-0.192065,-0.000757,-0.039857,-0.444253,0.336854,1.255429,1.153147,-0.091694,0.022827,0.063377,0.075734,0.056751,-0.131201
0.158156,0.121688,-0.068601,-0.014652,0.048750,0.036479,0.248503,0.025601,0.149840,0.054905,0.127193,-0.007146,0.026141,-0.226931,-0.237875,0.182060,-0.193621,-0.005148,-0.044408,-0.450845,0.336854,1.252007,1.142251,-0.091694,0.020851,0.063377,0.074457,0.056751,-0.131201
0.151518,0.108906,-0.072592,-0.012231,0.050335,0.037944,0.251871,0.026471,0.150342,0.062060,0.144890,-0.011902,0.034100,-0.236619,-0.249936,0.183441,-0.195606,-0.008848,-0.048898,-0.457148,0.336046,1.248401,1.132654,-0.091820,0.020192,0.064347,0.072373,0.055004,-0.131554
0.145982,0.096385,-0.077091,-0.009414,0.052396,0.038911,0.255174,0.026839,0.149788,0.066973,0.162159,-0.016957,0.043059,-0.245886,-0.261413,0.185493,-0.197805,-0.012203,-0.053358,-0.463307,0.333780,1.244702,1.123706,-0.092419,0.020068,0.064682,0.069885,0.053509,-0.130598
0.143726,0.086491,-0.082653,-0.009414,0.052396,0.038911,0.257884,0.028725,0.148347,0.066973,0.176368,-0.021861,0.054883,-0.251645,-0.271529,0.185493,-0.200578,-0.015345,-0.056755,-0.466383,0.328362,1.241082,1.120582,-0.092419,0.022624,0.064682,0.066139,0.053509,-0.130598
0.141610,0.077124,-0.088404,-0.008646,0.054218,0.038909,0.260135,0.030832,0.146448,0.066462,0.189482,-0.026995,0.067560,-0.256410,-0.281394,0.186834,-0.203592,-0.018895,-0.059876,-0.469415,0.322462,1.237468,1.119188,-0.092589,0.025251,0.064971,0.062709,0.052571,-0.129386
0.139772,0.068811,-0.094536,-0.008646,0.054218,0.038909,0.261468,0.033385,0.143633,0.064909,0.200406,-0.032588,0.081942,-0.259186,-0.290756,0.186834,-0.207087,-0.023262,-0.062449,-0.469415,0.315596,1.233871,1.119188,-0.092589,0.028021,0.064971,0.059908,0.052571,-0.129386
0.137985,0.061321,-0.100689,-0.008046,0.055872,0.038207,0.262781,0.035756,0.140876,0.064392,0.210862,-0.038489,0.096907,-0.262297,-0.298532,0.188171,-0.211504,-0.027229,-0.064936,-0.470927,0.310238,1.230225,1.123895,-0.093036,0.029996,0.064330,0.058504,0.052187,-0.128962
0.136222,0.054244,-0.106854,-0.008046,0.057162,0.038207,0.262781,0.038034,0.138148,0.064392,0.221083,-0.044543,0.112165,-0.265573,-0.305516,0.188171,-0.216382,-0.030996,-0.067382,-0.470927,0.305633,1.226555,1.129921,-0.093036,0.031572,0.064330,0.058504,0.052187,-0.128962
0.133945,0.049161,-0.111739,-0.005405,0.059235,0.038125,0.265181,0.039817,0.136274,0.069208,0.229810,-0.050453,0.128560,-0.271806,-0.311910,0.189568,-0.222508,-0.032610,-0.067577,-0.471314,0.301936,1.221980,1.137929,-0.094329,0.032335,0.063333,0.058035,0.051739,-0.128645
0.130276,0.044840,-0.116328,-0.002192,0.061969,0.039041,0.266203,0.041788,0.134623,0.077988,0.237966,-0.056094,0.145086,-0.280286,-0.318199,0.190776,-0.229098,-0.034460,-0.068290,-0.471171,0.298530,1.217359,1.145974,-0.095470,0.033097,0.061866,0.058257,0.052146,-0.127854
0.123826,0.042040,-0.120328,0.003106,0.066021,0.040875,0.266203,0.044136,0.133418,0.095038,0.244979,-0.061197,0.161871,-0.293261,-0.324277,0.192250,-0.236613,-0.034460,-0.068290,-0.471171,0.295707,1.212647,1.154090,-0.095470,0.033097,0.061866,0.059473,0.052146,-0.127854
0.108784,0.039045,-0.123814,0.012393,0.072622,0.044572,0.263949,0.047615,0.131762,0.130338,0.251844,-0.064106,0.178576,-0.311048,-0.328780,0.194420,-0.244349,-0.033290,-0.070410,-0.470219,0.292612,1.205864,1.162390,-0.096238,0.033333,0.059647,0.062274,0.053090,-0.126228
0.089447,0.035952,-0.127043,0.023674,0.080498,0.049200,0.261102,0.051661,0.129882,0.174763,0.258634,-0.065917,0.195240,-0.331242,-0.332495,0.196940,-0.252195,-0.030374,-0.072813,-0.469431,0.289380,1.198046,1.170782,-0.096630,0.033014,0.057698,0.065869,0.054676,-0.124097
0.057623,0.031311,-0.128932,0.044040,0.095256,0.058699,0.256400,0.056244,0.128123,0.245080,0.267613,-0.063153,0.210186,-0.359228,-0.335179,0.200536,-0.259659,-0.028877,-0.077586,-0.464938,0.285436,1.186329,1.178605,-0.096630,0.033014,0.055182,0.068929,0.054676,-0.124097
0.021984,0.027362,-0.130657,0.068396,0.112099,0.069537,0.251953,0.060058,0.128367,0.327078,0.277719,-0.058433,0.224902,-0.389164,-0.339009,0.205002,-0.267586,-0.029017,-0.083304,-0.459697,0.281941,1.171934,1.184986,-0.096240,0.032188,0.052156,0.071984,0.056069,-0.122584
-0.021284,0.027362,-0.132054,0.100733,0.133113,0.083055,0.248014,0.062334,0.132617,0.432438,0.290080,-0.049804,0.239155,-0.422996,-0.345132,0.211206,-0.276438,-0.032432,-0.090916,-0.452960,0.279340,1.152181,1.188484,-0.094965,0.030901,0.048113,0.075026,0.057412,-0.120151
-0.061960,0.029420,-0.132346,0.131667,0.152147,0.094803,0.242453,0.062812,0.142107,0.539224,0.304979,-0.040412,0.250804,-0.446915,-0.354326,0.218140,-0.286032,-0.034862,-0.099204,-0.447100,0.278040,1.131202,1.189976,-0.094540,0.031166,0.043210,0.077354,0.058664,-0.117335
-0.101340,0.033790,-0.132172,0.161899,0.170189,0.105665,0.236079,0.062532,0.154217,0.646723,0.321148,-0.030640,0.261151,-0.465876,-0.365056,0.225439,-0.295996,-0.036799,-0.107829,-0.441678,0.277608,1.109608,1.190301,-0.094600,0.031859,0.037878,0.079214,0.059870,-0.113882
-0.143727,0.036793,-0.127719,0.180578,0.178864,0.108232,0.227130,0.062532,0.167117,0.750695,0.340685,-0.022081,0.262407,-0.450746,-0.380211,0.232889,-0.304506,-0.022441,-0.114472,-0.441678,0.283940,1.094058,1.197747,-0.098655,0.035932,0.030605,0.079214,0.062235,-0.113882
-0.193075,0.040141,-0.122149,0.199267,0.185319,0.108605,0.219587,0.062968,0.178108,0.860360,0.357623,-0.012085,0.260254,-0.417365,-0.393281,0.240139,-0.311647,-0.005100,-0.120299,-0.442894,0.292279,1.081127,1.210346,-0.103089,0.040799,0.023293,0.078967,0.065124,-0.112596
-0.256346,0.044175,-0.114342,0.217974,0.187334,0.104589,0.214859,0.062968,0.185283,0.981411,0.369361,0.000786,0.251285,-0.347483,-0.402180,0.246991,-0.316050,0.018209,-0.124494,-0.444781,0.304629,1.073436,1.233250,-0.108281,0.047256,0.015903,0.078967,0.069062,-0.112596
-0.313836,0.051867,-0.106106,0.221995,0.186181,0.099824,0.207248,0.064989,0.190137,1.068637,0.375852,0.017636,0.239401,-0.314977,-0.410272,0.252185,-0.319233,0.028357,-0.126895,-0.445409,0.315354,1.069942,1.259148,-0.109240,0.051917,0.012259,0.080483,0.071417,-0.110501
-0.368436,0.061386,-0.097654,0.218672,0.183443,0.094686,0.198196,0.067358,0.193829,1.138950,0.379719,0.036477,0.226060,-0.301159,-0.417959,0.256550,-0.321806,0.031924,-0.128398,-0.445409,0.325267,1.069942,1.286543,-0.109240,0.055681,0.010486,0.082963,0.072981,-0.108619
-0.416860,0.073163,-0.090448,0.210556,0.176724,0.087814,0.201603,0.071558,0.195180,1.160358,0.377414,0.059412,0.209241,-0.300204,-0.425913,0.260696,-0.322824,0.027306,-0.127995,-0.446358,0.328538,1.072072,1.308578,-0.105815,0.062553,0.012086,0.086435,0.072138,-0.107958
-0.462124,0.085576,-0.083455,0.205145,0.169692,0.080462,0.210116,0.075521,0.196461,1.167183,0.374719,0.083391,0.192915,-0.299249,-0.434014,0.265218,-0.324676,0.025894,-0.127592,-0.448041,0.329662,1.075813,1.324840,-0.102792,0.069922,0.014343,0.089723,0.070596,-0.106814
-0.501068,0.099265,-0.076890,0.205145,0.162034,0.072152,0.228842,0.079013,0.197603,1.144845,0.371242,0.109454,0.177574,-0.299249,-0.442410,0.270491,-0.324676,0.030895,-0.127592,-0.450595,0.326490,1.080915,1.329558,-0.099029,0.078285,0.017915,0.092642,0.068498,-0.106814
-0.534040,0.110958,-0.068280,0.205616,0.154412,0.064143,0.251975,0.082757,0.198773,1.097947,0.372800,0.137177,0.163529,-0.297530,-0.453251,0.275743,-0.327471,0.035028,-0.127156,-0.452009,0.324258,1.085046,1.320738,-0.094576,0.081799,0.021503,0.095152,0.066532,-0.105856
-0.564027,0.121653,-0.058647,0.206326,0.146808,0.056285,0.277312,0.086627,0.199956,1.038769,0.376876,0.165730,0.150131,-0.295105,-0.465314,0.280983,-0.330412,0.038726,-0.126566,-0.452120,0.322495,1.088691,1.305148,-0.089779,0.082525,0.025099,0.097029,0.064631,-0.105379
-0.583296,0.125113,-0.043301,0.199530,0.138685,0.049367,0.299736,0.091759,0.202247,0.947350,0.397939,0.194660,0.136378,-0.290420,-0.486647,0.285901,-0.337191,0.033638,-0.123087,-0.452120,0.329065,1.091880,1.272944,-0.087409,0.080445,0.027698,0.097029,0.062519,-0.105379
-0.599539,0.126179,-0.027156,0.190592,0.130682,0.042627,0.319429,0.096485,0.204938,0.848941,0.424991,0.223830,0.121425,-0.279037,-0.510392,0.290372,-0.344569,0.023469,-0.119029,-0.450879,0.336480,1.095410,1.237570,-0.085162,0.078404,0.030270,0.095671,0.060561,-0.105085
-0.609729,0.122456,-0.009413,0.177373,0.122922,0.036244,0.333659,0.100403,0.208430,0.736555,0.464019,0.253476,0.104074,-0.254260,-0.538959,0.293948,-0.353146,0.003140,-0.113815,-0.448510,0.345587,1.099618,1.195858,-0.083160,0.076438,0.032786,0.092884,0.058912,-0.105085
-0.616929,0.114563,0.008607,0.161694,0.117305,0.031437,0.334898,0.103734,0.211833,0.620708,0.512660,0.283859,0.083669,-0.222248,-0.568745,0.296735,-0.362098,-0.028128,-0.109304,-0.443637,0.356930,1.103499,1.150678,-0.080065,0.073062,0.035233,0.089535,0.057442,-0.106060
-0.622634,0.104584,0.026766,0.144785,0.112761,0.027418,0.329642,0.106772,0.215192,0.503132,0.566107,0.314609,0.061737,-0.186617,-0.599141,0.299128,-0.371237,-0.064866,-0.105145,-0.437512,0.369391,1.107216,1.103765,-0.076423,0.068982,0.037647,0.085905,0.056522,-0.107518
-0.630235,0.088959,0.043214,0.129472,0.111185,0.022987,0.303289,0.114696,0.217618,0.408484,0.633183,0.344799,0.034182,-0.167644,-0.634138,0.301142,-0.379108,-0.087164,-0.099584,-0.431210,0.382720,1.110544,1.051717,-0.073141,0.059511,0.039220,0.083485,0.054227,-0.110640
-0.639338,0.072358,0.058794,0.115920,0.109728,0.017599,0.274599,0.123039,0.221039,0.329586,0.705826,0.374752,0.006189,-0.147719,-0.670972,0.303678,-0.386414,-0.106417,-0.093669,-0.423894,0.395082,1.113258,0.995224,-0.068827,0.045280,0.041014,0.081289,0.050920,-0.114746
-0.651446,0.053803,0.072637,0.105894,0.109728,0.010298,0.241235,0.132222,0.226450,0.282186,0.789603,0.404233,-0.022677,-0.125891,-0.711484,0.307256,-0.392592,-0.119578,-0.087047,-0.414548,0.405510,1.114747,0.929843,-0.062450,0.021529,0.043251,0.079540,0.045588,-0.120822
-0.669864,0.046235,0.084670,0.100523,0.109718,0.003599,0.213384,0.139633,0.236533,0.286027,0.867782,0.430025,-0.050833,-0.116589,-0.752319,0.312241,-0.397059,-0.137541,-0.081951,-0.404305,0.414207,1.117175,0.855545,-0.055426,-0.005534,0.045494,0.077809,0.039836,-0.128615
-0.691439,0.044160,0.095798,0.097479,0.110116,-0.002800,0.188291,0.146158,0.248952,0.315487,0.943162,0.453973,-0.078635,-0.113550,-0.793315,0.317930,-0.400669,-0.157904,-0.077616,-0.393615,0.422037,1.120073,0.776788,-0.048079,-0.034252,0.047740,0.076086,0.033874,-0.137266
-0.751480,0.038882,0.100907,0.094479,0.103514,-0.013279,0.181453,0.144720,0.256070,0.428212,1.014861,0.468859,-0.104746,-0.061977,-0.840928,0.328759,-0.405994,-0.135010,-0.072230,-0.388762,0.431670,1.122565,0.678062,-0.045550,-0.065299,0.049809,0.072890,0.029676,-0.150736
-0.813558,0.042015,0.105672,0.092233,0.100046,-0.021093,0.171509,0.143301,0.267433,0.556103,1.074468,0.479404,-0.131489,-0.021465,-0.872670,0.340802,-0.411667,-0.111701,-0.067388,-0.387683,0.442487,1.127141,0.573263,-0.044212,-0.092533,0.051399,0.069788,0.027294,-0.163937
-0.879711,0.061972,0.109749,0.092233,0.102843,-0.023576,0.155353,0.143301,0.287289,0.714322,1.109888,0.481266,-0.159494,-0.003073,-0.872670,0.355275,-0.418037,-0.087560,-0.063637,-0.394153,0.455670,1.135886,0.456319,-0.044212,-0.112138,0.051399,0.066873,0.028543,-0.176600
-0.936489,0.079658,0.116368,0.086772,0.101646,-0.028578,0.146967,0.140457,0.310487,0.846871,1.147467,0.474918,-0.191919,0.020216,-0.872670,0.371212,-0.423523,-0.045812,-0.060857,-0.401295,0.470362,1.145436,0.335133,-0.041903,-0.119535,0.051203,0.064517,0.033569,-0.186221
-0.988578,0.096209,0.124259,0.078951,0.098452,-0.034839,0.142467,0.136880,0.335358,0.966584,1.186127,0.464465,-0.226554,0.045954,-0.872670,0.387882,-0.428893,0.004741,-0.058563,-0.408772,0.485808,1.155388,0.211826,-0.037918,-0.120396,0.050796,0.062442,0.040483,-0.194321
-1.022020,0.111997,0.143065,0.075432,0.089328,-0.044009,0.147427,0.134427,0.362844,1.059428,1.221649,0.453415,-0.281336,0.028046,-0.872670,0.402481,-0.428893,0.034151,-0.064965,-0.408772,0.514578,1.160897,0.109882,-0.037918,-0.109268,0.048400,0.056745,0.052041,-0.200596
-1.056182,0.125004,0.161513,0.073086,0.084219,-0.052378,0.150161,0.133750,0.387543,1.146918,1.254172,0.443024,-0.342801,0.006652,-0.872670,0.416407,-0.425601,0.056982,-0.072247,-0.407961,0.546692,1.165220,0.017733,-0.040265,-0.100119,0.044705,0.050832,0.064022,-0.205507
-1.091783,0.132450,0.179248,0.073086,0.084219,-0.059149,0.148443,0.133750,0.406668,1.223700,1.280699,0.433949,-0.417630,-0.021713,-0.872670,0.428984,-0.414747,0.066654,-0.081286,-0.407961,0.585494,1.167172,-0.054824,-0.047554,-0.094924,0.038412,0.044483,0.076851,-0.207691
-1.128612,0.136276,0.194802,0.071883,0.087574,-0.066416,0.146204,0.134709,0.419413,1.287928,1.296401,0.427280,-0.497910,-0.046364,-0.872670,0.439920,-0.397522,0.072584,-0.090015,-0.405699,0.623101,1.165527,-0.111139,-0.053049,-0.097148,0.032192,0.039098,0.087939,-0.205745
-1.166056,0.138292,0.209268,0.069767,0.091725,-0.073930,0.143703,0.135247,0.428969,1.345878,1.306099,0.421814,-0.580917,-0.069157,-0.872670,0.450037,-0.377112,0.077474,-0.098588,-0.402446,0.660112,1.162082,-0.159333,-0.057648,-0.103081,0.026007,0.034194,0.098157,-0.201734
-1.197560,0.141087,0.222069,0.065917,0.091725,-0.083725,0.142264,0.132390,0.438055,1.389862,1.306099,0.419292,-0.666707,-0.091794,-0.872670,0.457807,-0.353332,0.077474,-0.108636,-0.400506,0.692406,1.158394,-0.191588,-0.061342,-0.107777,0.021400,0.029267,0.104770,-0.196731
-1.227493,0.144012,0.233234,0.062288,0.093115,-0.093460,0.140827,0.129166,0.448557,1.432164,1.306441,0.416913,-0.752252,-0.113079,-0.872670,0.464452,-0.327163,0.078758,-0.117926,-0.399945,0.721819,1.155936,-0.218715,-0.065794,-0.111194,0.016687,0.024286,0.110767,-0.191068
-1.254286,0.147196,0.241130,0.059103,0.095553,-0.103077,0.139398,0.125210,0.461891,1.471105,1.309247,0.414817,-0.837307,-0.131663,-0.872670,0.468845,-0.296214,0.080109,-0.125703,-0.399945,0.745471,1.155936,-0.235585,-0.071760,-0.111194,0.011761,0.019193,0.115530,-0.184085
-1.279111,0.149073,0.248116,0.055454,0.098963,-0.110148,0.138012,0.122019,0.473731,1.505959,1.316263,0.413133,-0.909764,-0.146718,-0.872670,0.470775,-0.265515,0.082239,-0.126925,-0.402044,0.761366,1.156507,-0.247071,-0.075545,-0.111482,0.008696,0.013906,0.117986,-0.175406
-1.302952,0.149889,0.254647,0.051574,0.102857,-0.115947,0.137405,0.119210,0.484825,1.538770,1.325385,0.412148,-0.975920,-0.160009,-0.872670,0.470290,-0.234940,0.084280,-0.124869,-0.403236,0.773382,1.159046,-0.255864,-0.078959,-0.111761,0.006563,0.008521,0.118330,-0.165880
-1.322814,0.151928,0.260594,0.045821,0.105715,-0.120969,0.137405,0.117787,0.493229,1.565879,1.331904,0.413380,-1.024177,-0.172892,-0.872670,0.470290,-0.207886,0.084280,-0.119492,-0.403236,0.778660,1.159046,-0.261377,-0.078959,-0.114668,0.006563,0.004804,0.118330,-0.158181
-1.341340,0.154671,0.266360,0.040299,0.108276,-0.125322,0.138635,0.115904,0.501128,1.591698,1.337512,0.415383,-1.066445,-0.185605,-0.872670,0.468740,-0.182202,0.083326,-0.115101,-0.401734,0.783028,1.160568,-0.266896,-0.079678,-0.118401,0.006689,0.001686,0.116963,-0.151189
-1.357190,0.158824,0.271764,0.035240,0.110246,-0.128338,0.138635,0.113102,0.508019,1.614939,1.341296,0.418927,-1.096735,-0.197979,-0.872670,0.466946,-0.159259,0.081897,-0.112681,-0.401734,0.783028,1.160568,-0.272428,-0.079678,-0.123784,0.006689,-0.000236,0.115736,-0.145610
-1.371155,0.162589,0.277249,0.031043,0.112209,-0.128953,0.139087,0.108880,0.513416,1.635849,1.344451,0.422855,-1.115746,-0.211266,-0.872670,0.464045,-0.140961,0.079446,-0.113786,-0.397702,0.783877,1.162026,-0.279758,-0.078537,-0.128413,0.007461,-0.002071,0.114949,-0.140425
-1.384177,0.166159,0.282776,0.027277,0.114169,-0.128953,0.139087,0.103947,0.518066,1.655595,1.347290,0.426976,-1.129118,-0.225009,-0.872670,0.460591,-0.124987,0.076485,-0.116653,-0.392618,0.783877,1.163288,-0.287988,-0.077094,-0.132665,0.007461,-0.003862,0.114949,-0.135439
-1.395296,0.169545,0.286337,0.023512,0.113834,-0.128683,0.137287,0.094823,0.519033,1.672458,1.347911,0.433668,-1.131359,-0.236975,-0.872670,0.458203,-0.114829,0.072189,-0.125207,-0.391657,0.784282,1.163875,-0.299221,-0.075501,-0.135237,0.007909,-0.005376,0.113935,-0.130254
-1.405742,0.173641,0.289554,0.019963,0.113015,-0.129571,0.135966,0.085236,0.520000,1.688644,1.347636,0.440430,-1.131582,-0.246997,-0.872670,0.456925,-0.106279,0.069763,-0.133919,-0.391508,0.786096,1.165166,-0.310162,-0.073952,-0.137452,0.008181,-0.006814,0.112606,-0.124969
-1.414843,0.179158,0.292082,0.016848,0.111561,-0.129571,0.135966,0.074721,0.520000,1.703480,1.344952,0.447334,-1.127770,-0.253128,-0.872670,0.456925,-0.100946,0.069763,-0.142944,-0.393947,0.786096,1.165166,-0.320519,-0.073952,-0.138953,0.008181,-0.006814,0.112606,-0.119482
-1.422148,0.185056,0.295318,0.015058,0.110186,-0.130558,0.135531,0.066482,0.520000,1.716642,1.342077,0.452651,-1.123980,-0.255349,-0.872670,0.457652,-0.098390,0.071918,-0.148506,-0.394365,0.788415,1.167296,-0.327725,-0.072626,-0.139956,0.008114,-0.007243,0.111386,-0.115212
-1.428556,0.191145,0.298907,0.014306,0.109384,-0.130778,0.136064,0.059380,0.520000,1.728967,1.339105,0.457175,-1.120201,-0.255526,-0.872670,0.458531,-0.097985,0.074495,-0.152160,-0.393970,0.790406,1.169434,-0.333355,-0.071367,-0.140986,0.009168,-0.006946,0.110349,-0.111550
-1.431867,0.197582,0.302748,0.016014,0.109384,-0.130778,0.136064,0.057113,0.520000,1.738917,1.337843,0.460654,-1.117126,-0.252667,-0.872670,0.458531,-0.097985,0.080344,-0.152160,-0.390930,0.792864,1.171550,-0.335151,-0.070145,-0.140986,0.009168,-0.006946,0.110349,-0.108228
-1.433474,0.203508,0.306171,0.018135,0.110479,-0.131063,0.137005,0.056426,0.520000,1.747408,1.337734,0.463558,-1.114656,-0.249661,-0.872670,0.459678,-0.099445,0.085909,-0.150267,-0.387975,0.795112,1.173386,-0.335010,-0.069330,-0.142120,0.010280,-0.006431,0.109290,-0.105001
-1.433474,0.208414,0.308758,0.018135,0.110479,-0.131063,0.137005,0.056426,0.520000,1.752983,1.339931,0.465308,-1.113398,-0.246361,-0.872670,0.459678,-0.099445,0.090906,-0.145111,-0.387975,0.796939,1.174661,-0.330996,-0.069330,-0.142120,0.010280,-0.006431,0.109290,-0.101966
-1.429276,0.212438,0.310878,0.020297,0.109782,-0.132057,0.137902,0.058857,0.520000,1.754488,1.342408,0.464968,-1.111819,-0.242675,-0.872670,0.461110,-0.101169,0.094449,-0.139952,-0.387047,0.797548,1.174237,-0.322115,-0.070307,-0.143674,0.011136,-0.006143,0.107799,-0.099207
-1.423880,0.216020,0.313040,0.022065,0.107891,-0.132667,0.138532,0.061269,0.520000,1.754134,1.345370,0.464044,-1.110078,-0.238795,-0.872670,0.462773,-0.102713,0.097265,-0.134792,-0.387622,0.797855,1.173389,-0.310801,-0.070785,-0.144622,0.012232,-0.006332,0.106858,-0.096587
-1.415541,0.217786,0.313040,0.026416,0.105066,-0.132667,0.140036,0.063557,0.520000,1.747961,1.345370,0.459982,-1.101986,-0.229339,-0.872670,0.462773,-0.107647,0.100177,-0.135979,-0.387622,0.795835,1.169248,-0.289939,-0.070785,-0.146504,0.012232,-0.006332,0.105017,-0.095064
-1.406251,0.218470,0.312459,0.030360,0.102029,-0.132100,0.141618,0.065083,0.520000,1.739153,1.346117,0.454728,-1.088781,-0.218849,-0.872670,0.464573,-0.114234,0.102749,-0.138852,-0.388844,0.792308,1.164695,-0.264411,-0.070581,-0.148421,0.012869,-0.007831,0.103106,-0.094516
-1.395056,0.216989,0.309887,0.033491,0.098570,-0.132100,0.143358,0.065083,0.520000,1.725072,1.347321,0.447091,-1.065351,-0.206288,-0.872670,0.464573,-0.124127,0.104639,-0.145100,-0.391089,0.785768,1.159316,-0.229553,-0.070581,-0.148421,0.012869,-0.010745,0.101052,-0.094516
-1.382223,0.213186,0.305035,0.034053,0.093923,-0.129366,0.145215,0.064354,0.515659,1.705280,1.347197,0.437127,-1.027726,-0.192151,-0.872670,0.465462,-0.136927,0.104091,-0.149793,-0.395001,0.775724,1.154818,-0.186263,-0.070215,-0.148960,0.013887,-0.014058,0.099313,-0.097247
-1.368570,0.208223,0.299042,0.033570,0.088682,-0.126390,0.147132,0.062868,0.510297,1.682633,1.346672,0.426000,-0.983002,-0.177227,-0.872670,0.464506,-0.151180,0.102324,-0.153710,-0.399746,0.763928,1.150759,-0.138757,-0.069931,-0.148838,0.015121,-0.017571,0.097040,-0.100644
-1.351993,0.201138,0.289650,0.031159,0.085451,-0.120893,0.148537,0.062868,0.502037,1.650301,1.342044,0.411408,-0.922233,-0.157616,-0.872670,0.464506,-0.171893,0.100806,-0.151304,-0.410148,0.748877,1.147708,-0.079567,-0.068530,-0.150459,0.015121,-0.018833,0.097040,-0.108555
-1.334871,0.194205,0.279015,0.029011,0.084083,-0.114608,0.149118,0.063601,0.493366,1.616408,1.336417,0.397201,-0.859387,-0.136236,-0.872670,0.462974,-0.193961,0.100620,-0.147233,-0.421295,0.733318,1.144951,-0.015540,-0.066403,-0.150752,0.015952,-0.020349,0.097163,-0.118678
-1.316656,0.187578,0.265894,0.027387,0.086443,-0.106746,0.149118,0.065848,0.483874,1.579396,1.328789,0.383761,-0.792386,-0.111316,-0.872670,0.460819,-0.218740,0.100620,-0.139830,-0.433931,0.716742,1.142782,0.058161,-0.062824,-0.150752,0.015952,-0.022371,0.097163,-0.133224
-1.296724,0.180861,0.251339,0.025454,0.090326,-0.098090,0.147306,0.067757,0.472638,1.538132,1.319130,0.374009,-0.724271,-0.083642,-0.872670,0.457314,-0.243231,0.103514,-0.133269,-0.443811,0.696119,1.142884,0.134029,-0.057892,-0.149965,0.015019,-0.023268,0.100270,-0.147230
-1.275934,0.174100,0.236067,0.023366,0.094971,-0.089037,0.145123,0.069128,0.460531,1.494743,1.308454,0.366101,-0.655598,-0.054591,-0.872670,0.453135,-0.267578,0.107201,-0.127130,-0.452314,0.673474,1.144121,0.210980,-0.052282,-0.150101,0.013245,-0.023491,0.103710,-0.160965
-1.251159,0.166589,0.223652,0.020195,0.098394,-0.079016,0.139857,0.069128,0.446431,1.443175,1.295651,0.366101,-0.587324,-0.021622,-0.872670,0.446375,-0.294418,0.107201,-0.124073,-0.452314,0.648436,1.146951,0.293262,-0.047221,-0.157038,0.010909,-0.020812,0.108466,-0.171193
-1.225057,0.157707,0.211864,0.017297,0.102286,-0.069281,0.133833,0.069534,0.432067,1.388013,1.283259,0.369750,-0.522008,0.012759,-0.872670,0.439278,-0.318917,0.106984,-0.122034,-0.450879,0.623302,1.149406,0.379469,-0.043044,-0.160242,0.008857,-0.020360,0.113044,-0.181933
-1.196302,0.146085,0.201326,0.017297,0.107115,-0.060116,0.126294,0.069534,0.417176,1.325659,1.271687,0.379284,-0.462608,0.049965,-0.872670,0.431504,-0.338734,0.104577,-0.122034,-0.447868,0.597979,1.151110,0.473527,-0.040635,-0.155979,0.007374,-0.024364,0.117263,-0.193697
-1.163591,0.130118,0.191776,0.015612,0.111937,-0.053456,0.117537,0.073748,0.402379,1.251730,1.262285,0.392010,-0.410625,0.090239,-0.872670,0.422998,-0.355007,0.095640,-0.122641,-0.440891,0.571153,1.150134,0.564984,-0.039832,-0.152586,0.007170,-0.027623,0.118670,-0.206266
-1.128901,0.111978,0.182719,0.014259,0.116756,-0.048049,0.108170,0.078911,0.387628,1.172014,1.253968,0.406332,-0.362350,0.132047,-0.872670,0.414125,-0.369507,0.083438,-0.123411,-0.431930,0.543576,1.147817,0.655140,-0.041391,-0.149627,0.007459,-0.030511,0.118283,-0.219239
-1.076994,0.092517,0.174890,0.014259,0.118507,-0.045967,0.103158,0.085082,0.375033,1.063826,1.243751,0.417984,-0.320436,0.148324,-0.872670,0.403897,-0.379576,0.070435,-0.126602,-0.422261,0.512314,1.143663,0.739618,-0.041391,-0.163630,0.012547,-0.023834,0.110868,-0.232253
-1.023679,0.073323,0.166175,0.015610,0.118937,-0.045462,0.101892,0.090961,0.361681,0.952973,1.229741,0.426941,-0.280454,0.142881,-0.872670,0.393018,-0.387642,0.058812,-0.129344,-0.415070,0.480654,1.141437,0.823571,-0.041761,-0.172437,0.018935,-0.016644,0.102424,-0.245499
-0.967547,0.054663,0.155688,0.018416,0.116726,-0.045462,0.108116,0.096253,0.346814,0.836791,1.208144,0.430508,-0.244339,0.093995,-0.872670,0.380839,-0.391704,0.049948,-0.131188,-0.412836,0.448200,1.143066,0.906471,-0.041761,-0.170855,0.027924,-0.008426,0.091921,-0.259209
-0.915954,0.037351,0.141087,0.016868,0.113706,-0.047520,0.116019,0.099675,0.328549,0.723992,1.181036,0.430653,-0.207503,0.019900,-0.872670,0.368066,-0.395115,0.046244,-0.128209,-0.409565,0.413629,1.145796,0.979801,-0.035066,-0.144397,0.037293,-0.001995,0.080120,-0.269792
-0.866631,0.020713,0.124429,0.013145,0.110283,-0.049283,0.124762,0.102162,0.308586,0.612884,1.151173,0.429087,-0.170306,-0.066799,-0.872670,0.354997,-0.398201,0.045494,-0.122819,-0.405777,0.378001,1.149520,1.048346,-0.025895,-0.105502,0.046851,0.003543,0.067668,-0.278811
-0.827327,0.007699,0.102091,0.023515,0.106298,-0.051851,0.169488,0.095717,0.287722,0.526005,1.113072,0.423490,-0.126302,-0.093057,-0.872670,0.345334,-0.404916,0.035415,-0.119256,-0.397298,0.340545,1.149520,1.092031,-0.018677,-0.044531,0.052454,0.006944,0.057181,-0.280513
-0.792393,-0.000977,0.079325,0.035010,0.102040,-0.053056,0.214634,0.084291,0.269056,0.464101,1.068220,0.415344,-0.079875,-0.112773,-0.864752,0.337499,-0.413195,0.029463,-0.117571,-0.391254,0.306759,1.150375,1.128558,-0.014762,0.012043,0.055885,0.009212,0.049729,-0.281647
-0.766200,-0.000977,0.055703,0.048755,0.097235,-0.051535,0.260620,0.062904,0.254786,0.452147,1.009868,0.402102,-0.028600,-0.119406,-0.841000,0.333320,-0.424600,0.031765,-0.119641,-0.391254,0.280315,1.151608,1.150770,-0.017455,0.059824,0.055885,0.009212,0.048348,-0.281647
-0.747374,0.008215,0.035702,0.061105,0.096441,-0.046043,0.281573,0.040653,0.246616,0.487050,0.944542,0.383064,0.025436,-0.133768,-0.810956,0.332231,-0.438143,0.038936,-0.121029,-0.398389,0.265344,1.153566,1.164496,-0.018352,0.085578,0.054715,0.009852,0.050391,-0.280835
-0.732231,0.021104,0.017510,0.072758,0.097248,-0.038565,0.290010,0.017971,0.241498,0.545382,0.875729,0.361130,0.080855,-0.151995,-0.777765,0.332534,-0.452754,0.048541,-0.121728,-0.409679,0.256111,1.155217,1.173979,-0.018228,0.099364,0.053418,0.010365,0.054145,-0.279411
-0.715013,0.034663,0.007870,0.081135,0.100578,-0.030223,0.280452,0.003936,0.239828,0.628214,0.815211,0.336399,0.136819,-0.184531,-0.745463,0.334403,-0.465284,0.058368,-0.122931,-0.421877,0.256111,1.155217,1.180480,-0.015261,0.099364,0.053418,0.011736,0.056530,-0.275083
-0.694815,0.046750,-0.000138,0.089712,0.103357,-0.023032,0.271369,-0.007609,0.238167,0.711487,0.758832,0.312321,0.190518,-0.217771,-0.712804,0.336625,-0.475634,0.068158,-0.124257,-0.432392,0.256549,1.153713,1.187546,-0.013773,0.097723,0.052684,0.013081,0.058120,-0.270259
-0.668656,0.055890,-0.004880,0.098691,0.105033,-0.018142,0.263235,-0.014174,0.236524,0.795641,0.710727,0.289547,0.239688,-0.252420,-0.679431,0.336625,-0.481625,0.077874,-0.124257,-0.439540,0.258141,1.153713,1.195745,-0.013773,0.095660,0.052684,0.014378,0.058120,-0.264444
-0.636578,0.059513,-0.010363,0.108080,0.106277,-0.014905,0.257830,-0.017577,0.232715,0.870112,0.672381,0.268248,0.280722,-0.284113,-0.644489,0.337078,-0.482797,0.085273,-0.126725,-0.444835,0.256302,1.155172,1.206384,-0.015852,0.095022,0.052024,0.016421,0.058702,-0.258280
-0.601541,0.060089,-0.016215,0.117674,0.107833,-0.011598,0.253791,-0.019400,0.227823,0.939740,0.638914,0.247686,0.317687,-0.314327,-0.608765,0.336555,-0.481559,0.091514,-0.129639,-0.449204,0.252747,1.158611,1.218242,-0.018235,0.094620,0.051773,0.018836,0.059286,-0.251942
-0.559387,0.057049,-0.025936,0.121068,0.107833,-0.011598,0.245614,-0.017707,0.219608,0.984621,0.610466,0.229243,0.342306,-0.345385,-0.576373,0.333994,-0.473816,0.098512,-0.133048,-0.450785,0.241928,1.167328,1.232001,-0.021205,0.094620,0.051773,0.022155,0.061503,-0.248226
-0.515915,0.053436,-0.036379,0.123559,0.109193,-0.010026,0.237758,-0.014964,0.210788,1.020308,0.582695,0.211189,0.364684,-0.373958,-0.545921,0.330781,-0.465074,0.103723,-0.136170,-0.450897,0.229763,1.177184,1.242861,-0.025478,0.095328,0.051486,0.025000,0.064141,-0.245302
-0.469806,0.048681,-0.048262,0.123559,0.110656,-0.010026,0.230546,-0.010124,0.200755,1.037604,0.556278,0.193915,0.382578,-0.397561,-0.519352,0.326264,-0.454336,0.103723,-0.138717,-0.450897,0.214906,1.189318,1.247925,-0.032359,0.098809,0.051486,0.026896,0.067621,-0.243963
-0.419245,0.044555,-0.058637,0.123787,0.112147,-0.007221,0.226249,-0.005633,0.192008,1.033915,0.531415,0.176628,0.398343,-0.416372,-0.494870,0.320100,-0.442865,0.101519,-0.138633,-0.447396,0.201490,1.201097,1.245718,-0.038452,0.104158,0.051061,0.028026,0.071657,-0.241959
-0.366457,0.040744,-0.068257,0.123787,0.113652,-0.004027,0.223410,-0.001317,0.183905,1.019732,0.507327,0.159334,0.413044,-0.432788,-0.471432,0.313110,-0.431027,0.097395,-0.137235,-0.443556,0.188103,1.212698,1.239874,-0.044151,0.110442,0.049980,0.028524,0.075969,-0.239623
-0.313565,0.036732,-0.074630,0.122548,0.115869,0.002081,0.221522,0.003151,0.177171,0.982203,0.484587,0.143662,0.419399,-0.446893,-0.450394,0.304374,-0.418817,0.090845,-0.135096,-0.441046,0.188103,1.220739,1.234323,-0.049548,0.113232,0.049980,0.026620,0.079895,-0.235996
-0.262940,0.031902,-0.080532,0.120002,0.118285,0.008594,0.219079,0.007895,0.169564,0.938644,0.461710,0.128578,0.422763,-0.458842,-0.429813,0.295161,-0.406220,0.081614,-0.132575,-0.438764,0.189953,1.228498,1.230622,-0.055844,0.114990,0.048546,0.023690,0.083675,-0.232427
-0.216848,0.025435,-0.085492,0.114841,0.121098,0.015919,0.215526,0.013190,0.160211,0.883026,0.438560,0.114671,0.420144,-0.466479,-0.410149,0.284995,-0.392851,0.067024,-0.129290,-0.438764,0.197569,1.235691,1.230622,-0.063939,0.114990,0.045907,0.018707,0.087166,-0.228972
-0.172638,0.020044,-0.091253,0.109998,0.123768,0.022847,0.215443,0.017308,0.151484,0.814901,0.414694,0.103073,0.412499,-0.468059,-0.390018,0.275175,-0.377944,0.050126,-0.125816,-0.438156,0.205208,1.241060,1.232244,-0.073215,0.114099,0.041390,0.013794,0.090168,-0.225664
-0.129369,0.014315,-0.097416,0.105314,0.126368,0.029577,0.217093,0.020837,0.143071,0.740521,0.390470,0.092630,0.402343,-0.467094,-0.369656,0.265528,-0.362268,0.032075,-0.122247,-0.438863,0.212859,1.245517,1.234838,-0.083082,0.113731,0.035932,0.008916,0.092925,-0.222430
-0.081869,0.014315,-0.103205,0.102452,0.129192,0.035970,0.227612,0.024794,0.137363,0.641387,0.365609,0.085517,0.386187,-0.454208,-0.350091,0.255810,-0.345289,0.004987,-0.118252,-0.441295,0.218669,1.251653,1.240207,-0.096522,0.113731,0.029068,0.004967,0.094354,-0.219620
-0.035741,0.014671,-0.109218,0.097702,0.131466,0.041675,0.237099,0.029267,0.132774,0.541366,0.340221,0.078511,0.368847,-0.441460,-0.330891,0.246122,-0.328538,-0.019951,-0.114405,-0.445233,0.224810,1.258504,1.245283,-0.108986,0.114926,0.022942,0.000776,0.095307,-0.217272
0.007645,0.018369,-0.115680,0.089176,0.131466,0.046003,0.244523,0.034775,0.130421,0.439569,0.313778,0.071719,0.349137,-0.428987,-0.312421,0.236497,-0.312244,-0.040590,-0.110856,-0.452183,0.231616,1.266784,1.249774,-0.119497,0.117246,0.018291,-0.003903,0.095307,-0.215849
0.048080,0.028195,-0.123517,0.077849,0.129416,0.048883,0.250653,0.038770,0.130293,0.345337,0.281435,0.063069,0.328017,-0.402549,-0.294086,0.226456,-0.296492,-0.048536,-0.106646,-0.462005,0.239841,1.277718,1.253847,-0.127867,0.120969,0.015777,-0.009942,0.094415,-0.214764
0.087040,0.041083,-0.132040,0.065121,0.125755,0.051039,0.255212,0.042009,0.131501,0.254890,0.246142,0.053490,0.306193,-0.369129,-0.275817,0.216208,-0.281011,-0.050135,-0.102106,-0.473263,0.248773,1.289980,1.257711,-0.135988,0.125395,0.014331,-0.016662,0.093133,-0.214152
0.116337,0.052327,-0.140865,0.051314,0.119314,0.051039,0.255212,0.040403,0.131501,0.183673,0.218356,0.043461,0.286181,-0.334365,-0.265545,0.206549,-0.266320,-0.047698,-0.098551,-0.485282,0.257830,1.302529,1.259405,-0.135988,0.128929,0.018039,-0.023061,0.091080,-0.214152
0.140539,0.062303,-0.149680,0.038937,0.112821,0.050138,0.253443,0.037500,0.131310,0.121526,0.192321,0.033822,0.267236,-0.302886,-0.257093,0.197346,-0.251568,-0.047026,-0.095007,-0.497162,0.265034,1.314239,1.260123,-0.136158,0.131143,0.022217,-0.028897,0.088888,-0.215156
0.154551,0.069745,-0.158473,0.029422,0.106228,0.050138,0.250906,0.031999,0.129080,0.077516,0.169790,0.024961,0.250424,-0.277979,-0.252282,0.189053,-0.236693,-0.047026,-0.091484,-0.508764,0.268535,1.324270,1.260123,-0.134205,0.131143,0.027335,-0.033605,0.086418,-0.215156
0.162695,0.077493,-0.164954,0.022136,0.100851,0.050072,0.245305,0.026997,0.127301,0.048559,0.148675,0.017659,0.235588,-0.260759,-0.248540,0.181402,-0.222952,-0.046833,-0.087583,-0.518534,0.270418,1.331264,1.258701,-0.131639,0.128521,0.031174,-0.035518,0.084422,-0.218197
0.167905,0.085395,-0.170278,0.015965,0.096083,0.050653,0.238172,0.022245,0.125748,0.027129,0.128267,0.011136,0.221740,-0.247383,-0.245333,0.174072,-0.209779,-0.045115,-0.083491,-0.527389,0.271134,1.336739,1.257186,-0.128764,0.124802,0.034373,-0.035862,0.081731,-0.221407
0.172452,0.096024,-0.168755,0.011154,0.092744,0.052842,0.230454,0.019743,0.127246,0.015336,0.108523,0.006759,0.209141,-0.238560,-0.239693,0.167263,-0.199834,-0.038649,-0.077820,-0.530489,0.276452,1.335179,1.257186,-0.125516,0.119403,0.036421,-0.032644,0.081731,-0.227352
0.176087,0.106049,-0.165406,0.006944,0.089605,0.054984,0.224345,0.017380,0.129302,0.006478,0.090132,0.003199,0.196374,-0.231179,-0.234125,0.161173,-0.190975,-0.032479,-0.072893,-0.532823,0.283507,1.331881,1.258212,-0.122716,0.113704,0.038609,-0.029035,0.080151,-0.234003
0.177900,0.114867,-0.158404,0.003936,0.086869,0.057031,0.221454,0.017380,0.132471,0.003491,0.074446,0.001274,0.183273,-0.226681,-0.228701,0.156521,-0.184289,-0.026903,-0.069456,-0.532823,0.294034,1.325104,1.260757,-0.120812,0.107405,0.038609,-0.024642,0.080151,-0.242065
0.177667,0.119900,-0.150451,0.001965,0.084804,0.058613,0.220736,0.017165,0.134850,0.003609,0.064358,0.000632,0.170837,-0.224752,-0.224356,0.153557,-0.179058,-0.023326,-0.066446,-0.534465,0.304884,1.319251,1.263116,-0.120177,0.102325,0.038743,-0.021804,0.079120,-0.249692
0.177667,0.123040,-0.142022,0.000513,0.083074,0.058613,0.220736,0.017165,0.136833,0.005278,0.057069,0.000632,0.158734,-0.224752,-0.220552,0.151437,-0.174553,-0.020749,-0.063648,-0.536528,0.315893,1.313861,1.265382,-0.120177,0.097855,0.038743,-0.019743,0.079120,-0.257103
0.173994,0.119786,-0.133820,0.000513,0.081895,0.060148,0.224808,0.018311,0.137702,0.008740,0.059043,0.001244,0.148879,-0.225659,-0.220672,0.150584,-0.173044,-0.020421,-0.062255,-0.538843,0.326536,1.310816,1.263552,-0.119715,0.095900,0.036792,-0.018964,0.078738,-0.261542
0.171051,0.115963,-0.126593,-0.000168,0.080477,0.060784,0.228805,0.019290,0.139141,0.012655,0.062324,0.003029,0.140069,-0.227905,-0.221611,0.149388,-0.172519,-0.020668,-0.060731,-0.540946,0.336311,1.307952,1.260738,-0.118119,0.095539,0.036800,-0.018654,0.078310,-0.265121
0.167892,0.111005,-0.121317,-0.000168,0.080477,0.060784,0.233148,0.019290,0.139141,0.017478,0.068219,0.005696,0.133347,-0.231972,-0.224073,0.149388,-0.172519,-0.022394,-0.058947,-0.542627,0.344349,1.305450,1.255953,-0.115769,0.095539,0.036800,-0.018654,0.078310,-0.265121
0.164419,0.106178,-0.118659,0.001137,0.079844,0.060000,0.236058,0.020410,0.140491,0.023698,0.074923,0.008530,0.128440,-0.238567,-0.228068,0.149596,-0.174242,-0.025278,-0.057464,-0.546030,0.350938,1.303536,1.250321,-0.113772,0.098660,0.039795,-0.021121,0.077269,-0.264322
0.160791,0.101415,-0.118679,0.001837,0.080551,0.058872,0.238250,0.021216,0.141272,0.030616,0.082031,0.012266,0.124440,-0.246426,-0.232830,0.151157,-0.176106,-0.028742,-0.057255,-0.550295,0.356802,1.301916,1.244266,-0.111950,0.101925,0.043014,-0.024118,0.075998,-0.262194
0.157070,0.096579,-0.118679,0.003253,0.080551,0.058872,0.238250,0.022637,0.142816,0.039140,0.090809,0.012266,0.122832,-0.256582,-0.238619,0.151157,-0.178797,-0.032430,-0.057255,-0.558007,0.363555,1.299236,1.239522,-0.108669,0.106027,0.047197,-0.027700,0.072986,-0.259483
0.152902,0.091315,-0.120473,0.004943,0.081849,0.057924,0.238360,0.023585,0.144735,0.048063,0.100088,0.012391,0.122534,-0.266929,-0.244436,0.152810,-0.181769,-0.036030,-0.058787,-0.566471,0.370473,1.296054,1.234946,-0.104801,0.109879,0.051421,-0.031104,0.069689,-0.257017
0.147837,0.085196,-0.123098,0.007181,0.083378,0.057924,0.238360,0.023585,0.144735,0.057787,0.110368,0.010305,0.124856,-0.277658,-0.250308,0.154734,-0.185303,-0.039452,-0.061345,-0.576440,0.377720,1.291865,1.230700,-0.099758,0.113233,0.055726,-0.034150,0.065823,-0.255043
0.142243,0.077827,-0.125511,0.009599,0.084733,0.057505,0.238940,0.023205,0.146229,0.067951,0.122626,0.005856,0.130075,-0.288674,-0.256750,0.156819,-0.189869,-0.043229,-0.063859,-0.586985,0.386099,1.285562,1.228008,-0.093322,0.115413,0.059037,-0.036723,0.062513,-0.253182
0.136386,0.069833,-0.127818,0.012107,0.086684,0.057341,0.241049,0.021678,0.146509,0.078335,0.135874,0.000225,0.136744,-0.299835,-0.263479,0.158985,-0.194953,-0.047183,-0.066351,-0.597818,0.395044,1.278202,1.226091,-0.086189,0.116555,0.061849,-0.039058,0.059481,-0.251378
0.131537,0.061017,-0.130230,0.013845,0.086684,0.057341,0.241049,0.021678,0.146509,0.085469,0.150129,-0.008078,0.148600,-0.309149,-0.272351,0.161404,-0.202835,-0.049978,-0.067533,-0.607816,0.403954,1.266402,1.224517,-0.078563,0.116555,0.063368,-0.041132,0.057839,-0.248389
0.128349,0.053303,-0.132644,0.015568,0.087853,0.057376,0.242159,0.019998,0.145565,0.090654,0.163680,-0.016590,0.162781,-0.317384,-0.281283,0.164034,-0.212054,-0.053210,-0.069252,-0.616725,0.411867,1.252874,1.222484,-0.071284,0.114957,0.064802,-0.043327,0.055844,-0.244529
0.128349,0.047794,-0.135066,0.015568,0.087853,0.057376,0.242159,0.019998,0.145565,0.091941,0.175822,-0.025517,0.181614,-0.323462,-0.290335,0.167085,-0.223948,-0.057315,-0.069252,-0.623457,0.417785,1.235893,1.219531,-0.064697,0.111521,0.064802,-0.043327,0.055844,-0.238924
0.130436,0.042880,-0.137716,0.015895,0.088818,0.056563,0.242517,0.019457,0.143869,0.089685,0.187522,-0.034159,0.202814,-0.328322,-0.300121,0.171453,-0.239101,-0.061169,-0.070998,-0.629637,0.422357,1.214522,1.216974,-0.057614,0.105741,0.064609,-0.043563,0.054270,-0.232476
0.133501,0.038264,-0.140480,0.015658,0.089298,0.056141,0.243033,0.019759,0.142253,0.085658,0.199001,-0.042659,0.225199,-0.332574,-0.310275,0.176479,-0.255885,-0.064898,-0.072222,-0.635542,0.426256,1.190956,1.214615,-0.050281,0.098788,0.063993,-0.042986,0.053598,-0.225606
0.136041,0.031819,-0.144353,0.015658,0.090600,0.056141,0.243033,0.021536,0.138313,0.081977,0.213173,-0.048934,0.250380,-0.336240,-0.322131,0.185069,-0.278335,-0.066532,-0.073518,-0.642295,0.424671,1.161546,1.210861,-0.041302,0.087699,0.062096,-0.040022,0.051977,-0.216301
0.137065,0.025264,-0.148408,0.016516,0.092475,0.056234,0.244165,0.023888,0.133926,0.080870,0.226532,-0.055244,0.273837,-0.341569,-0.333399,0.193988,-0.301433,-0.068041,-0.074786,-0.648852,0.421327,1.131834,1.207281,-0.033936,0.078431,0.059871,-0.036720,0.050180,-0.207738
0.135055,0.018491,-0.152829,0.018874,0.095497,0.056234,0.245709,0.027390,0.128648,0.084912,0.238262,-0.061624,0.293846,-0.350223,-0.343490,0.203564,-0.325826,-0.069301,-0.075994,-0.655016,0.414465,1.101519,1.204049,-0.029795,0.072805,0.056991,-0.032741,0.050180,-0.200659
0.126063,0.010615,-0.155138,0.023882,0.100194,0.058666,0.247063,0.032557,0.122670,0.104174,0.251351,-0.063368,0.311167,-0.364646,-0.353156,0.216430,-0.353996,-0.067702,-0.077218,-0.659401,0.407524,1.064516,1.196029,-0.027068,0.068835,0.052915,-0.027067,0.049465,-0.192169
0.113580,0.002186,-0.155974,0.030215,0.105728,0.061714,0.247082,0.038557,0.116342,0.131048,0.265118,-0.062986,0.327143,-0.381955,-0.362609,0.230939,-0.384054,-0.064672,-0.078039,-0.662896,0.400543,1.024169,1.185615,-0.025373,0.065694,0.048242,-0.020546,0.049855,-0.182974
0.079363,-0.007148,-0.150818,0.046954,0.117559,0.070446,0.247082,0.046359,0.111836,0.203930,0.278864,-0.055128,0.333911,-0.412963,-0.370973,0.249978,-0.418973,-0.055289,-0.078039,-0.664702,0.403813,0.974873,1.172234,-0.025373,0.063676,0.041596,-0.013510,0.052393,-0.172151
0.037826,-0.014345,-0.145002,0.069033,0.131624,0.080500,0.245423,0.052841,0.111339,0.297107,0.293218,-0.045479,0.336326,-0.448819,-0.381144,0.271833,-0.455757,-0.046746,-0.079406,-0.666979,0.411473,0.923030,1.159102,-0.026446,0.062576,0.033237,-0.006905,0.057242,-0.159997
-0.018355,-0.017269,-0.137867,0.101796,0.150157,0.093198,0.245423,0.056685,0.118856,0.430881,0.308789,-0.032245,0.330040,-0.494375,-0.394932,0.299323,-0.496273,-0.039881,-0.083158,-0.670198,0.427911,0.866087,1.146465,-0.028690,0.062576,0.021452,-0.001159,0.066716,-0.145178
-0.076346,-0.015244,-0.129377,0.133963,0.166857,0.102684,0.238176,0.057192,0.134799,0.575679,0.328067,-0.022980,0.312706,-0.510972,-0.412303,0.326431,-0.538045,-0.028827,-0.087587,-0.675000,0.452510,0.817860,1.140021,-0.031519,0.065730,0.009754,0.002011,0.079410,-0.131746
-0.135242,-0.010746,-0.120208,0.165832,0.182640,0.110564,0.228565,0.056418,0.154955,0.725992,0.349200,-0.015700,0.289847,-0.513089,-0.431467,0.353350,-0.580445,-0.015678,-0.092354,-0.680595,0.481189,0.773992,1.136674,-0.034640,0.070094,-0.001901,0.003894,0.093715,-0.119008
-0.204582,-0.009463,-0.104649,0.183577,0.186346,0.105029,0.217104,0.054280,0.172502,0.872792,0.376814,-0.007121,0.245159,-0.476850,-0.450022,0.378392,-0.615820,0.006483,-0.096432,-0.685986,0.515400,0.750736,1.157618,-0.041731,0.075718,-0.013164,0.006168,0.110680,-0.105133
-0.274017,-0.007962,-0.089237,0.193805,0.187259,0.096380,0.205392,0.052359,0.187333,1.002344,0.403969,0.004541,0.195118,-0.449946,-0.467199,0.402124,-0.646676,0.020403,-0.099569,-0.689579,0.546402,0.734473,1.183407,-0.049473,0.078556,-0.022439,0.009307,0.125293,-0.092601
-0.343640,-0.006023,-0.074120,0.189000,0.182583,0.081499,0.193177,0.052359,0.196731,1.097402,0.430207,0.022368,0.134367,-0.441712,-0.481618,0.423235,-0.668492,0.017838,-0.100827,-0.689579,0.570989,0.734473,1.218883,-0.058519,0.078556,-0.027737,0.014174,0.135205,-0.082758
-0.411084,-0.000165,-0.064170,0.186077,0.175633,0.062943,0.191819,0.051864,0.204040,1.158202,0.451910,0.047774,0.064286,-0.439646,-0.497423,0.444996,-0.677341,0.015768,-0.101247,-0.686236,0.586021,0.741623,1.253654,-0.066269,0.072625,-0.030128,0.022238,0.141639,-0.078726
-0.477437,0.007652,-0.056803,0.184097,0.167546,0.042550,0.195890,0.051164,0.210304,1.201873,0.471346,0.076968,-0.010460,-0.440493,-0.513921,0.467083,-0.679706,0.013945,-0.101256,-0.681442,0.596276,0.753486,1.288072,-0.073370,0.065099,-0.030752,0.031899,0.146334,-0.077975
-0.533042,0.019412,-0.051816,0.190647,0.156180,0.019495,0.217816,0.051164,0.216115,1.192234,0.488459,0.113568,-0.088965,-0.440493,-0.531520,0.487885,-0.668077,0.029136,-0.099790,-0.672208,0.597661,0.771372,1.300110,-0.073370,0.054024,-0.026336,0.045409,0.145056,-0.093950
-0.584288,0.030185,-0.043363,0.196505,0.144528,-0.002798,0.241536,0.050293,0.222416,1.166854,0.508185,0.151099,-0.163308,-0.440047,-0.550052,0.506993,-0.658382,0.042272,-0.097892,-0.662245,0.601745,0.789871,1.298129,-0.071222,0.047033,-0.021398,0.056027,0.142704,-0.110085
-0.626815,0.038984,-0.027979,0.200980,0.132303,-0.023572,0.268843,0.050293,0.229698,1.109991,0.533139,0.190495,-0.229326,-0.438202,-0.570451,0.522712,-0.652552,0.051299,-0.095129,-0.650824,0.611227,0.809594,1.268107,-0.065784,0.047033,-0.015415,0.060859,0.138206,-0.126539
-0.661124,0.039818,-0.007448,0.202012,0.122275,-0.042918,0.294188,0.052517,0.238731,1.029776,0.573893,0.233713,-0.294940,-0.421749,-0.593281,0.537058,-0.647949,0.047898,-0.092426,-0.634019,0.629856,0.826840,1.219473,-0.060529,0.054530,-0.009656,0.060263,0.133595,-0.138100
-0.691326,0.036669,0.015656,0.201552,0.113344,-0.061549,0.318552,0.056511,0.248641,0.937886,0.622548,0.278843,-0.360352,-0.397991,-0.617327,0.550718,-0.643959,0.038283,-0.089754,-0.614523,0.653058,0.842849,1.161532,-0.055924,0.065189,-0.004009,0.056953,0.128926,-0.147993
-0.713767,0.027392,0.040551,0.194465,0.111255,-0.075772,0.326947,0.067854,0.259401,0.833452,0.685433,0.326890,-0.428961,-0.341776,-0.644471,0.559222,-0.635359,-0.003734,-0.088462,-0.591127,0.681050,0.859585,1.090195,-0.055924,0.070027,-0.000105,0.050752,0.124175,-0.147993
-0.733923,0.017666,0.063955,0.185394,0.110585,-0.088959,0.327739,0.079686,0.270137,0.732690,0.751008,0.374932,-0.498704,-0.290778,-0.671234,0.565869,-0.623030,-0.049934,-0.086420,-0.567902,0.708681,0.877755,1.015238,-0.057687,0.072561,0.003562,0.043579,0.118687,-0.147911
-0.749509,0.007040,0.084374,0.172359,0.112751,-0.100075,0.313325,0.092496,0.280821,0.639277,0.821962,0.422966,-0.570709,-0.250218,-0.697231,0.568801,-0.603244,-0.104496,-0.082879,-0.545018,0.735590,0.898792,0.933047,-0.061297,0.070483,0.006754,0.034465,0.111727,-0.147911
-0.765416,-0.000246,0.101166,0.159350,0.114327,-0.111187,0.287295,0.102543,0.292428,0.579931,0.893229,0.469528,-0.640972,-0.218329,-0.728506,0.570614,-0.578071,-0.140514,-0.078116,-0.525167,0.760249,0.920000,0.837235,-0.063998,0.064007,0.009945,0.024033,0.102940,-0.145741
-0.781483,-0.005862,0.116146,0.146354,0.115608,-0.122297,0.255457,0.111207,0.304495,0.537620,0.964654,0.515354,-0.710365,-0.190775,-0.762420,0.571450,-0.550203,-0.167260,-0.072741,-0.506832,0.783782,0.941293,0.734611,-0.066244,0.055332,0.013134,0.012942,0.093239,-0.143773
-0.798046,0.000198,0.129827,0.137193,0.115608,-0.133990,0.225716,0.118689,0.321284,0.565061,1.034531,0.557968,-0.774766,-0.186763,-0.804520,0.574598,-0.521921,-0.164311,-0.069180,-0.493507,0.803939,0.959126,0.611251,-0.063117,0.040459,0.016802,0.001983,0.081059,-0.139256
-0.817714,0.005960,0.143025,0.130371,0.113401,-0.146215,0.202489,0.124108,0.335780,0.605837,1.101011,0.599106,-0.839269,-0.171679,-0.840603,0.577993,-0.494757,-0.149845,-0.066319,-0.479741,0.822678,0.976086,0.485191,-0.057657,0.026956,0.020523,-0.009068,0.068140,-0.134193
-0.843592,0.011123,0.155256,0.128225,0.107333,-0.159501,0.192291,0.125403,0.345692,0.673285,1.160696,0.637292,-0.903971,-0.134451,-0.864653,0.581885,-0.469826,-0.112344,-0.064862,-0.465094,0.838579,0.991297,0.353734,-0.047529,0.016194,0.024349,-0.020302,0.053743,-0.128036
-0.890480,0.019655,0.166479,0.127970,0.104501,-0.168221,0.176907,0.127047,0.354970,0.779133,1.206305,0.670007,-0.971888,-0.105303,-0.872670,0.581074,-0.441633,-0.079910,-0.065691,-0.444865,0.846435,1.010509,0.232381,-0.039236,0.009793,0.025625,-0.027623,0.041575,-0.122311
-0.947875,0.029870,0.177200,0.128430,0.103692,-0.174658,0.158928,0.128867,0.363930,0.904184,1.244876,0.699987,-1.041413,-0.080195,-0.872670,0.577911,-0.411808,-0.050010,-0.068324,-0.421844,0.850267,1.031722,0.116080,-0.031670,0.005574,0.025520,-0.032986,0.029770,-0.116801
-1.004650,0.041650,0.182520,0.125165,0.100716,-0.177896,0.152637,0.125711,0.375159,1.014179,1.274511,0.713674,-1.107366,-0.049297,-0.872670,0.571651,-0.376632,-0.022809,-0.068324,-0.398245,0.836156,1.057808,0.016248,-0.031670,-0.000157,0.022243,-0.029572,0.029770,-0.109872
-1.054021,0.057632,0.188891,0.120923,0.096098,-0.180646,0.149024,0.120804,0.390309,1.117058,1.300637,0.723512,-1.171006,-0.031955,-0.872670,0.566298,-0.340491,0.003925,-0.072668,-0.379713,0.820713,1.083704,-0.076360,-0.031479,-0.005744,0.019460,-0.026228,0.031550,-0.103596
-1.088583,0.082019,0.197364,0.114724,0.088198,-0.182419,0.150766,0.112393,0.413304,1.205705,1.319743,0.723512,-1.230019,-0.041728,-0.872670,0.562759,-0.302417,0.029727,-0.083722,-0.371316,0.802607,1.109221,-0.154521,-0.031479,-0.011045,0.019460,-0.023023,0.039138,-0.098630
-1.123733,0.100831,0.206053,0.108428,0.083929,-0.183470,0.150221,0.103297,0.433559,1.285726,1.337482,0.718643,-1.278276,-0.061463,-0.872670,0.560455,-0.259091,0.045752,-0.097087,-0.373416,0.786771,1.131362,-0.216311,-0.030370,-0.017517,0.019781,-0.022761,0.048543,-0.094889
-1.159177,0.116855,0.214849,0.102083,0.081190,-0.183930,0.148531,0.093859,0.452443,1.361434,1.354538,0.710270,-1.321156,-0.086179,-0.872670,0.557995,-0.213140,0.056888,-0.111607,-0.380765,0.772071,1.151816,-0.269915,-0.027937,-0.024573,0.021252,-0.023568,0.058854,-0.091760
-1.196115,0.122705,0.224155,0.093322,0.081190,-0.185514,0.148531,0.085283,0.463004,1.417836,1.366491,0.697573,-1.346179,-0.105252,-0.872670,0.557995,-0.171788,0.064076,-0.118382,-0.388263,0.765712,1.162151,-0.305701,-0.024441,-0.033334,0.021252,-0.026030,0.065621,-0.086583
-1.230489,0.129142,0.233936,0.084949,0.080296,-0.187278,0.149344,0.077509,0.474309,1.470253,1.375943,0.684487,-1.367363,-0.123890,-0.872670,0.556380,-0.135025,0.071081,-0.122384,-0.395234,0.762738,1.170374,-0.338788,-0.021685,-0.041583,0.021292,-0.028390,0.071275,-0.081184
-1.259733,0.136753,0.244666,0.077352,0.080296,-0.189402,0.151568,0.071337,0.487103,1.514701,1.380393,0.670627,-1.380866,-0.141660,-0.872670,0.553858,-0.107436,0.077718,-0.120843,-0.401150,0.766532,1.174373,-0.366477,-0.020408,-0.048806,0.021292,-0.030545,0.074704,-0.075339
-1.286773,0.142315,0.255694,0.074376,0.081654,-0.189187,0.151349,0.067839,0.500241,1.554560,1.383503,0.656241,-1.388096,-0.156998,-0.872670,0.547749,-0.086882,0.083514,-0.121138,-0.408919,0.773121,1.176633,-0.389104,-0.019327,-0.056004,0.019570,-0.032504,0.078150,-0.068390
-1.312712,0.146850,0.266872,0.073931,0.084600,-0.188265,0.149909,0.065678,0.513551,1.592123,1.385943,0.641592,-1.392189,-0.171121,-0.872670,0.539846,-0.069845,0.088889,-0.121947,-0.417613,0.781107,1.177325,-0.409200,-0.018673,-0.063189,0.017754,-0.034365,0.081604,-0.060890
-1.340279,0.141679,0.276580,0.078480,0.089700,-0.186088,0.145485,0.065678,0.517421,1.623385,1.394253,0.631392,-1.384644,-0.183896,-0.872670,0.528383,-0.058818,0.092587,-0.125140,-0.427676,0.790874,1.177325,-0.420168,-0.017403,-0.069569,0.015419,-0.035705,0.084337,-0.052312
-1.366816,0.135375,0.285011,0.082655,0.094285,-0.184359,0.140845,0.064775,0.520000,1.652098,1.402872,0.622750,-1.375453,-0.195655,-0.872670,0.517085,-0.049293,0.095640,-0.127268,-0.438152,0.800601,1.176521,-0.428948,-0.016556,-0.075347,0.012883,-0.037316,0.086574,-0.044642
-1.391289,0.126808,0.290887,0.086082,0.097842,-0.184359,0.135772,0.064775,0.520000,1.675714,1.412109,0.617224,-1.362971,-0.205383,-0.872670,0.506119,-0.042770,0.097401,-0.127268,-0.449456,0.810246,1.176521,-0.433355,-0.016556,-0.079924,0.009943,-0.039469,0.087818,-0.038787
-1.412441,0.119225,0.294851,0.087260,0.101005,-0.183606,0.130773,0.063669,0.520000,1.694786,1.419303,0.611904,-1.350012,-0.213643,-0.872670,0.496507,-0.039235,0.098850,-0.126423,-0.459125,0.817397,1.176589,-0.435669,-0.015602,-0.082810,0.007235,-0.041754,0.088794,-0.034792
-1.431931,0.112134,0.297859,0.087713,0.103972,-0.182205,0.125809,0.063440,0.520000,1.711586,1.425476,0.606688,-1.336814,-0.221169,-0.872670,0.487573,-0.037193,0.100143,-0.124908,-0.467975,0.823302,1.177823,-0.437488,-0.014123,-0.084850,0.003687,-0.044105,0.089357,-0.031729
-1.446524,0.108360,0.299201,0.087713,0.108420,-0.182205,0.122647,0.065245,0.520000,1.723964,1.426861,0.602960,-1.327017,-0.223977,-0.872670,0.482231,-0.037193,0.103627,-0.122396,-0.473199,0.824815,1.177823,-0.437488,-0.011818,-0.086245,0.003687,-0.044105,0.089357,-0.029388
-1.459761,0.105070,0.300893,0.088630,0.112432,-0.181278,0.120538,0.067169,0.520000,1.735709,1.427783,0.600024,-1.318667,-0.225834,-0.872670,0.478181,-0.037838,0.107704,-0.119914,-0.477567,0.826394,1.179196,-0.438039,-0.009369,-0.087757,0.001765,-0.044041,0.090278,-0.027117
-1.470289,0.105070,0.300893,0.090128,0.115571,-0.181278,0.120538,0.069333,0.520000,1.746189,1.427783,0.598672,-1.313211,-0.225834,-0.872670,0.476713,-0.039948,0.112966,-0.117494,-0.480226,0.828104,1.181523,-0.438039,-0.009369,-0.089507,0.001765,-0.044041,0.090278,-0.024984
-1.477628,0.104840,0.301622,0.091077,0.115022,-0.181836,0.122737,0.070040,0.520000,1.754019,1.428730,0.598339,-1.310540,-0.224655,-0.872670,0.477583,-0.041509,0.119344,-0.115573,-0.481113,0.828674,1.184190,-0.436584,-0.007723,-0.090789,0.000104,-0.043646,0.091085,-0.023606
-1.484178,0.105383,0.300975,0.091527,0.112628,-0.182629,0.126607,0.069296,0.520000,1.760524,1.429757,0.598457,-1.310425,-0.222249,-0.872670,0.479621,-0.042793,0.126281,-0.113903,-0.480825,0.828554,1.187027,-0.435621,-0.006444,-0.092040,-0.000953,-0.043025,0.092039,-0.022485
-1.484178,0.107454,0.300975,0.091527,0.107610,-0.182629,0.132586,0.069296,0.520000,1.763748,1.429757,0.600362,-1.310425,-0.222249,-0.872670,0.483439,-0.042793,0.132070,-0.112248,-0.478702,0.826140,1.190066,-0.433668,-0.006444,-0.092040,-0.000953,-0.043025,0.092039,-0.022485
-1.483595,0.110627,0.299798,0.091089,0.102127,-0.181601,0.138824,0.067770,0.520000,1.766280,1.429683,0.602611,-1.311986,-0.221389,-0.872670,0.487502,-0.043476,0.137201,-0.110268,-0.476406,0.822846,1.193277,-0.430917,-0.006603,-0.093391,-0.001896,-0.042634,0.093047,-0.021738
-1.479430,0.116004,0.298006,0.089434,0.095713,-0.181601,0.145576,0.067770,0.520000,1.766280,1.427755,0.605546,-1.311986,-0.221389,-0.872670,0.492055,-0.045025,0.141018,-0.107639,-0.473763,0.817793,1.196828,-0.426572,-0.006603,-0.093391,-0.001896,-0.042634,0.094349,-0.021738
-1.472738,0.123630,0.295389,0.086881,0.089862,-0.178536,0.152691,0.066685,0.520000,1.765128,1.423670,0.607471,-1.311161,-0.218481,-0.872670,0.496372,-0.048769,0.146164,-0.103668,-0.470996,0.810892,1.200732,-0.417554,-0.007607,-0.095613,-0.002478,-0.043696,0.095730,-0.022343
-1.464784,0.132382,0.292360,0.083879,0.084293,-0.175291,0.159987,0.066748,0.520000,1.762826,1.418507,0.608890,-1.308686,-0.214421,-0.872670,0.500569,-0.053611,0.151976,-0.099026,-0.468167,0.803066,1.204813,-0.406200,-0.007909,-0.097748,-0.002235,-0.045125,0.097176,-0.023694
-1.453474,0.140331,0.289232,0.081686,0.078462,-0.170833,0.168276,0.066748,0.520000,1.755728,1.412986,0.607452,-1.300836,-0.207059,-0.872670,0.502906,-0.063805,0.158390,-0.094696,-0.463874,0.794006,1.207200,-0.381436,-0.006629,-0.101487,-0.002235,-0.048375,0.097176,-0.028846
-1.440590,0.147531,0.286336,0.079087,0.071256,-0.166780,0.176712,0.067199,0.520000,1.746103,1.407211,0.604916,-1.290812,-0.199568,-0.872670,0.505300,-0.076711,0.163049,-0.091809,-0.458696,0.784507,1.208230,-0.350431,-0.005035,-0.106043,-0.000633,-0.052166,0.097674,-0.035375
-1.424562,0.153235,0.283907,0.075675,0.061302,-0.163538,0.185439,0.067199,0.520000,1.731427,1.400930,0.600183,-1.276438,-0.191820,-0.872670,0.505300,-0.095039,0.163049,-0.091809,-0.451750,0.774130,1.206548,-0.306946,-0.005035,-0.112236,-0.000633,-0.057041,0.097674,-0.044659
-1.406211,0.158310,0.280157,0.072274,0.051988,-0.160528,0.193735,0.067114,0.520000,1.712243,1.392123,0.593336,-1.256293,-0.181946,-0.872670,0.507001,-0.116215,0.163433,-0.092765,-0.447625,0.761131,1.203151,-0.250883,-0.004293,-0.119627,0.000772,-0.061745,0.096227,-0.055282
-1.386700,0.163071,0.275747,0.068879,0.042994,-0.157632,0.201815,0.067114,0.520000,1.690807,1.382054,0.585432,-1.233262,-0.171008,-0.872670,0.507001,-0.138812,0.163433,-0.094430,-0.444910,0.746823,1.198897,-0.188532,-0.004293,-0.127616,0.000772,-0.066364,0.096227,-0.066574
-1.367072,0.164992,0.269721,0.065789,0.039955,-0.154631,0.207043,0.067911,0.517268,1.664958,1.374331,0.575297,-1.202138,-0.155767,-0.872670,0.508408,-0.165885,0.165562,-0.096465,-0.445140,0.733126,1.195906,-0.105324,-0.004342,-0.132875,0.001223,-0.070273,0.095475,-0.078533
-1.347321,0.165754,0.263379,0.061938,0.037344,-0.151830,0.211426,0.068410,0.511348,1.636658,1.366169,0.566650,-1.167710,-0.138700,-0.872670,0.509687,-0.191600,0.166851,-0.099334,-0.446615,0.719853,1.193296,-0.015433,-0.003426,-0.135927,0.000577,-0.073913,0.096450,-0.092206
-1.327320,0.164201,0.256402,0.056566,0.035586,-0.149428,0.214122,0.066968,0.499051,1.603452,1.357130,0.560975,-1.126670,-0.117977,-0.872670,0.509687,-0.214600,0.166851,-0.103873,-0.450350,0.707426,1.193296,0.087833,-0.003426,-0.134565,0.000577,-0.077016,0.096450,-0.109310
-1.305757,0.161577,0.248764,0.049409,0.032443,-0.147698,0.214079,0.063873,0.486267,1.565518,1.345902,0.556332,-1.079242,-0.098108,-0.872670,0.511215,-0.240008,0.159267,-0.111510,-0.453791,0.691813,1.191245,0.184302,-0.002340,-0.135759,-0.000429,-0.073204,0.097142,-0.122234
-1.283412,0.158418,0.240794,0.041358,0.028607,-0.146769,0.212666,0.059950,0.473240,1.525219,1.333577,0.551344,-1.028619,-0.078665,-0.872670,0.512007,-0.266621,0.148586,-0.120698,-0.457086,0.674606,1.189091,0.277377,-0.001774,-0.138230,-0.001345,-0.065935,0.096280,-0.133068
-1.261463,0.151697,0.236137,0.038227,0.030292,-0.144874,0.207247,0.057375,0.458067,1.480307,1.320645,0.551344,-0.970657,-0.054530,-0.872670,0.514984,-0.296771,0.140093,-0.134628,-0.459619,0.662916,1.189091,0.380984,0.000708,-0.140113,-0.001345,-0.059410,0.096280,-0.140765
-1.238480,0.144322,0.231763,0.036811,0.033236,-0.142618,0.201352,0.055023,0.443077,1.432941,1.307842,0.551163,-0.912792,-0.029060,-0.872670,0.518014,-0.324283,0.132600,-0.148063,-0.461307,0.651927,1.189952,0.485750,0.003012,-0.136473,-0.002441,-0.055741,0.096344,-0.151553
-1.213432,0.135638,0.227958,0.036811,0.038695,-0.139640,0.194509,0.053117,0.428456,1.380669,1.295297,0.553199,-0.855124,-0.000920,-0.872670,0.518014,-0.346517,0.127107,-0.160504,-0.461307,0.642340,1.192893,0.592824,0.004962,-0.121786,-0.002441,-0.057782,0.096344,-0.168521
-1.184516,0.126237,0.224420,0.036108,0.043531,-0.135476,0.186536,0.050476,0.415064,1.320131,1.282538,0.556553,-0.792114,0.030614,-0.872670,0.517557,-0.369410,0.118959,-0.166801,-0.456103,0.629342,1.194795,0.682450,0.006307,-0.112116,-0.002472,-0.051490,0.098211,-0.185620
-1.153667,0.116477,0.221014,0.034046,0.048056,-0.130720,0.177998,0.047468,0.402287,1.255462,1.269674,0.560565,-0.726436,0.063845,-0.872670,0.515305,-0.392632,0.109484,-0.170026,-0.449357,0.614640,1.194795,0.763347,0.006307,-0.104956,-0.002472,-0.041030,0.099834,-0.202783
-1.113294,0.106914,0.220412,0.030641,0.055834,-0.126525,0.167842,0.047812,0.392380,1.172158,1.251326,0.567161,-0.655927,0.093077,-0.872670,0.515305,-0.420568,0.088883,-0.165840,-0.444847,0.611927,1.189551,0.830945,0.008657,-0.108589,0.000940,-0.025958,0.099405,-0.215741
-1.068626,0.097379,0.220869,0.027802,0.063893,-0.122045,0.159014,0.049136,0.383158,1.081341,1.230940,0.573543,-0.587160,0.112817,-0.872670,0.516029,-0.447399,0.066636,-0.160391,-0.440386,0.614924,1.179197,0.898687,0.009761,-0.105632,0.004362,-0.015367,0.097421,-0.226814
-1.015363,0.087901,0.224042,0.027802,0.072516,-0.116995,0.152837,0.052078,0.375306,0.975488,1.206472,0.579497,-0.521868,0.112817,-0.872670,0.517731,-0.472024,0.041097,-0.152416,-0.436020,0.629342,1.160460,0.966728,0.009761,-0.089494,0.009051,-0.015367,0.092755,-0.234118
-0.958256,0.077401,0.227731,0.027834,0.077912,-0.111069,0.151995,0.053865,0.366470,0.860199,1.176868,0.579711,-0.459397,0.079003,-0.872670,0.518004,-0.492406,0.029897,-0.146081,-0.434133,0.644697,1.141674,1.029197,0.010987,-0.066797,0.014069,-0.014957,0.083428,-0.232480
-0.899224,0.066391,0.230957,0.028437,0.081694,-0.104703,0.153819,0.055073,0.357140,0.740184,1.144692,0.577055,-0.398332,0.027898,-0.872670,0.517710,-0.510666,0.025868,-0.140568,-0.433702,0.660520,1.122862,1.088884,0.012419,-0.040820,0.019757,-0.015091,0.071770,-0.226370
-0.836981,0.058209,0.230957,0.031663,0.081694,-0.097524,0.166470,0.049711,0.346296,0.611664,1.102953,0.559576,-0.339188,-0.059333,-0.872670,0.512397,-0.521323,0.032874,-0.137860,-0.441176,0.665831,1.120087,1.135764,0.016080,-0.026580,0.019757,-0.006389,0.058800,-0.209936
-0.775173,0.050691,0.226908,0.039410,0.081521,-0.090600,0.192698,0.042541,0.333852,0.484464,1.054327,0.538183,-0.279400,-0.126124,-0.862677,0.504811,-0.529660,0.036338,-0.135021,-0.448422,0.664118,1.121587,1.175931,0.019528,-0.015665,0.019260,0.002839,0.048661,-0.194889
-0.714242,0.044500,0.216927,0.056201,0.081521,-0.084188,0.246074,0.031755,0.318210,0.359912,0.991937,0.508966,-0.218330,-0.152034,-0.832699,0.492682,-0.533358,0.032719,-0.131917,-0.455212,0.648358,1.131637,1.202670,0.022550,-0.011403,0.016259,0.013117,0.044182,-0.182618
-0.674470,0.038245,0.198280,0.072376,0.080996,-0.079970,0.305051,0.016344,0.298864,0.294371,0.922253,0.476226,-0.154355,-0.151848,-0.793126,0.478063,-0.534590,0.027970,-0.130392,-0.455145,0.614571,1.143748,1.210379,0.022521,-0.007996,0.013918,0.019938,0.045464,-0.179785
-0.645279,0.031957,0.175300,0.088244,0.080452,-0.076849,0.366826,-0.001380,0.277667,0.258336,0.848924,0.441728,-0.088931,-0.138615,-0.748756,0.462201,-0.535026,0.022657,-0.129901,-0.451651,0.571773,1.156891,1.208574,0.020966,-0.005018,0.011234,0.025031,0.049626,-0.181670
-0.646756,0.037446,0.146184,0.101348,0.085773,-0.071503,0.370885,-0.018248,0.266260,0.337931,0.778010,0.399552,-0.014481,-0.155098,-0.711802,0.449961,-0.537315,0.036386,-0.134502,-0.445551,0.515166,1.167648,1.181651,0.014319,0.009735,0.011234,0.022954,0.054741,-0.191103
-0.645834,0.046193,0.118141,0.109366,0.089674,-0.067248,0.364730,-0.035461,0.259531,0.427951,0.711112,0.355554,0.058434,-0.175222,-0.676927,0.440353,-0.537757,0.048964,-0.139841,-0.442685,0.462653,1.176217,1.157308,0.008677,0.028891,0.011497,0.017971,0.059472,-0.199297
-0.640117,0.061453,0.092242,0.107214,0.089674,-0.065177,0.338147,-0.053361,0.262154,0.538827,0.652242,0.307908,0.128281,-0.202634,-0.646210,0.436009,-0.534506,0.059238,-0.146653,-0.446285,0.418323,1.180406,1.138120,0.005044,0.056854,0.011497,0.007172,0.063434,-0.205013
-0.626132,0.075608,0.071759,0.104330,0.088470,-0.063066,0.312743,-0.068161,0.265955,0.647017,0.600087,0.258354,0.190852,-0.231464,-0.617453,0.432638,-0.527930,0.069100,-0.151712,-0.456580,0.386186,1.181802,1.131724,0.001964,0.079765,0.013210,-0.002107,0.067132,-0.208051
-0.608013,0.089211,0.053985,0.101080,0.086133,-0.060935,0.287929,-0.081411,0.270346,0.753869,0.551287,0.207844,0.249788,-0.261006,-0.589675,0.429755,-0.519691,0.078756,-0.156588,-0.470222,0.360144,1.181330,1.131405,-0.000840,0.100623,0.013986,-0.009645,0.070954,-0.210349
-0.584686,0.087767,0.043672,0.107777,0.087562,-0.054560,0.269067,-0.084103,0.267400,0.845026,0.518902,0.159309,0.293783,-0.286528,-0.564790,0.423558,-0.508071,0.089408,-0.156588,-0.483723,0.348416,1.181330,1.145859,-0.006801,0.100623,0.013986,-0.009645,0.070954,-0.210349
-0.558789,0.083078,0.035617,0.116716,0.090518,-0.046902,0.252087,-0.083117,0.262745,0.927996,0.490242,0.112648,0.333252,-0.311831,-0.542163,0.415429,-0.495913,0.098331,-0.157769,-0.493612,0.338844,1.182021,1.162307,-0.011659,0.098087,0.014506,-0.006470,0.070667,-0.210550
-0.527754,0.071901,0.032076,0.130136,0.096529,-0.036682,0.238871,-0.074777,0.254674,0.994584,0.469033,0.069738,0.363669,-0.336696,-0.524054,0.403433,-0.482680,0.103792,-0.159237,-0.493612,0.333586,1.184035,1.182743,-0.014308,0.089071,0.014506,0.000106,0.070667,-0.209357
-0.488628,0.061461,0.028632,0.142079,0.103337,-0.027071,0.227714,-0.065521,0.244725,1.037475,0.449369,0.033955,0.389710,-0.359411,-0.506742,0.389722,-0.467387,0.106359,-0.159346,-0.486006,0.325701,1.185699,1.199494,-0.013210,0.081387,0.016523,0.005996,0.071631,-0.206609
-0.445457,0.051388,0.025236,0.153282,0.110544,-0.017766,0.217587,-0.055807,0.233837,1.068515,0.430479,0.001737,0.413561,-0.381050,-0.489827,0.375154,-0.451065,0.107105,-0.158964,-0.473265,0.316502,1.187188,1.214403,-0.010238,0.073415,0.018098,0.011544,0.073894,-0.203084
-0.398871,0.040467,0.013588,0.156872,0.113805,-0.011389,0.210659,-0.051721,0.219223,1.062216,0.413182,-0.021074,0.431676,-0.397513,-0.475675,0.361911,-0.433962,0.108717,-0.157548,-0.464846,0.307125,1.189107,1.220840,-0.012602,0.073415,0.018098,0.013332,0.078198,-0.200478
-0.353968,0.028951,-0.000690,0.157480,0.116505,-0.005265,0.203195,-0.048997,0.204089,1.046146,0.396083,-0.042026,0.447145,-0.411809,-0.462740,0.349305,-0.417186,0.106905,-0.156203,-0.460146,0.298619,1.190981,1.225663,-0.016249,0.073343,0.017018,0.014011,0.081963,-0.198205
-0.312427,0.016243,-0.020228,0.152127,0.116505,0.000355,0.194660,-0.048997,0.187917,1.010532,0.379377,-0.059263,0.457321,-0.421775,-0.452238,0.337971,-0.401062,0.098244,-0.155002,-0.462884,0.291854,1.192765,1.227261,-0.022465,0.075994,0.015191,0.012473,0.084649,-0.198205
-0.269143,0.008259,-0.042015,0.145899,0.117690,0.006473,0.188187,-0.050661,0.175146,0.958821,0.360584,-0.074174,0.462979,-0.426032,-0.440874,0.327383,-0.385438,0.078928,-0.152956,-0.470215,0.285317,1.195138,1.226417,-0.024489,0.075840,0.015745,0.010780,0.085545,-0.196144
-0.224987,0.003396,-0.064929,0.139233,0.118349,0.012841,0.182743,-0.053378,0.164074,0.899059,0.340745,-0.087924,0.466379,-0.426968,-0.429080,0.317166,-0.370065,0.054284,-0.150487,-0.479842,0.279173,1.197805,1.224350,-0.024299,0.074284,0.017488,0.009010,0.084861,-0.193858
-0.176002,0.003396,-0.084347,0.137501,0.120981,0.021132,0.186687,-0.054528,0.159514,0.820881,0.319508,-0.099468,0.462667,-0.415579,-0.416797,0.305418,-0.355669,0.033203,-0.145497,-0.491046,0.279173,1.202615,1.224350,-0.024299,0.072974,0.018894,0.006607,0.084861,-0.190601
-0.127672,0.002686,-0.102223,0.136347,0.124610,0.030810,0.192182,-0.055836,0.155322,0.736001,0.301520,-0.110604,0.457016,-0.417508,-0.404956,0.293070,-0.341672,0.007512,-0.140343,-0.501735,0.280996,1.207563,1.224733,-0.024275,0.072591,0.020164,0.004470,0.083390,-0.187702
-0.080646,-0.001729,-0.117015,0.136347,0.130233,0.043263,0.200778,-0.057459,0.151862,0.637712,0.290032,-0.120923,0.447486,-0.446074,-0.393997,0.279520,-0.328476,-0.027401,-0.134861,-0.511393,0.285633,1.212790,1.226468,-0.024275,0.072591,0.020164,0.002865,0.083390,-0.185520
-0.045007,-0.007681,-0.128292,0.136361,0.135169,0.055930,0.209435,-0.058046,0.148406,0.554122,0.279744,-0.131348,0.434180,-0.459592,-0.382449,0.264313,-0.316242,-0.047469,-0.129128,-0.519552,0.291740,1.218422,1.228467,-0.024393,0.072665,0.021477,0.002330,0.081534,-0.183191
-0.015059,-0.014402,-0.137812,0.136038,0.139147,0.068705,0.218122,-0.058092,0.144950,0.477879,0.270056,-0.141826,0.418985,-0.465587,-0.370607,0.248277,-0.304489,-0.060114,-0.123269,-0.526961,0.298581,1.224257,1.230598,-0.025155,0.072248,0.022946,0.001575,0.079858,-0.179865
0.005589,-0.025320,-0.142782,0.128090,0.139147,0.077634,0.220299,-0.056635,0.142439,0.416216,0.267894,-0.152390,0.397525,-0.453255,-0.359728,0.231633,-0.292373,-0.055091,-0.116413,-0.532389,0.306535,1.228178,1.233500,-0.025155,0.072248,0.025175,0.001575,0.077992,-0.179865
0.023719,-0.036538,-0.147516,0.117687,0.135314,0.083857,0.222385,-0.055197,0.141315,0.359864,0.268321,-0.162744,0.373433,-0.438225,-0.350873,0.215610,-0.279294,-0.048652,-0.109876,-0.539251,0.314426,1.231648,1.237287,-0.024814,0.072231,0.027876,0.000422,0.076028,-0.179503
0.036815,-0.048355,-0.151780,0.102377,0.125655,0.083857,0.224292,-0.053797,0.141315,0.314137,0.273927,-0.172676,0.344080,-0.417802,-0.346065,0.200834,-0.264286,-0.039382,-0.103975,-0.548985,0.322190,1.234213,1.242844,-0.022297,0.073450,0.031523,-0.001497,0.076028,-0.181184
0.043636,-0.058408,-0.156958,0.090702,0.116925,0.083142,0.229132,-0.052478,0.140635,0.281212,0.275796,-0.178164,0.312241,-0.399886,-0.341918,0.188338,-0.246327,-0.037167,-0.102009,-0.561558,0.330572,1.235069,1.252725,-0.020305,0.076691,0.034257,-0.007275,0.074385,-0.185885
0.047320,-0.067579,-0.162593,0.080845,0.108661,0.082630,0.235440,-0.051198,0.138791,0.254688,0.276235,-0.181429,0.279160,-0.383223,-0.338101,0.176984,-0.226891,-0.039062,-0.102442,-0.575552,0.339625,1.235646,1.264767,-0.017978,0.080943,0.037371,-0.014984,0.073001,-0.192095
0.057234,-0.070483,-0.168628,0.074469,0.104572,0.082630,0.245768,-0.047660,0.135825,0.224744,0.269909,-0.175492,0.253080,-0.369023,-0.329419,0.167664,-0.208934,-0.039062,-0.098719,-0.586100,0.339625,1.231790,1.266054,-0.017978,0.085784,0.037371,-0.025861,0.069789,-0.200789
0.067894,-0.073214,-0.173555,0.068610,0.101355,0.085090,0.256252,-0.043566,0.132978,0.195212,0.263178,-0.169459,0.229498,-0.355993,-0.319886,0.158701,-0.193304,-0.038762,-0.092838,-0.595884,0.342318,1.227273,1.265217,-0.016739,0.091223,0.038209,-0.036001,0.066372,-0.208535
0.080047,-0.073214,-0.173555,0.063786,0.099882,0.089566,0.267050,-0.038360,0.132978,0.166499,0.255635,-0.163235,0.210910,-0.345302,-0.308649,0.150451,-0.182329,-0.038762,-0.082642,-0.604138,0.349315,1.221430,1.260134,-0.016739,0.097860,0.038209,-0.044667,0.062545,-0.214385
0.090855,-0.074621,-0.171653,0.058787,0.098498,0.092943,0.275458,-0.032555,0.132974,0.142243,0.250168,-0.158524,0.194776,-0.335806,-0.301031,0.143250,-0.174251,-0.036767,-0.074690,-0.610237,0.359325,1.215646,1.257870,-0.015254,0.104347,0.037532,-0.054142,0.058877,-0.219022
0.100990,-0.075232,-0.167442,0.053701,0.096889,0.095977,0.282671,-0.026449,0.134273,0.120216,0.245737,-0.154570,0.179868,-0.326908,-0.295221,0.136574,-0.167622,-0.035097,-0.067859,-0.615257,0.370842,1.209891,1.257300,-0.013987,0.110760,0.036980,-0.064022,0.055289,-0.223051
0.107335,-0.077861,-0.162933,0.049672,0.096889,0.095977,0.286448,-0.022031,0.135877,0.105866,0.247133,-0.151214,0.170734,-0.319851,-0.292374,0.131912,-0.164077,-0.033761,-0.065670,-0.617047,0.377119,1.205046,1.259155,-0.012126,0.113347,0.036980,-0.072136,0.052693,-0.225255
0.112452,-0.080666,-0.159251,0.046416,0.096173,0.095788,0.289506,-0.018380,0.137444,0.093778,0.249340,-0.147984,0.163914,-0.313887,-0.290229,0.127926,-0.160999,-0.032208,-0.064210,-0.617670,0.381791,1.199803,1.261031,-0.010281,0.116204,0.037947,-0.078853,0.049937,-0.227573
0.115113,-0.083823,-0.157221,0.044705,0.096173,0.095788,0.291124,-0.016267,0.138936,0.086213,0.253171,-0.145007,0.163914,-0.310109,-0.290229,0.125295,-0.160999,-0.030223,-0.064210,-0.617670,0.383254,1.193768,1.262949,-0.010281,0.119598,0.039615,-0.082775,0.046860,-0.227573
0.115582,-0.086058,-0.157855,0.044135,0.096162,0.094539,0.291017,-0.016401,0.140079,0.082600,0.256265,-0.142200,0.167856,-0.307862,-0.290840,0.124418,-0.161416,-0.030001,-0.065641,-0.617099,0.382722,1.187087,1.264098,-0.009678,0.124108,0.041414,-0.084800,0.042849,-0.228422
0.115582,-0.087832,-0.159821,0.044135,0.096162,0.093258,0.291017,-0.016401,0.140079,0.080963,0.258990,-0.139479,0.174862,-0.306380,-0.290840,0.124418,-0.163114,-0.030001,-0.067009,-0.617099,0.381193,1.180083,1.264098,-0.009678,0.129175,0.043277,-0.084800,0.038371,-0.228422
0.113332,-0.087510,-0.163655,0.046035,0.096027,0.092438,0.288398,-0.021740,0.141132,0.084018,0.260216,-0.139479,0.186848,-0.308054,-0.294484,0.126667,-0.167940,-0.031361,-0.067812,-0.621143,0.384113,1.172902,1.266223,-0.009866,0.131746,0.043839,-0.085066,0.034562,-0.226580
0.111642,-0.086789,-0.167148,0.047857,0.096073,0.091618,0.285448,-0.026288,0.142059,0.087385,0.261583,-0.139607,0.199809,-0.310172,-0.297783,0.128962,-0.173677,-0.032790,-0.069393,-0.625286,0.387603,1.165079,1.268325,-0.009105,0.133157,0.044075,-0.084613,0.031360,-0.224682
0.110233,-0.085591,-0.169962,0.049656,0.096073,0.091618,0.280539,-0.030933,0.142059,0.091377,0.263231,-0.141790,0.214723,-0.313178,-0.302105,0.131865,-0.181233,-0.034317,-0.069393,-0.629233,0.392234,1.155972,1.271404,-0.009105,0.133157,0.044075,-0.084613,0.029371,-0.222647
0.110298,-0.084700,-0.171166,0.051360,0.097318,0.091631,0.276051,-0.033989,0.142658,0.093733,0.266080,-0.144807,0.230976,-0.316393,-0.307719,0.135357,-0.190000,-0.035782,-0.071283,-0.631704,0.395872,1.145836,1.275478,-0.007951,0.131922,0.043045,-0.085225,0.027929,-0.221209
0.111741,-0.084209,-0.171432,0.053017,0.098821,0.092211,0.271773,-0.037179,0.142735,0.094679,0.269529,-0.148242,0.247898,-0.319713,-0.313979,0.139143,-0.199372,-0.037214,-0.072950,-0.632981,0.399014,1.135185,1.280051,-0.006845,0.130524,0.041407,-0.085973,0.027388,-0.219966
0.111741,-0.085480,-0.171432,0.055350,0.101303,0.092211,0.269715,-0.037179,0.140250,0.094679,0.275097,-0.151654,0.264952,-0.324312,-0.321608,0.143721,-0.209931,-0.039396,-0.075643,-0.632981,0.397464,1.124907,1.284686,-0.006845,0.128829,0.041407,-0.085973,0.027388,-0.219966
0.113138,-0.087087,-0.171452,0.057583,0.103649,0.092563,0.268913,-0.037565,0.137289,0.094510,0.281524,-0.154421,0.280853,-0.329314,-0.329981,0.148439,-0.220975,-0.042555,-0.078234,-0.631740,0.395619,1.114156,1.289991,-0.005893,0.126815,0.039490,-0.084098,0.028195,-0.218761
0.114600,-0.089366,-0.169896,0.059614,0.105722,0.092563,0.270623,-0.037565,0.133372,0.095781,0.289668,-0.155900,0.294450,-0.335123,-0.339844,0.153435,-0.232987,-0.047665,-0.080621,-0.629388,0.393186,1.102455,1.296636,-0.005893,0.124162,0.039490,-0.079911,0.029902,-0.216597
0.113895,-0.092201,-0.166763,0.063030,0.108824,0.093487,0.272537,-0.034839,0.129444,0.104862,0.300388,-0.154376,0.303745,-0.346354,-0.350358,0.159322,-0.245797,-0.051310,-0.081417,-0.625846,0.391587,1.088181,1.303991,-0.004920,0.121487,0.037427,-0.074492,0.032227,-0.213584
0.112106,-0.095316,-0.162841,0.067138,0.112442,0.094749,0.273796,-0.031558,0.125510,0.117847,0.312396,-0.151352,0.310889,-0.360296,-0.361196,0.165653,-0.259004,-0.053652,-0.081107,-0.621707,0.390800,1.072622,1.311701,-0.004418,0.118800,0.035807,-0.068457,0.034861,-0.210147
0.097612,-0.099155,-0.155514,0.076509,0.119008,0.099236,0.273796,-0.026986,0.121956,0.160376,0.326441,-0.143578,0.309039,-0.386988,-0.373017,0.173490,-0.274255,-0.053652,-0.081107,-0.618786,0.398950,1.050901,1.319885,-0.004418,0.115230,0.033258,-0.060939,0.038026,-0.205733
0.075331,-0.102280,-0.147973,0.089638,0.126907,0.104853,0.272037,-0.023138,0.120146,0.221384,0.341049,-0.133907,0.302942,-0.418567,-0.385356,0.182547,-0.289803,-0.051537,-0.081204,-0.616177,0.409991,1.026559,1.328573,-0.005305,0.110370,0.029896,-0.052711,0.041746,-0.200899
0.037478,-0.103977,-0.140002,0.110283,0.137471,0.112732,0.269031,-0.020740,0.121824,0.319353,0.356784,-0.120443,0.288350,-0.459923,-0.398736,0.194045,-0.305945,-0.046901,-0.082659,-0.614195,0.426814,0.996976,1.338271,-0.006817,0.102930,0.024906,-0.043063,0.046572,-0.195227
-0.008397,-0.102632,-0.131750,0.136363,0.148587,0.120613,0.265082,-0.021654,0.131028,0.441819,0.376590,-0.106943,0.263013,-0.494723,-0.413355,0.206663,-0.321076,-0.039501,-0.085724,-0.613534,0.448689,0.967635,1.351055,-0.010134,0.096019,0.016771,-0.034003,0.054105,-0.189547
-0.058285,-0.099766,-0.123358,0.165162,0.159980,0.128495,0.260662,-0.024224,0.143994,0.576537,0.398433,-0.093426,0.232302,-0.526246,-0.428593,0.219841,-0.335704,-0.030721,-0.089594,-0.613928,0.473091,0.938416,1.365384,-0.014354,0.089373,0.007064,-0.025236,0.062990,-0.183862
-0.115971,-0.092901,-0.112287,0.189624,0.165560,0.128495,0.251988,-0.027346,0.163867,0.726750,0.423615,-0.081375,0.183510,-0.499953,-0.444155,0.233533,-0.345019,0.011018,-0.094780,-0.617436,0.496491,0.920856,1.384792,-0.026048,0.096959,-0.006683,-0.020823,0.079881,-0.180440
-0.176543,-0.084884,-0.097996,0.208543,0.168909,0.125869,0.241362,-0.029023,0.182383,0.870209,0.446319,-0.069062,0.131362,-0.475740,-0.459210,0.246322,-0.353651,0.044424,-0.099696,-0.621297,0.521478,0.908551,1.402613,-0.040117,0.105516,-0.019719,-0.016328,0.096520,-0.177550
-0.242883,-0.074563,-0.077266,0.216372,0.168909,0.119234,0.226833,-0.027808,0.198183,1.000146,0.464063,-0.056225,0.072507,-0.455692,-0.473252,0.257302,-0.360915,0.061160,-0.104072,-0.625863,0.549641,0.908551,1.417258,-0.058934,0.116013,-0.031335,-0.011668,0.112657,-0.175723
-0.313547,-0.065456,-0.054460,0.212814,0.165663,0.109280,0.212317,-0.025364,0.209823,1.098162,0.481854,-0.036395,0.007111,-0.443692,-0.487290,0.269266,-0.364628,0.056227,-0.106272,-0.626058,0.575977,0.913963,1.426802,-0.078947,0.121356,-0.039589,-0.004731,0.124647,-0.174110
-0.386373,-0.056956,-0.030616,0.203562,0.161352,0.097666,0.197808,-0.021652,0.219382,1.180215,0.499667,-0.013069,-0.061554,-0.435716,-0.501326,0.281723,-0.366565,0.040458,-0.107012,-0.624067,0.601399,0.922977,1.433796,-0.099557,0.124120,-0.046161,0.003345,0.134563,-0.173237
-0.452068,-0.039217,-0.014210,0.198456,0.154349,0.082416,0.197808,-0.021652,0.228086,1.206888,0.507758,0.022074,-0.132810,-0.431595,-0.514905,0.297993,-0.362452,0.030763,-0.108539,-0.620497,0.610170,0.938559,1.424734,-0.113860,0.122547,-0.047395,0.010637,0.138095,-0.173237
-0.513020,-0.020005,0.000937,0.194761,0.146944,0.066340,0.201744,-0.020315,0.236391,1.214757,0.514760,0.060642,-0.203137,-0.428418,-0.528067,0.315559,-0.357448,0.025922,-0.110226,-0.617723,0.616457,0.954468,1.407814,-0.125733,0.121111,-0.047260,0.016520,0.140166,-0.174734
-0.564488,0.002152,0.013566,0.194761,0.138733,0.048610,0.213908,-0.018261,0.243899,1.185018,0.519584,0.106063,-0.271609,-0.427127,-0.540399,0.335715,-0.350662,0.030785,-0.112237,-0.617723,0.617778,0.971033,1.375178,-0.132749,0.121111,-0.044385,0.019584,0.140166,-0.177327
-0.606543,0.019542,0.029529,0.191398,0.128098,0.028452,0.230505,-0.013911,0.248408,1.122288,0.530238,0.157307,-0.338190,-0.421299,-0.556203,0.357951,-0.344556,0.032406,-0.112907,-0.616315,0.624341,0.986351,1.330875,-0.136759,0.118974,-0.040236,0.019983,0.138179,-0.179033
-0.643892,0.034549,0.047160,0.186789,0.116252,0.007079,0.249318,-0.008412,0.252371,1.043060,0.543806,0.211463,-0.403828,-0.413204,-0.573744,0.381228,-0.338790,0.032291,-0.112965,-0.614796,0.633527,1.001045,1.280737,-0.138639,0.116348,-0.035450,0.019360,0.135624,-0.179875
-0.665518,0.041478,0.070258,0.175574,0.103762,-0.014353,0.263100,0.000095,0.252371,0.927982,0.571025,0.273010,-0.467688,-0.381135,-0.596355,0.404989,-0.333817,0.016254,-0.109932,-0.602624,0.649234,1.012931,1.217597,-0.138639,0.111852,-0.028874,0.014364,0.127409,-0.176969
-0.683445,0.047414,0.093896,0.163071,0.093117,-0.033741,0.269746,0.009351,0.254112,0.809546,0.600682,0.334463,-0.530298,-0.342616,-0.619967,0.426347,-0.329438,-0.006297,-0.106809,-0.586817,0.664550,1.026358,1.150080,-0.135594,0.107222,-0.021649,0.008419,0.117721,-0.173882
-0.693974,0.051364,0.118612,0.147994,0.086163,-0.049040,0.262118,0.020105,0.254112,0.684399,0.635219,0.395724,-0.590403,-0.291200,-0.645581,0.442897,-0.326250,-0.041876,-0.103504,-0.563743,0.679082,1.042869,1.073810,-0.128340,0.102328,-0.013127,0.000578,0.105089,-0.170432
-0.701906,0.051801,0.140666,0.135113,0.082519,-0.061567,0.241912,0.032644,0.254899,0.574515,0.677677,0.455465,-0.646819,-0.241694,-0.671496,0.453916,-0.323160,-0.082337,-0.099825,-0.537494,0.690066,1.060850,0.987651,-0.118334,0.093449,-0.003558,-0.008977,0.092957,-0.168258
-0.708541,0.050482,0.161389,0.123331,0.080530,-0.072709,0.215417,0.046076,0.254650,0.472267,0.724096,0.514444,-0.701391,-0.193144,-0.697561,0.462169,-0.320119,-0.125237,-0.095959,-0.509658,0.699278,1.079566,0.896549,-0.106952,0.082578,0.006534,-0.019388,0.081076,-0.166722
-0.720840,0.047358,0.176315,0.120065,0.077790,-0.082223,0.196873,0.055488,0.254650,0.424042,0.778956,0.569103,-0.749202,-0.173175,-0.730380,0.464298,-0.317436,-0.145197,-0.090910,-0.478535,0.701787,1.096812,0.795504,-0.093725,0.068068,0.016686,-0.029414,0.072857,-0.166722
-0.736052,0.046734,0.188877,0.118278,0.074538,-0.091074,0.183493,0.063329,0.256421,0.398374,0.834013,0.620912,-0.795098,-0.159947,-0.764904,0.466255,-0.314031,-0.160377,-0.085967,-0.449591,0.702038,1.113054,0.693560,-0.082189,0.055450,0.025572,-0.038079,0.065633,-0.167655
-0.757089,0.051109,0.196713,0.118278,0.070265,-0.098597,0.180440,0.068028,0.261352,0.417816,0.889470,0.667024,-0.837165,-0.159947,-0.802838,0.466255,-0.309184,-0.165997,-0.081235,-0.425002,0.697771,1.127291,0.589811,-0.074034,0.046617,0.031930,-0.044022,0.060400,-0.167655
-0.787103,0.056321,0.200705,0.116844,0.062799,-0.107720,0.180228,0.066845,0.266963,0.474040,0.945796,0.706040,-0.873200,-0.153754,-0.838357,0.469273,-0.307723,-0.149453,-0.076658,-0.406974,0.692268,1.139474,0.479937,-0.067226,0.042136,0.037837,-0.048722,0.055330,-0.169499
-0.821605,0.061951,0.203312,0.114107,0.053736,-0.117645,0.181436,0.062721,0.272914,0.548657,1.002558,0.741508,-0.906221,-0.144338,-0.872670,0.472992,-0.307879,-0.121826,-0.072157,-0.392225,0.686148,1.150629,0.366997,-0.061093,0.039833,0.043518,-0.053200,0.050342,-0.171988
-0.878838,0.069558,0.203312,0.111212,0.046661,-0.123738,0.170050,0.053838,0.284440,0.672424,1.047522,0.760479,-0.939685,-0.114335,-0.872670,0.475168,-0.311728,-0.096150,-0.075315,-0.382580,0.682370,1.165340,0.254732,-0.051924,0.041742,0.048394,-0.053200,0.045350,-0.171988
-0.935002,0.076385,0.205194,0.107834,0.039680,-0.129174,0.160392,0.046290,0.300145,0.794980,1.097244,0.772629,-0.971519,-0.083858,-0.872670,0.477429,-0.315450,-0.075296,-0.079423,-0.374333,0.678301,1.180348,0.142987,-0.041983,0.041818,0.052414,-0.051853,0.040797,-0.171948
-0.989027,0.081652,0.209230,0.103494,0.032886,-0.133296,0.154189,0.041410,0.324205,0.915112,1.156480,0.772629,-1.000092,-0.052436,-0.872670,0.479860,-0.318915,-0.064087,-0.085427,-0.368885,0.673648,1.195950,0.032285,-0.030498,0.038228,0.054721,-0.046611,0.037123,-0.169404
-1.034160,0.089917,0.215511,0.097060,0.019510,-0.140231,0.153733,0.034640,0.351851,1.022888,1.214146,0.767275,-1.028543,-0.038846,-0.872670,0.484034,-0.321020,-0.033131,-0.090284,-0.368153,0.671709,1.205773,-0.069846,-0.023638,0.033919,0.055417,-0.042529,0.035898,-0.166074
-1.074846,0.099679,0.222916,0.089580,0.002842,-0.148573,0.156559,0.026926,0.381287,1.124482,1.271024,0.759990,-1.056933,-0.034172,-0.872670,0.489079,-0.322445,0.007697,-0.094565,-0.369780,0.671321,1.212706,-0.167689,-0.019089,0.029253,0.055343,-0.039025,0.036225,-0.162350
-1.116828,0.109199,0.228459,0.089580,-0.005832,-0.155547,0.156559,0.021730,0.399118,1.213586,1.303184,0.750782,-1.085868,-0.055848,-0.872670,0.494326,-0.309483,0.035417,-0.099959,-0.382318,0.674533,1.216896,-0.237662,-0.021204,0.020309,0.050620,-0.040538,0.040117,-0.155900
-1.158631,0.119864,0.233411,0.089142,-0.011067,-0.160339,0.155771,0.017439,0.413235,1.296638,1.323815,0.740179,-1.111941,-0.078906,-0.872670,0.498870,-0.294630,0.057636,-0.103964,-0.391303,0.678355,1.220417,-0.299664,-0.021440,0.009465,0.046158,-0.042015,0.043981,-0.148658
-1.200081,0.132818,0.237179,0.087484,-0.009426,-0.160339,0.152187,0.014956,0.419925,1.367592,1.321393,0.726784,-1.132293,-0.104729,-0.872670,0.502011,-0.275998,0.068853,-0.105191,-0.393184,0.683394,1.222597,-0.345731,-0.017914,-0.005180,0.042221,-0.043422,0.047789,-0.139836
-1.234297,0.151435,0.239738,0.081399,-0.008337,-0.162353,0.150687,0.011040,0.430598,1.430772,1.314132,0.711733,-1.148471,-0.130773,-0.872670,0.505248,-0.261039,0.075515,-0.102623,-0.393945,0.689880,1.222643,-0.384993,-0.014204,-0.016519,0.039902,-0.045350,0.052499,-0.132611
-1.264897,0.172885,0.241692,0.073099,-0.008293,-0.165158,0.150380,0.006407,0.443264,1.490066,1.304453,0.695855,-1.162563,-0.156929,-0.872670,0.508532,-0.247916,0.080730,-0.098157,-0.394078,0.697089,1.221964,-0.420855,-0.010154,-0.026206,0.038897,-0.047538,0.057659,-0.126184
-1.289469,0.189632,0.241692,0.063497,-0.008293,-0.169738,0.151662,0.001265,0.460695,1.538555,1.306287,0.677377,-1.175210,-0.182131,-0.872670,0.511908,-0.238279,0.080730,-0.096873,-0.401582,0.702885,1.216173,-0.447129,-0.010154,-0.031048,0.036902,-0.050169,0.062793,-0.123139
-1.314487,0.202476,0.242044,0.055849,-0.008320,-0.173236,0.152028,-0.003473,0.476690,1.584246,1.310276,0.658485,-1.186590,-0.205595,-0.872670,0.514635,-0.229242,0.081560,-0.095371,-0.408864,0.708448,1.209860,-0.470151,-0.009461,-0.036479,0.034590,-0.052891,0.067364,-0.119741
-1.340397,0.207513,0.243673,0.052108,-0.006906,-0.174569,0.150562,-0.007402,0.489811,1.624339,1.318574,0.638768,-1.195434,-0.225584,-0.872670,0.514635,-0.221407,0.081560,-0.095371,-0.415704,0.713545,1.202503,-0.486664,-0.008128,-0.043087,0.031645,-0.052891,0.070811,-0.115638
-1.365063,0.209774,0.245918,0.050118,-0.005142,-0.175013,0.148674,-0.010236,0.501386,1.660038,1.329548,0.619857,-1.200592,-0.243169,-0.872670,0.513972,-0.214023,0.082218,-0.093482,-0.421202,0.718004,1.195380,-0.498495,-0.007924,-0.049706,0.028104,-0.054396,0.074765,-0.111463
-1.389106,0.210356,0.248471,0.048663,-0.003204,-0.175244,0.146574,-0.012520,0.512189,1.693538,1.341861,0.601350,-1.203908,-0.259552,-0.872670,0.511336,-0.206866,0.082996,-0.092208,-0.426029,0.722143,1.188373,-0.507984,-0.008574,-0.056329,0.024264,-0.054931,0.078973,-0.107250
-1.408341,0.212873,0.250680,0.048663,-0.001517,-0.175244,0.143701,-0.015256,0.516876,1.720274,1.344983,0.588651,-1.199221,-0.274078,-0.872670,0.511336,-0.197718,0.082996,-0.092208,-0.432759,0.727224,1.184205,-0.512450,-0.008574,-0.061610,0.020444,-0.056178,0.083763,-0.105327
-1.426876,0.215502,0.252873,0.047952,0.000457,-0.173741,0.139978,-0.018655,0.520000,1.745838,1.346406,0.577671,-1.193537,-0.287651,-0.872670,0.509896,-0.188676,0.082494,-0.094797,-0.438361,0.732527,1.180917,-0.516359,-0.008983,-0.066577,0.016863,-0.057711,0.088269,-0.104044
-1.444011,0.218357,0.255035,0.047952,0.003003,-0.170373,0.134555,-0.023381,0.520000,1.769057,1.346406,0.570129,-1.185862,-0.299321,-0.872670,0.508349,-0.179844,0.082494,-0.100789,-0.441707,0.738278,1.179388,-0.519154,-0.008983,-0.070916,0.013760,-0.057711,0.092205,-0.104044
-1.459430,0.219857,0.256593,0.048190,0.006496,-0.167415,0.129255,-0.027661,0.520000,1.788824,1.347095,0.564545,-1.180868,-0.309148,-0.872670,0.507272,-0.173276,0.083503,-0.106299,-0.444520,0.744368,1.178126,-0.521726,-0.008428,-0.073928,0.010914,-0.058413,0.095453,-0.103508
-1.473991,0.220215,0.257166,0.048789,0.010464,-0.163858,0.124017,-0.031717,0.520000,1.806866,1.349114,0.559101,-1.176375,-0.318054,-0.872670,0.507501,-0.167841,0.085924,-0.110934,-0.447066,0.750629,1.177373,-0.524186,-0.007635,-0.076278,0.008196,-0.058317,0.098356,-0.102904
-1.486009,0.220215,0.257166,0.048789,0.016429,-0.163858,0.120639,-0.031717,0.520000,1.819885,1.351409,0.559101,-1.176375,-0.319921,-0.872670,0.507501,-0.164055,0.090384,-0.110934,-0.451238,0.755293,1.177373,-0.526332,-0.007635,-0.078397,0.006328,-0.058317,0.100038,-0.101071
-1.497130,0.220025,0.255743,0.048441,0.022035,-0.163577,0.117978,-0.031294,0.520000,1.831433,1.353387,0.559114,-1.175187,-0.320054,-0.872670,0.508948,-0.161130,0.094337,-0.108480,-0.454644,0.760512,1.177434,-0.527763,-0.006319,-0.080723,0.004613,-0.057791,0.101611,-0.099264
-1.506457,0.220025,0.255743,0.046803,0.026921,-0.163577,0.117978,-0.030057,0.520000,1.840037,1.354731,0.559114,-1.175187,-0.316717,-0.872670,0.510916,-0.161130,0.097277,-0.103017,-0.454644,0.766845,1.179914,-0.527763,-0.006319,-0.083466,0.003202,-0.057791,0.102965,-0.097508
-1.512160,0.221354,0.254551,0.044552,0.028048,-0.165254,0.120706,-0.030802,0.520000,1.844399,1.354124,0.560410,-1.172183,-0.310382,-0.872670,0.513305,-0.160238,0.101438,-0.098575,-0.455267,0.772917,1.183212,-0.525958,-0.004752,-0.085454,0.002248,-0.057870,0.104292,-0.096923
-1.516052,0.222475,0.254553,0.041995,0.027545,-0.167570,0.125413,-0.032537,0.520000,1.846642,1.352543,0.560153,-1.168201,-0.302548,-0.872670,0.515904,-0.158814,0.106209,-0.094643,-0.455681,0.778860,1.187405,-0.523880,-0.003984,-0.087065,0.001764,-0.058201,0.105576,-0.095779
-1.514424,0.222475,0.254553,0.038749,0.021625,-0.167570,0.132189,-0.036573,0.520000,1.841130,1.350857,0.560153,-1.163311,-0.296490,-0.872670,0.518144,-0.158814,0.109517,-0.097141,-0.457224,0.782533,1.187405,-0.521321,-0.002675,-0.088455,0.001764,-0.058201,0.105576,-0.095779
-1.511494,0.221000,0.255718,0.035926,0.015198,-0.168665,0.139008,-0.040292,0.520000,1.833926,1.350166,0.558719,-1.159341,-0.290176,-0.872670,0.520289,-0.157400,0.111723,-0.101367,-0.458253,0.785904,1.187462,-0.518026,-0.001235,-0.089890,0.002089,-0.058157,0.106216,-0.094663
-1.505956,0.218047,0.257847,0.033947,0.007759,-0.168665,0.145913,-0.043377,0.520000,1.823339,1.350166,0.558719,-1.157208,-0.283350,-0.872670,0.522244,-0.155957,0.111723,-0.109051,-0.458253,0.788671,1.186177,-0.513259,-0.001235,-0.091414,0.002089,-0.058157,0.106216,-0.093439
-1.496886,0.216111,0.259641,0.032447,0.001507,-0.170267,0.152212,-0.044977,0.520000,1.809464,1.348702,0.557561,-1.158507,-0.275881,-0.872670,0.523979,-0.153508,0.110979,-0.116249,-0.458563,0.790610,1.185323,-0.507754,-0.000410,-0.092532,0.002181,-0.058018,0.106447,-0.093031
-1.486048,0.214683,0.261753,0.031186,-0.004152,-0.172837,0.158207,-0.045548,0.520000,1.793944,1.345858,0.557139,-1.161521,-0.268090,-0.872670,0.526342,-0.150556,0.110051,-0.123204,-0.458942,0.791625,1.184898,-0.501881,0.000565,-0.094083,0.001989,-0.058034,0.106697,-0.092754
-1.471505,0.216243,0.261753,0.031186,-0.007706,-0.172837,0.163686,-0.044072,0.520000,1.775927,1.338614,0.557139,-1.168501,-0.256259,-0.872670,0.526342,-0.147386,0.112708,-0.125013,-0.458942,0.789459,1.184898,-0.494677,0.000565,-0.094083,0.001989,-0.058034,0.106697,-0.092754
-1.455977,0.218483,0.262791,0.031507,-0.010883,-0.173769,0.168798,-0.041864,0.520000,1.756943,1.329741,0.556336,-1.175777,-0.242683,-0.872670,0.526654,-0.145788,0.115252,-0.125553,-0.458632,0.786483,1.185237,-0.485598,0.001813,-0.095887,0.001718,-0.058117,0.106475,-0.092566
-1.438478,0.222086,0.262791,0.031507,-0.013305,-0.173769,0.173179,-0.038194,0.520000,1.736025,1.317611,0.554811,-1.183644,-0.225615,-0.872670,0.526654,-0.145788,0.117566,-0.125553,-0.455473,0.781887,1.185237,-0.472770,0.001813,-0.098473,0.001718,-0.058117,0.106475,-0.092566
-1.420189,0.225193,0.262807,0.032369,-0.013883,-0.173086,0.175142,-0.034954,0.515050,1.713655,1.306971,0.554839,-1.186972,-0.209457,-0.872670,0.525149,-0.147423,0.117656,-0.125872,-0.452623,0.776267,1.188057,-0.455529,0.002846,-0.101541,0.001380,-0.059311,0.105385,-0.094037
-1.401506,0.228647,0.262271,0.032202,-0.013251,-0.172227,0.175645,-0.031147,0.507626,1.690557,1.297075,0.555376,-1.187678,-0.193752,-0.872670,0.523532,-0.149905,0.116974,-0.126856,-0.449929,0.770135,1.191296,-0.436081,0.003345,-0.104851,0.002643,-0.060886,0.104571,-0.096361
-1.381166,0.228647,0.260423,0.032202,-0.013251,-0.170884,0.173541,-0.031147,0.496687,1.664299,1.291680,0.556813,-1.179099,-0.178429,-0.872670,0.523532,-0.149905,0.112214,-0.131401,-0.452821,0.763491,1.193395,-0.411344,0.005905,-0.107248,0.002643,-0.063002,0.103241,-0.101592
-1.360348,0.228454,0.258151,0.030920,-0.011879,-0.169012,0.170770,-0.029992,0.485358,1.635979,1.285232,0.557056,-1.168384,-0.161814,-0.872670,0.524595,-0.151426,0.107519,-0.135375,-0.455901,0.756326,1.194795,-0.387386,0.009254,-0.109822,0.004245,-0.063868,0.101694,-0.107303
-1.338575,0.228454,0.255029,0.028895,-0.008974,-0.166083,0.166669,-0.029992,0.473251,1.603536,1.276680,0.557056,-1.153397,-0.142617,-0.872670,0.526174,-0.151426,0.102956,-0.138205,-0.459355,0.748120,1.194795,-0.364986,0.014182,-0.112748,0.006273,-0.063868,0.099714,-0.113971
-1.315725,0.226720,0.249721,0.027420,-0.003798,-0.163064,0.161358,-0.029619,0.461193,1.567485,1.267035,0.555095,-1.135540,-0.120020,-0.872670,0.527886,-0.153200,0.099008,-0.137698,-0.465087,0.739678,1.195536,-0.346545,0.019440,-0.116653,0.008087,-0.061254,0.098058,-0.119634
-1.292336,0.225300,0.243319,0.026220,0.002513,-0.159999,0.155442,-0.029619,0.449160,1.529631,1.256843,0.553226,-1.116249,-0.095723,-0.872670,0.529663,-0.154785,0.095368,-0.135520,-0.471958,0.731120,1.195536,-0.330084,0.024864,-0.121048,0.009795,-0.058150,0.096563,-0.124795
-1.266985,0.220449,0.235060,0.024675,0.011757,-0.156441,0.146697,-0.026998,0.436407,1.483730,1.247340,0.550440,-1.094617,-0.067709,-0.872670,0.529821,-0.157603,0.090858,-0.129409,-0.479934,0.722613,1.198766,-0.314831,0.031294,-0.123011,0.011224,-0.057362,0.096047,-0.127896
-1.240724,0.214445,0.227401,0.024148,0.021857,-0.152267,0.136979,-0.023783,0.423241,1.434822,1.237826,0.547975,-1.073216,-0.038254,-0.872670,0.528584,-0.161951,0.085663,-0.123364,-0.484690,0.714878,1.201217,-0.300467,0.038055,-0.124799,0.013029,-0.056024,0.095022,-0.130827
-1.212638,0.206136,0.220943,0.024148,0.033672,-0.146859,0.125315,-0.019463,0.409245,1.379898,1.228291,0.547975,-1.052274,-0.005916,-0.872670,0.524399,-0.169359,0.079097,-0.117454,-0.484690,0.708689,1.203601,-0.287880,0.045479,-0.126237,0.015586,-0.054374,0.093497,-0.133415
-1.179654,0.196623,0.215086,0.027055,0.046018,-0.141348,0.112590,-0.015457,0.396673,1.315774,1.219834,0.549908,-1.031355,0.031435,-0.872670,0.518332,-0.181012,0.069580,-0.113179,-0.481704,0.704279,1.203345,-0.277671,0.052307,-0.130986,0.018740,-0.049698,0.090741,-0.136156
-1.144219,0.186508,0.209530,0.030660,0.058632,-0.135785,0.099333,-0.011609,0.384813,1.247046,1.211915,0.553720,-1.010446,0.071296,-0.872670,0.511323,-0.194790,0.058587,-0.109097,-0.478070,0.700759,1.201769,-0.268650,0.058836,-0.137391,0.022192,-0.043508,0.087370,-0.138975
-1.097934,0.175623,0.206886,0.036942,0.069990,-0.132026,0.087876,-0.006788,0.375286,1.161285,1.200425,0.560878,-0.988819,0.098213,-0.872670,0.504633,-0.211194,0.038280,-0.109097,-0.473162,0.699394,1.193315,-0.254117,0.063140,-0.143090,0.024548,-0.039580,0.083078,-0.141233
-1.047710,0.164745,0.205677,0.044735,0.080221,-0.129218,0.079418,-0.001022,0.366366,1.069394,1.186972,0.567529,-0.967058,0.113237,-0.872670,0.497854,-0.227001,0.020186,-0.109361,-0.468066,0.699201,1.184572,-0.235394,0.066704,-0.147034,0.026529,-0.038046,0.078664,-0.144199
-0.989611,0.153881,0.207341,0.055550,0.088196,-0.129218,0.076955,0.006633,0.358662,0.965251,1.169598,0.573169,-0.945031,0.104472,-0.872670,0.490899,-0.241612,0.006517,-0.112026,-0.462593,0.699201,1.175255,-0.208295,0.068785,-0.147034,0.026529,-0.041297,0.074010,-0.148580
-0.929899,0.139698,0.209101,0.063555,0.092958,-0.131561,0.080635,0.017350,0.348853,0.852771,1.148017,0.571913,-0.921967,0.056869,-0.872670,0.482882,-0.253366,0.008363,-0.111297,-0.460768,0.700779,1.173298,-0.173085,0.067738,-0.146297,0.026939,-0.046776,0.067998,-0.153430
-0.869385,0.123856,0.210046,0.071078,0.096113,-0.135527,0.087385,0.029596,0.337994,0.736131,1.124334,0.567209,-0.898386,-0.010150,-0.872670,0.474334,-0.263690,0.017966,-0.108872,-0.460843,0.701641,1.175022,-0.133821,0.065127,-0.144973,0.027040,-0.053369,0.061309,-0.159232
-0.816188,0.109079,0.210046,0.071078,0.098787,-0.136716,0.097065,0.040977,0.323749,0.624030,1.092655,0.554044,-0.866849,-0.090546,-0.872670,0.464127,-0.274129,0.041679,-0.105046,-0.455625,0.697608,1.181574,-0.090490,0.060494,-0.144973,0.030118,-0.057853,0.052142,-0.159232
-0.766409,0.096836,0.207111,0.075135,0.099959,-0.136592,0.119873,0.047041,0.308568,0.523432,1.056771,0.539681,-0.831556,-0.152892,-0.872670,0.454068,-0.286626,0.051190,-0.102894,-0.448018,0.690731,1.188643,-0.048518,0.055784,-0.144613,0.033975,-0.061429,0.042741,-0.159208
-0.723466,0.089661,0.200893,0.084532,0.098127,-0.133845,0.168938,0.042471,0.291512,0.445832,1.012473,0.522921,-0.788749,-0.179145,-0.872670,0.444304,-0.303241,0.032295,-0.102894,-0.435631,0.678167,1.196749,-0.009263,0.050916,-0.142626,0.039389,-0.063187,0.032871,-0.156983
-0.694102,0.093541,0.190586,0.096559,0.098868,-0.126801,0.208109,0.025486,0.276919,0.427502,0.946470,0.503598,-0.741649,-0.195121,-0.847636,0.436945,-0.324300,0.023584,-0.107540,-0.424252,0.661087,1.204210,0.024496,0.043047,-0.135539,0.043300,-0.065423,0.025886,-0.156993
-0.671527,0.102948,0.178234,0.109900,0.100896,-0.117610,0.242335,0.002294,0.263557,0.438805,0.869612,0.482993,-0.692400,-0.205960,-0.810085,0.430789,-0.347583,0.019965,-0.113911,-0.413376,0.641748,1.211350,0.055508,0.033677,-0.125902,0.046443,-0.067897,0.020343,-0.157744
-0.661143,0.122122,0.163740,0.124025,0.110800,-0.106798,0.255453,-0.012564,0.255718,0.520173,0.787220,0.457135,-0.636603,-0.231250,-0.772303,0.427234,-0.371765,0.035439,-0.124106,-0.407747,0.614757,1.217675,0.085199,0.024786,-0.112160,0.046443,-0.069762,0.021960,-0.163933
-0.649269,0.140283,0.150179,0.136285,0.120584,-0.097212,0.263705,-0.023530,0.248806,0.606687,0.708908,0.430021,-0.579352,-0.257893,-0.733744,0.424020,-0.393975,0.051894,-0.136749,-0.403402,0.585660,1.223482,0.116640,0.016245,-0.099879,0.046426,-0.069724,0.024304,-0.170772
-0.634417,0.156415,0.138483,0.144816,0.130127,-0.090077,0.263705,-0.026710,0.243750,0.703489,0.638760,0.400398,-0.519194,-0.287244,-0.693633,0.421490,-0.412239,0.070308,-0.154287,-0.401625,0.552355,1.228247,0.151577,0.008405,-0.090520,0.046426,-0.065878,0.028102,-0.178910
-0.615085,0.165726,0.130096,0.149126,0.136986,-0.084506,0.256655,-0.024812,0.238912,0.795583,0.581015,0.369871,-0.461462,-0.313225,-0.656574,0.418959,-0.426490,0.085946,-0.166631,-0.401032,0.523910,1.232161,0.193833,0.000676,-0.081702,0.046247,-0.059684,0.031101,-0.188415
-0.593513,0.171626,0.123362,0.151325,0.142502,-0.079717,0.246819,-0.020375,0.234184,0.885322,0.529472,0.338893,-0.404944,-0.337520,-0.621043,0.416428,-0.438734,0.100195,-0.176379,-0.400575,0.497895,1.235649,0.239747,-0.006996,-0.073154,0.044832,-0.052315,0.033700,-0.198603
-0.569123,0.162803,0.120059,0.149471,0.143841,-0.074404,0.230825,-0.018907,0.225707,0.957395,0.496351,0.307677,-0.358092,-0.354941,-0.589888,0.411351,-0.444642,0.102586,-0.177893,-0.400575,0.483984,1.240140,0.299642,-0.012927,-0.060318,0.044832,-0.050735,0.036170,-0.208554
-0.541712,0.153682,0.117099,0.146887,0.145245,-0.068788,0.214202,-0.017069,0.217803,1.021075,0.464544,0.276851,-0.314217,-0.371619,-0.560775,0.405900,-0.449040,0.103140,-0.179513,-0.400907,0.473980,1.244563,0.360450,-0.017574,-0.048950,0.043579,-0.050157,0.039114,-0.216682
-0.508255,0.143963,0.117099,0.142846,0.146779,-0.062567,0.196319,-0.014490,0.211044,1.067971,0.435364,0.246804,-0.276294,-0.386812,-0.535743,0.399698,-0.450422,0.100022,-0.179513,-0.400907,0.471788,1.248848,0.423087,-0.019653,-0.040519,0.043579,-0.051583,0.043006,-0.221167
-0.468956,0.134830,0.117279,0.140596,0.150398,-0.056089,0.182704,-0.008702,0.206139,1.096154,0.409717,0.217934,-0.242096,-0.400918,-0.512227,0.393898,-0.450883,0.097610,-0.181436,-0.403797,0.477690,1.251399,0.483584,-0.021602,-0.034321,0.042709,-0.053017,0.046905,-0.223657
-0.426735,0.125991,0.117574,0.139692,0.155058,-0.049483,0.171221,-0.001307,0.202161,1.114980,0.385837,0.189650,-0.209759,-0.414481,-0.489468,0.388299,-0.451722,0.095908,-0.183763,-0.406852,0.487639,1.252224,0.543013,-0.023487,-0.029238,0.041131,-0.053976,0.050808,-0.224227
-0.381230,0.110604,0.117574,0.140986,0.157227,-0.043784,0.173538,0.006984,0.196611,1.099365,0.373408,0.164634,-0.181583,-0.429380,-0.473948,0.381280,-0.448406,0.095908,-0.183763,-0.411911,0.498551,1.252224,0.600227,-0.027499,-0.020868,0.041131,-0.058088,0.052344,-0.224227
-0.335086,0.095571,0.114645,0.142242,0.157923,-0.037779,0.178583,0.013041,0.190960,1.073281,0.361483,0.140739,-0.154528,-0.442831,-0.458847,0.373650,-0.443156,0.095765,-0.182885,-0.418337,0.507564,1.251351,0.656444,-0.031018,-0.014498,0.040144,-0.061503,0.053875,-0.222660
-0.287666,0.081247,0.107786,0.143420,0.157923,-0.031160,0.189085,0.014629,0.185109,1.026261,0.350565,0.119090,-0.129717,-0.453385,-0.444586,0.364799,-0.434035,0.094265,-0.179174,-0.427496,0.512779,1.251351,0.710666,-0.031018,-0.012127,0.040144,-0.063525,0.053875,-0.220730
-0.239032,0.074718,0.096923,0.142890,0.156436,-0.023889,0.199485,0.014134,0.180810,0.966002,0.332883,0.100171,-0.106359,-0.458854,-0.429160,0.355352,-0.421409,0.084967,-0.175007,-0.439227,0.515460,1.253026,0.763869,-0.031678,-0.008583,0.039164,-0.064227,0.055498,-0.221022
