Lukebird17/AI3618-SONIC/reference/reference/example/macarena_001__A545/joint_pos.csv
joint_0,joint_1,joint_2,joint_3,joint_4,joint_5,joint_6,joint_7,joint_8,joint_9,joint_10,joint_11,joint_12,joint_13,joint_14,joint_15,joint_16,joint_17,joint_18,joint_19,joint_20,joint_21,joint_22,joint_23,joint_24,joint_25,joint_26,joint_27,joint_28
-0.108203,-0.126274,-0.046146,0.179314,0.037014,-0.008402,0.338012,-0.177375,0.155710,0.351248,0.258687,0.092089,0.072474,-0.212750,-0.150954,0.245789,-0.280012,-0.030624,-0.054962,-0.464959,0.388759,1.292986,1.311503,0.021958,-0.163182,0.041018,0.063519,-0.005353,0.139563
-0.120565,-0.126274,-0.042224,0.187390,0.041450,-0.002172,0.331274,-0.180918,0.158011,0.374978,0.258687,0.077037,0.059365,-0.219074,-0.152869,0.245789,-0.277357,-0.033188,-0.057124,-0.464959,0.396016,1.292986,1.315446,0.019120,-0.181021,0.041018,0.063519,0.006060,0.135892
-0.134423,-0.124976,-0.037301,0.196225,0.046420,0.004641,0.323334,-0.184953,0.159946,0.401453,0.258863,0.063135,0.046769,-0.226335,-0.154833,0.248073,-0.276332,-0.036117,-0.059600,-0.461143,0.403162,1.286788,1.315351,0.017739,-0.196041,0.039578,0.062571,0.016514,0.132847
-0.151271,-0.124976,-0.030374,0.206577,0.052461,0.012620,0.312993,-0.189973,0.161149,0.433416,0.258863,0.051536,0.035203,-0.235470,-0.156897,0.253708,-0.276332,-0.039777,-0.062702,-0.451783,0.410086,1.270998,1.307183,0.017739,-0.205425,0.038119,0.062571,0.025048,0.131055
-0.166790,-0.122579,-0.023296,0.216047,0.058100,0.019702,0.302683,-0.195452,0.163121,0.463424,0.258464,0.040265,0.022478,-0.242988,-0.158972,0.259177,-0.278462,-0.043169,-0.065962,-0.439489,0.416395,1.252112,1.294136,0.020217,-0.211233,0.036310,0.059807,0.034698,0.128124
-0.181644,-0.120438,-0.016142,0.225076,0.063539,0.026336,0.292390,-0.201160,0.165476,0.492454,0.258214,0.029158,0.009174,-0.249696,-0.161053,0.264563,-0.280539,-0.046427,-0.069302,-0.425728,0.422397,1.231676,1.278649,0.023166,-0.215724,0.034326,0.056831,0.044907,0.124623
-0.191009,-0.115945,-0.011076,0.230193,0.066585,0.030104,0.283739,-0.206572,0.167213,0.512731,0.256197,0.019824,-0.003363,-0.253027,-0.162805,0.268520,-0.283289,-0.048667,-0.071438,-0.412617,0.422397,1.209590,1.255640,0.026548,-0.215724,0.031297,0.052443,0.057936,0.117904
-0.199239,-0.111041,-0.006936,0.234401,0.069231,0.033114,0.274894,-0.212027,0.169289,0.530863,0.253799,0.011086,-0.015924,-0.255760,-0.164772,0.272289,-0.285990,-0.050970,-0.073358,-0.400264,0.421004,1.187354,1.231343,0.030133,-0.216674,0.027855,0.047773,0.071297,0.110385
-0.205203,-0.105314,-0.004650,0.236790,0.071078,0.034604,0.265662,-0.217569,0.169289,0.544705,0.250639,0.003540,-0.028532,-0.257295,-0.164772,0.275680,-0.288596,-0.053396,-0.074847,-0.389429,0.417120,1.164821,1.204468,0.034123,-0.218112,0.023585,0.042539,0.085324,0.101268
-0.208820,-0.099467,-0.003888,0.237433,0.072014,0.035039,0.257327,-0.222888,0.170207,0.553895,0.247191,-0.003044,-0.041679,-0.258668,-0.166132,0.278315,-0.290524,-0.055685,-0.075343,-0.380919,0.411735,1.143611,1.178024,0.039358,-0.217608,0.018609,0.036315,0.098914,0.091124
-0.210733,-0.093560,-0.003932,0.237280,0.072075,0.034170,0.249441,-0.228095,0.170287,0.560761,0.243599,-0.009147,-0.055096,-0.259819,-0.167095,0.280573,-0.292390,-0.058872,-0.075398,-0.373571,0.405600,1.123062,1.151795,0.045216,-0.216133,0.013281,0.029597,0.112285,0.080466
-0.210733,-0.086660,-0.006603,0.235731,0.072075,0.034170,0.242652,-0.233971,0.170287,0.561951,0.239226,-0.014749,-0.068759,-0.259819,-0.167095,0.282243,-0.292390,-0.058872,-0.075398,-0.369624,0.397828,1.105999,1.126491,0.052697,-0.209160,0.008411,0.022316,0.122604,0.069942
-0.209424,-0.080526,-0.009375,0.233698,0.071308,0.032866,0.236938,-0.239324,0.169482,0.561238,0.234989,-0.020312,-0.082043,-0.259955,-0.167497,0.283357,-0.292665,-0.059568,-0.074115,-0.366300,0.389744,1.090666,1.101579,0.060392,-0.201155,0.004246,0.015322,0.131151,0.060090
-0.207093,-0.075922,-0.012351,0.230696,0.069785,0.031381,0.233373,-0.243632,0.167318,0.556720,0.231023,-0.025794,-0.094570,-0.259955,-0.167497,0.283357,-0.292665,-0.059568,-0.074115,-0.364225,0.381034,1.078792,1.077454,0.068515,-0.191086,0.001490,0.008900,0.136155,0.051580
-0.203038,-0.072227,-0.014550,0.227031,0.067450,0.029572,0.232363,-0.246811,0.164916,0.549038,0.227954,-0.031263,-0.106367,-0.259078,-0.167308,0.282639,-0.291277,-0.058439,-0.071992,-0.363533,0.373105,1.070511,1.055500,0.075768,-0.182368,-0.000369,0.003413,0.138232,0.044815
-0.198120,-0.068986,-0.016361,0.223036,0.064711,0.027601,0.232363,-0.249427,0.162395,0.539776,0.225332,-0.036726,-0.117800,-0.259078,-0.167308,0.282639,-0.291277,-0.057150,-0.069850,-0.363533,0.365566,1.064025,1.034631,0.082586,-0.174325,-0.000369,-0.001607,0.138232,0.038922
-0.191849,-0.067787,-0.017705,0.217794,0.060978,0.025367,0.234069,-0.251855,0.158468,0.525320,0.223800,-0.041599,-0.126833,-0.256979,-0.167604,0.279484,-0.288736,-0.055050,-0.067890,-0.364578,0.360097,1.063253,1.016232,0.087993,-0.169201,-0.001843,-0.005588,0.137814,0.033748
-0.184400,-0.066155,-0.018500,0.211983,0.056849,0.023031,0.235933,-0.253961,0.154879,0.509147,0.223311,-0.046125,-0.135242,-0.255462,-0.167982,0.276933,-0.287090,-0.052719,-0.065646,-0.366072,0.355816,1.063449,0.999428,0.093066,-0.164319,-0.002376,-0.009547,0.135998,0.028654
-0.174591,-0.066155,-0.018500,0.205031,0.051925,0.020493,0.238467,-0.255423,0.151964,0.489538,0.223311,-0.049957,-0.142404,-0.253659,-0.167982,0.273761,-0.285466,-0.049923,-0.062833,-0.367911,0.353910,1.066356,0.985811,0.097471,-0.159924,-0.002376,-0.013461,0.135998,0.023720
-0.163914,-0.064204,-0.017839,0.196848,0.046093,0.017533,0.240296,-0.256875,0.149431,0.469021,0.224757,-0.052626,-0.148181,-0.250604,-0.169206,0.270204,-0.283860,-0.046746,-0.059856,-0.369412,0.354645,1.071758,0.975514,0.099962,-0.155697,-0.002568,-0.016989,0.134026,0.019731
-0.152802,-0.062527,-0.017278,0.188050,0.039805,0.014361,0.241969,-0.259048,0.147089,0.448050,0.225672,-0.055419,-0.153266,-0.246923,-0.170152,0.266454,-0.282263,-0.043378,-0.056798,-0.370744,0.356701,1.078406,0.966877,0.101495,-0.151554,-0.002529,-0.020324,0.132552,0.016213
-0.142473,-0.060594,-0.015855,0.178910,0.032931,0.010502,0.241969,-0.259048,0.145853,0.430352,0.228463,-0.055419,-0.155850,-0.242237,-0.171993,0.263077,-0.280960,-0.040114,-0.053622,-0.373557,0.362836,1.088954,0.962821,0.099170,-0.148452,-0.002529,-0.022562,0.130700,0.014861
-0.133272,-0.059954,-0.014047,0.169801,0.025787,0.006454,0.242406,-0.259772,0.144489,0.414284,0.232329,-0.055931,-0.157964,-0.237614,-0.174216,0.259846,-0.279444,-0.036914,-0.050272,-0.376770,0.369793,1.100646,0.961105,0.095860,-0.145849,-0.002809,-0.024821,0.128745,0.014470
-0.126329,-0.059954,-0.011467,0.160754,0.018101,0.002027,0.242406,-0.259772,0.142868,0.401476,0.238346,-0.055931,-0.157964,-0.233117,-0.177204,0.256910,-0.277503,-0.033842,-0.046572,-0.380780,0.378394,1.114626,0.961105,0.090581,-0.144244,-0.002809,-0.024821,0.126584,0.014470
-0.120921,-0.061692,-0.008764,0.152620,0.010586,-0.001450,0.242567,-0.259490,0.141898,0.392410,0.246192,-0.054881,-0.157225,-0.229996,-0.181187,0.254098,-0.275050,-0.030922,-0.043086,-0.385497,0.387093,1.130236,0.966970,0.083838,-0.144034,-0.002208,-0.025313,0.123558,0.016593
-0.116281,-0.063327,-0.005998,0.144943,0.003156,-0.004454,0.242489,-0.259192,0.141468,0.385214,0.254953,-0.053597,-0.155529,-0.226781,-0.185668,0.251349,-0.272342,-0.028078,-0.039706,-0.390569,0.395841,1.146661,0.974285,0.076363,-0.144359,-0.001096,-0.024125,0.120100,0.019015
-0.112424,-0.064744,-0.003541,0.138839,-0.003555,-0.006518,0.242489,-0.259192,0.143456,0.382321,0.265848,-0.051546,-0.153311,-0.226781,-0.190641,0.249753,-0.270134,-0.025012,-0.036543,-0.398663,0.407698,1.163953,0.985904,0.067608,-0.147190,-0.001096,-0.024125,0.114978,0.023362
-0.108487,-0.066542,-0.001174,0.132847,-0.010389,-0.008521,0.242172,-0.258522,0.145989,0.379914,0.277888,-0.049327,-0.151019,-0.226000,-0.196049,0.247764,-0.267806,-0.021862,-0.033339,-0.407180,0.419416,1.181551,0.998861,0.058065,-0.150908,0.000446,-0.022632,0.109611,0.028680
-0.104386,-0.069101,0.001016,0.127079,-0.017468,-0.010403,0.242172,-0.258522,0.149614,0.378480,0.292217,-0.046773,-0.148577,-0.226000,-0.202327,0.247764,-0.265235,-0.018544,-0.030052,-0.416542,0.430858,1.199762,1.014492,0.046947,-0.156401,0.000446,-0.020894,0.103753,0.035938
-0.099209,-0.071929,0.003503,0.120804,-0.025249,-0.012620,0.243503,-0.256836,0.154663,0.376462,0.308229,-0.043587,-0.146083,-0.225366,-0.209162,0.246838,-0.262869,-0.014978,-0.026665,-0.426267,0.442180,1.216792,1.031820,0.035252,-0.163845,0.002512,-0.018660,0.097391,0.045159
-0.093494,-0.074891,0.006137,0.114277,-0.033380,-0.015004,0.244916,-0.255358,0.160422,0.374152,0.325082,-0.040084,-0.143562,-0.225366,-0.216275,0.246838,-0.260606,-0.011287,-0.023226,-0.436173,0.453443,1.233232,1.049999,0.023270,-0.172264,0.004345,-0.016178,0.090777,0.055361
-0.085600,-0.077216,0.009182,0.106835,-0.042146,-0.018048,0.247392,-0.252864,0.166596,0.369593,0.341937,-0.034491,-0.139320,-0.224599,-0.224117,0.247005,-0.258207,-0.007772,-0.019483,-0.443622,0.461932,1.247446,1.069646,0.015826,-0.180719,0.006618,-0.013115,0.085631,0.062787
-0.077356,-0.079682,0.012016,0.098816,-0.051287,-0.021539,0.249927,-0.250004,0.172645,0.364181,0.359078,-0.028457,-0.134906,-0.223069,-0.233843,0.247833,-0.255644,-0.004213,-0.015431,-0.450662,0.470142,1.260955,1.089742,0.008665,-0.188612,0.008808,-0.009805,0.080667,0.069499
-0.068415,-0.082430,0.014429,0.089644,-0.061180,-0.025924,0.252579,-0.246411,0.178447,0.357060,0.376790,-0.021541,-0.130151,-0.223069,-0.247337,0.247833,-0.252752,-0.000567,-0.010760,-0.456881,0.477796,1.273055,1.110737,0.002069,-0.195381,0.010834,-0.005999,0.076069,0.074779
-0.059926,-0.086706,0.016332,0.080079,-0.071203,-0.030902,0.255776,-0.242107,0.182787,0.348275,0.394575,-0.013513,-0.124276,-0.220981,-0.260621,0.249268,-0.249640,0.002931,-0.006593,-0.461729,0.483398,1.282953,1.130782,-0.004313,-0.200620,0.012687,-0.001882,0.071470,0.078930
-0.051664,-0.091745,0.017980,0.070318,-0.081290,-0.036176,0.259244,-0.237447,0.186395,0.338659,0.412398,-0.004929,-0.117843,-0.219263,-0.273800,0.250611,-0.246419,0.006355,-0.002677,-0.465893,0.487974,1.291750,1.150351,-0.010589,-0.205094,0.014454,0.002390,0.066871,0.082516
-0.042838,-0.095116,0.017980,0.060627,-0.090873,-0.041548,0.261788,-0.234471,0.189570,0.326644,0.426445,0.004166,-0.109964,-0.215716,-0.283329,0.252677,-0.244093,0.009452,0.000150,-0.469465,0.491201,1.297964,1.166016,-0.015669,-0.208158,0.015788,0.006462,0.062265,0.084729
-0.034459,-0.098019,0.017223,0.051577,-0.099513,-0.046349,0.264031,-0.232061,0.192058,0.313765,0.437906,0.013059,-0.101688,-0.211548,-0.290996,0.254703,-0.242030,0.012294,0.002745,-0.472959,0.493870,1.303856,1.180596,-0.020799,-0.210675,0.017214,0.010388,0.057857,0.086825
-0.026975,-0.099985,0.017223,0.043807,-0.106267,-0.050008,0.265673,-0.230783,0.192058,0.299159,0.444197,0.021546,-0.092618,-0.206140,-0.294942,0.256650,-0.240493,0.014627,0.004875,-0.476298,0.495422,1.309101,1.193010,-0.026027,-0.212096,0.017214,0.014024,0.053846,0.088687
-0.020884,-0.101002,0.014607,0.037779,-0.110808,-0.052168,0.266221,-0.231337,0.190527,0.283412,0.444906,0.028977,-0.082607,-0.199926,-0.295251,0.258107,-0.239431,0.016488,0.007501,-0.478193,0.495940,1.314319,1.202491,-0.031024,-0.213413,0.018255,0.016988,0.050415,0.090347
-0.015490,-0.101363,0.012196,0.032622,-0.114514,-0.052689,0.266446,-0.232318,0.187672,0.267094,0.442825,0.035881,-0.072127,-0.193310,-0.293743,0.258915,-0.239180,0.018806,0.010374,-0.479468,0.495962,1.319524,1.210507,-0.035906,-0.215069,0.019769,0.019616,0.047274,0.091906
-0.012245,-0.101363,0.008648,0.030280,-0.114514,-0.052689,0.266446,-0.235103,0.182290,0.250692,0.434971,0.040615,-0.061435,-0.186437,-0.288446,0.258915,-0.239180,0.018806,0.012177,-0.479468,0.494034,1.324960,1.215378,-0.040922,-0.215069,0.019769,0.021674,0.044189,0.093681
-0.009393,-0.100943,0.005548,0.027910,-0.113911,-0.051177,0.266639,-0.237822,0.176512,0.234884,0.426453,0.044713,-0.051037,-0.179909,-0.282893,0.258085,-0.239881,0.019499,0.013978,-0.479430,0.491923,1.330111,1.219548,-0.045708,-0.216779,0.021349,0.023594,0.041203,0.095634
-0.007327,-0.100943,0.003345,0.027910,-0.113911,-0.049310,0.266639,-0.240408,0.169945,0.220263,0.416608,0.047539,-0.041229,-0.174069,-0.276828,0.256613,-0.241093,0.019499,0.015777,-0.477835,0.489444,1.334690,1.222319,-0.050031,-0.216779,0.023058,0.025238,0.038416,0.097942
-0.005186,-0.099883,0.001799,0.027101,-0.111732,-0.047885,0.268035,-0.241747,0.164318,0.208079,0.407543,0.049275,-0.032864,-0.169788,-0.270805,0.254863,-0.242684,0.019375,0.016976,-0.475609,0.487517,1.337790,1.223242,-0.053989,-0.217675,0.024657,0.026577,0.036164,0.100559
-0.003007,-0.099426,0.000329,0.027958,-0.109774,-0.045886,0.269641,-0.241483,0.159162,0.197114,0.398869,0.049119,-0.025220,-0.165731,-0.264802,0.252974,-0.244464,0.019163,0.018039,-0.473066,0.485866,1.339739,1.222932,-0.057765,-0.218025,0.027021,0.027785,0.033453,0.103329
-0.001471,-0.098106,0.000329,0.027958,-0.107384,-0.045886,0.271087,-0.241483,0.156193,0.192325,0.392058,0.049119,-0.020795,-0.165731,-0.259980,0.251252,-0.246659,0.019163,0.018039,-0.471701,0.484555,1.339739,1.221328,-0.060358,-0.216532,0.027021,0.027785,0.033453,0.106018
0.000167,-0.096441,0.000076,0.029236,-0.105062,-0.044772,0.272491,-0.240060,0.153786,0.189951,0.386085,0.047178,-0.017092,-0.165940,-0.255668,0.249688,-0.248695,0.019440,0.018502,-0.470302,0.483078,1.338152,1.219757,-0.062541,-0.215069,0.027841,0.028393,0.032727,0.108221
0.000167,-0.094085,0.000076,0.030759,-0.102876,-0.044772,0.273813,-0.238016,0.153786,0.192410,0.381790,0.044201,-0.017092,-0.168236,-0.252377,0.248440,-0.250416,0.019440,0.018502,-0.470302,0.481267,1.334630,1.218251,-0.062541,-0.213668,0.027841,0.028393,0.032727,0.109452
0.000780,-0.091531,-0.000819,0.032592,-0.100982,-0.044716,0.275193,-0.235255,0.154072,0.198783,0.379814,0.040371,-0.017877,-0.172314,-0.250105,0.247233,-0.251203,0.020705,0.018048,-0.468957,0.477583,1.329905,1.217750,-0.062611,-0.213076,0.027199,0.028585,0.033114,0.109495
0.000561,-0.088878,-0.001869,0.034579,-0.099235,-0.045246,0.276604,-0.232136,0.154786,0.207113,0.379270,0.036114,-0.020183,-0.177281,-0.248343,0.245651,-0.251416,0.021344,0.016880,-0.467672,0.472962,1.324579,1.216142,-0.062228,-0.212952,0.025912,0.028509,0.033472,0.109127
0.000561,-0.086706,-0.001869,0.037405,-0.097716,-0.045246,0.278866,-0.228407,0.156147,0.220432,0.381735,0.030644,-0.024550,-0.184126,-0.248343,0.245651,-0.251416,0.021344,0.016880,-0.465802,0.469228,1.317408,1.216142,-0.060026,-0.212952,0.025912,0.028509,0.035057,0.107588
-0.000945,-0.084402,-0.002171,0.040530,-0.096203,-0.045512,0.281232,-0.224628,0.157529,0.235179,0.385147,0.024909,-0.029270,-0.191665,-0.248420,0.244226,-0.251073,0.022262,0.015703,-0.463397,0.465589,1.309600,1.213868,-0.057383,-0.212841,0.024706,0.028154,0.037204,0.105906
-0.003413,-0.084402,-0.002171,0.044250,-0.094703,-0.045512,0.283804,-0.220750,0.158951,0.252779,0.390452,0.018640,-0.034696,-0.200593,-0.249769,0.244226,-0.251073,0.022262,0.015703,-0.459920,0.462140,1.300521,1.210057,-0.053855,-0.211497,0.024706,0.028154,0.040473,0.103937
-0.005744,-0.082347,-0.002463,0.048445,-0.093076,-0.045180,0.285865,-0.217040,0.161423,0.272138,0.396980,0.011694,-0.040232,-0.210162,-0.251914,0.243592,-0.251105,0.022520,0.014589,-0.457718,0.459916,1.290648,1.203853,-0.049899,-0.209647,0.023412,0.027364,0.044442,0.101826
-0.008005,-0.080548,-0.002884,0.052877,-0.091385,-0.044032,0.288532,-0.213413,0.164418,0.292376,0.404121,0.004410,-0.045824,-0.220053,-0.254458,0.243322,-0.251907,0.022540,0.013593,-0.455361,0.457294,1.280379,1.196454,-0.045729,-0.207545,0.022692,0.026784,0.048760,0.099643
-0.009878,-0.077885,-0.002884,0.057707,-0.089487,-0.044032,0.288532,-0.210535,0.168143,0.313059,0.411444,-0.003881,-0.050570,-0.229732,-0.257452,0.243322,-0.251907,0.022540,0.013593,-0.455361,0.457294,1.270159,1.185758,-0.041631,-0.206102,0.021354,0.025099,0.053782,0.097204
-0.011714,-0.075022,-0.003180,0.062652,-0.087383,-0.042680,0.290083,-0.207757,0.172046,0.333438,0.418195,-0.012436,-0.055031,-0.239194,-0.260450,0.243257,-0.252927,0.021595,0.012673,-0.454159,0.456283,1.259762,1.174223,-0.037063,-0.204608,0.020062,0.023237,0.058912,0.094675
-0.013476,-0.071757,-0.003180,0.067828,-0.084864,-0.041021,0.290083,-0.205179,0.176309,0.353206,0.423803,-0.021520,-0.058921,-0.248223,-0.263457,0.243257,-0.254172,0.021595,0.012673,-0.452928,0.456283,1.249014,1.161013,-0.031556,-0.203014,0.018862,0.021022,0.064257,0.091969
-0.014449,-0.067853,-0.002428,0.073257,-0.081916,-0.039206,0.291462,-0.202942,0.180789,0.371333,0.428449,-0.030257,-0.061998,-0.256581,-0.266032,0.243413,-0.255223,0.020205,0.011238,-0.451614,0.456718,1.238129,1.147627,-0.025650,-0.201117,0.017702,0.018483,0.069646,0.088940
-0.014834,-0.063630,-0.001049,0.078813,-0.078753,-0.037312,0.293089,-0.200876,0.185379,0.388640,0.432614,-0.038819,-0.064669,-0.264604,-0.269384,0.243561,-0.255859,0.019416,0.009895,-0.450260,0.457607,1.227177,1.134154,-0.019546,-0.199068,0.016054,0.015783,0.075057,0.085750
-0.014834,-0.059852,-0.001049,0.084032,-0.075650,-0.035398,0.293089,-0.199318,0.189581,0.402133,0.435484,-0.046815,-0.066680,-0.270816,-0.269384,0.243561,-0.255859,0.018195,0.009895,-0.448754,0.457607,1.216982,1.121993,-0.013427,-0.197529,0.016054,0.012532,0.080744,0.082752
-0.014103,-0.056163,0.000690,0.088991,-0.072607,-0.033592,0.294453,-0.197475,0.193650,0.414125,0.437834,-0.054637,-0.068672,-0.276322,-0.270657,0.243534,-0.256817,0.016634,0.009108,-0.446836,0.459674,1.207047,1.110593,-0.007279,-0.195688,0.014153,0.009409,0.086298,0.079843
-0.014103,-0.052654,0.002944,0.093428,-0.069685,-0.032005,0.295730,-0.197475,0.197453,0.423112,0.437834,-0.062112,-0.070625,-0.280415,-0.270657,0.243534,-0.256817,0.016634,0.009108,-0.446836,0.463850,1.197632,1.100716,-0.001073,-0.195688,0.014153,0.006545,0.091588,0.077112
-0.012804,-0.050088,0.005257,0.096780,-0.067187,-0.030679,0.296972,-0.195947,0.200330,0.428453,0.437338,-0.068499,-0.072863,-0.282917,-0.270273,0.243366,-0.257206,0.015331,0.008234,-0.445565,0.468548,1.188838,1.093618,0.004326,-0.193984,0.012267,0.004254,0.096074,0.075021
-0.012060,-0.047994,0.007601,0.100481,-0.064902,-0.029875,0.298198,-0.194525,0.202745,0.431970,0.436405,-0.074343,-0.075244,-0.283895,-0.269607,0.242444,-0.257263,0.014249,0.007760,-0.445208,0.473506,1.180356,1.087910,0.009324,-0.192144,0.010956,0.002250,0.100158,0.073250
-0.012060,-0.047994,0.009673,0.100481,-0.063526,-0.029875,0.299608,-0.194525,0.202745,0.430497,0.433952,-0.078436,-0.077787,-0.283895,-0.267780,0.242444,-0.255853,0.014249,0.007760,-0.443843,0.476765,1.175314,1.087910,0.013579,-0.192144,0.009714,0.000906,0.103489,0.073250
-0.011723,-0.048829,0.011663,0.100953,-0.062199,-0.030313,0.301018,-0.193337,0.202186,0.427645,0.431034,-0.082039,-0.080383,-0.282127,-0.265645,0.240773,-0.254142,0.013723,0.007005,-0.442252,0.479679,1.171104,1.088618,0.017642,-0.192306,0.008068,-0.000591,0.106568,0.073642
-0.011723,-0.050537,0.013488,0.100953,-0.062199,-0.030313,0.302427,-0.193337,0.200842,0.422034,0.427187,-0.084662,-0.083082,-0.279009,-0.262895,0.240773,-0.251829,0.013723,0.007005,-0.442252,0.481902,1.168558,1.092386,0.021319,-0.192306,0.008068,-0.000591,0.109144,0.073642
-0.012136,-0.052826,0.015022,0.099441,-0.061790,-0.031555,0.303934,-0.192248,0.199141,0.413976,0.422676,-0.086406,-0.085064,-0.274679,-0.259395,0.238866,-0.249440,0.014058,0.006273,-0.440825,0.483408,1.167709,1.096955,0.024134,-0.193726,0.006831,-0.001193,0.110861,0.074670
-0.012311,-0.055406,0.016574,0.097801,-0.062073,-0.032352,0.306237,-0.191648,0.197261,0.404694,0.417834,-0.087076,-0.087385,-0.269744,-0.255521,0.237537,-0.247013,0.015197,0.005868,-0.439836,0.483755,1.168105,1.101924,0.026518,-0.195053,0.006411,-0.000196,0.112157,0.075485
-0.012311,-0.057803,0.016574,0.095332,-0.062073,-0.033617,0.306237,-0.191648,0.195498,0.393158,0.411647,-0.087076,-0.087385,-0.263502,-0.251068,0.236207,-0.244705,0.015197,0.005868,-0.439836,0.483755,1.171125,1.107834,0.026518,-0.195053,0.006411,-0.000196,0.112157,0.075485
-0.013068,-0.060353,0.016145,0.092762,-0.062958,-0.035380,0.306985,-0.192773,0.193549,0.381267,0.405071,-0.086478,-0.088760,-0.257035,-0.246469,0.234901,-0.242415,0.016709,0.006274,-0.440066,0.483337,1.175187,1.114369,0.025976,-0.195279,0.006162,0.000988,0.111293,0.076020
-0.013068,-0.063207,0.016145,0.089988,-0.062958,-0.035380,0.306985,-0.192773,0.191231,0.368662,0.397716,-0.085281,-0.088760,-0.250119,-0.241579,0.233640,-0.240162,0.016709,0.006274,-0.441484,0.483337,1.181331,1.122157,0.024008,-0.195279,0.006162,0.002178,0.111293,0.076020
-0.013841,-0.065470,0.014741,0.087162,-0.063957,-0.037025,0.307518,-0.194495,0.189424,0.355514,0.389912,-0.083775,-0.089782,-0.243099,-0.236495,0.232231,-0.238454,0.018416,0.006410,-0.444051,0.484121,1.189744,1.129845,0.021964,-0.194234,0.006423,0.003478,0.109091,0.076432
-0.013815,-0.067438,0.013931,0.084311,-0.064774,-0.038184,0.308094,-0.195805,0.187872,0.342092,0.381883,-0.082114,-0.089677,-0.236025,-0.231314,0.230280,-0.236431,0.020103,0.006793,-0.447191,0.485826,1.199293,1.137483,0.019883,-0.193237,0.007119,0.005323,0.107092,0.077341
-0.013815,-0.069274,0.012526,0.081589,-0.064774,-0.038184,0.308094,-0.197407,0.185716,0.328024,0.373240,-0.079266,-0.089677,-0.228759,-0.226030,0.230280,-0.236431,0.020103,0.006793,-0.451178,0.485826,1.210467,1.144196,0.016291,-0.193237,0.007119,0.005323,0.104358,0.077341
-0.013116,-0.071086,0.011590,0.078902,-0.065104,-0.039030,0.309231,-0.199163,0.183608,0.313876,0.364645,-0.076081,-0.088396,-0.221463,-0.220685,0.228348,-0.236059,0.021533,0.006939,-0.455194,0.487845,1.221989,1.150549,0.011992,-0.192936,0.008241,0.006708,0.101472,0.078879
-0.013116,-0.072849,0.011590,0.076282,-0.065104,-0.039030,0.310605,-0.199163,0.181596,0.299566,0.356146,-0.072227,-0.088396,-0.214110,-0.215219,0.228348,-0.236059,0.021533,0.006939,-0.459269,0.491022,1.234206,1.156183,0.006281,-0.192936,0.008241,0.008035,0.098279,0.078879
-0.010899,-0.073437,0.012066,0.073897,-0.065575,-0.039441,0.312121,-0.200388,0.179899,0.285331,0.347482,-0.067780,-0.086558,-0.206854,-0.209832,0.226504,-0.236567,0.022569,0.007463,-0.462414,0.493789,1.247022,1.161500,0.000232,-0.193403,0.009727,0.009420,0.094647,0.080564
-0.008559,-0.073802,0.012434,0.071629,-0.065036,-0.040246,0.313708,-0.201409,0.177787,0.271132,0.338735,-0.063037,-0.085052,-0.199647,-0.204484,0.224461,-0.237242,0.023197,0.008046,-0.465094,0.496352,1.260139,1.166658,-0.005986,-0.194321,0.011553,0.010835,0.090794,0.081405
-0.004664,-0.072445,0.012434,0.069618,-0.065036,-0.040246,0.315518,-0.201409,0.177787,0.257056,0.329776,-0.056946,-0.083156,-0.192856,-0.199646,0.224461,-0.237242,0.023197,0.008046,-0.468325,0.498016,1.271409,1.170284,-0.012737,-0.194321,0.011553,0.012192,0.086504,0.082592
-0.000576,-0.070883,0.013097,0.067635,-0.064293,-0.040777,0.317295,-0.202363,0.176284,0.243110,0.320877,-0.050343,-0.080906,-0.186207,-0.194906,0.223381,-0.238160,0.023399,0.008884,-0.471061,0.500113,1.281854,1.173362,-0.019366,-0.194612,0.013031,0.014058,0.082278,0.084365
0.003902,-0.068915,0.013097,0.065711,-0.064293,-0.040777,0.319009,-0.202363,0.176284,0.229420,0.312094,-0.042716,-0.077948,-0.179841,-0.190360,0.223381,-0.238160,0.023399,0.008884,-0.472807,0.500113,1.290648,1.175347,-0.025749,-0.194612,0.014497,0.014058,0.078181,0.084365
0.008548,-0.066591,0.014011,0.064182,-0.063063,-0.041002,0.320730,-0.203222,0.174448,0.216388,0.303507,-0.034449,-0.075017,-0.174009,-0.186328,0.223029,-0.238697,0.023395,0.009768,-0.474299,0.501099,1.298131,1.177469,-0.031433,-0.194580,0.015940,0.015688,0.073932,0.086031
0.013278,-0.064089,0.014772,0.062851,-0.061532,-0.041350,0.322454,-0.203798,0.172152,0.203685,0.295018,-0.025863,-0.072099,-0.168442,-0.182553,0.222758,-0.239206,0.022886,0.010722,-0.475545,0.501378,1.304958,1.179658,-0.036766,-0.194022,0.018144,0.016356,0.069608,0.086715
0.017771,-0.061932,0.014772,0.061628,-0.061532,-0.041350,0.323694,-0.203798,0.172152,0.192501,0.288423,-0.017270,-0.069682,-0.163673,-0.179636,0.222758,-0.239206,0.022886,0.010722,-0.475545,0.501378,1.309878,1.181190,-0.041326,-0.194022,0.018144,0.016356,0.065791,0.086715
0.022500,-0.059626,0.015265,0.060024,-0.060160,-0.041802,0.325435,-0.203987,0.170719,0.181847,0.282598,-0.008711,-0.067033,-0.159196,-0.177109,0.223207,-0.238590,0.022480,0.011638,-0.475063,0.501115,1.314249,1.181691,-0.045677,-0.193991,0.019428,0.017426,0.062030,0.087086
0.027703,-0.057022,0.015265,0.060024,-0.060160,-0.041802,0.325435,-0.203987,0.170719,0.172251,0.278316,-0.000220,-0.063923,-0.155303,-0.175359,0.223207,-0.238590,0.022480,0.011638,-0.475063,0.499334,1.317521,1.181691,-0.049611,-0.193991,0.019428,0.017426,0.058382,0.087086
0.032634,-0.055009,0.015390,0.058296,-0.059312,-0.042466,0.327032,-0.203939,0.169924,0.163696,0.275743,0.007525,-0.061239,-0.151937,-0.174140,0.223397,-0.237525,0.022102,0.012014,-0.473437,0.497024,1.320169,1.180839,-0.052446,-0.194453,0.020516,0.017875,0.055111,0.086451
0.037431,-0.053291,0.015390,0.058296,-0.059312,-0.042466,0.327032,-0.203939,0.169924,0.155663,0.274025,0.014898,-0.058767,-0.148836,-0.174140,0.223397,-0.237525,0.022102,0.012014,-0.473437,0.494449,1.322503,1.180839,-0.054731,-0.194453,0.020516,0.017875,0.052029,0.086451
0.040649,-0.052504,0.015054,0.056638,-0.059330,-0.043502,0.328079,-0.203189,0.169874,0.151615,0.274474,0.020095,-0.057002,-0.147314,-0.173698,0.223793,-0.236032,0.021585,0.012303,-0.471853,0.492803,1.324442,1.179215,-0.056503,-0.194310,0.021515,0.018367,0.049989,0.086083
0.043387,-0.051209,0.014600,0.055547,-0.059837,-0.044617,0.328441,-0.202578,0.170501,0.148229,0.275426,0.024623,-0.055291,-0.146299,-0.174450,0.224041,-0.234764,0.021654,0.012565,-0.470544,0.491076,1.326285,1.177685,-0.058302,-0.193819,0.021938,0.017589,0.048056,0.085752
0.045162,-0.051209,0.014600,0.055547,-0.059837,-0.044617,0.328441,-0.202578,0.170501,0.148229,0.276935,0.027814,-0.053688,-0.146299,-0.174450,0.224041,-0.233486,0.021654,0.012565,-0.470544,0.489187,1.327935,1.175679,-0.060153,-0.193819,0.021938,0.017589,0.046338,0.085752
0.046908,-0.050023,0.013851,0.054888,-0.060135,-0.045498,0.328497,-0.202266,0.171899,0.147541,0.278712,0.029450,-0.052416,-0.146831,-0.175674,0.224011,-0.232214,0.021776,0.013009,-0.470861,0.488872,1.329257,1.173192,-0.061733,-0.193804,0.022463,0.017061,0.044749,0.085436
0.048637,-0.049345,0.013343,0.054289,-0.061192,-0.045853,0.328245,-0.201617,0.173594,0.147331,0.280622,0.030023,-0.051244,-0.147224,-0.176666,0.224241,-0.230731,0.022550,0.012958,-0.471712,0.489188,1.330028,1.170464,-0.063971,-0.193677,0.022882,0.016492,0.042324,0.084923
0.049888,-0.049345,0.013343,0.054289,-0.061192,-0.045853,0.328245,-0.201617,0.173594,0.147331,0.282399,0.028614,-0.051244,-0.147224,-0.176666,0.224241,-0.230731,0.022550,0.012958,-0.473314,0.490449,1.330028,1.167461,-0.063971,-0.193677,0.022882,0.016492,0.042324,0.084923
0.051180,-0.048776,0.013349,0.053594,-0.061897,-0.045865,0.328209,-0.201498,0.174271,0.146919,0.284366,0.026826,-0.050530,-0.147266,-0.177472,0.224112,-0.229432,0.023423,0.012974,-0.474382,0.491796,1.329708,1.164705,-0.065265,-0.193678,0.023230,0.015866,0.041422,0.085012
0.051180,-0.048776,0.013349,0.053594,-0.061897,-0.045865,0.328209,-0.201498,0.174271,0.146919,0.284366,0.024278,-0.050530,-0.147266,-0.177472,0.224112,-0.229432,0.023423,0.012974,-0.474382,0.493317,1.327847,1.162442,-0.065265,-0.193678,0.023230,0.015866,0.041422,0.085012
0.051388,-0.049327,0.014502,0.052935,-0.062543,-0.045661,0.328161,-0.200609,0.173420,0.147406,0.286104,0.021065,-0.050248,-0.148041,-0.178278,0.223929,-0.227957,0.024246,0.013317,-0.473186,0.494238,1.325263,1.160417,-0.065764,-0.194139,0.023426,0.015215,0.041512,0.085007
0.051138,-0.049795,0.016231,0.052654,-0.063483,-0.045089,0.327614,-0.199661,0.172800,0.148152,0.287060,0.017520,-0.049739,-0.148610,-0.179187,0.223544,-0.226573,0.025186,0.013354,-0.470936,0.495176,1.322319,1.158511,-0.065116,-0.194161,0.023350,0.014901,0.041895,0.085729
0.048004,-0.051825,0.016231,0.052654,-0.063483,-0.045089,0.327614,-0.199661,0.171598,0.152699,0.289042,0.012743,-0.049739,-0.150821,-0.179187,0.223544,-0.226573,0.025186,0.013354,-0.467395,0.495176,1.317446,1.156139,-0.065116,-0.194161,0.023350,0.014901,0.043204,0.085729
0.044029,-0.053969,0.017070,0.052813,-0.064877,-0.045403,0.326551,-0.199210,0.169943,0.158754,0.291260,0.007760,-0.050224,-0.153601,-0.180203,0.223303,-0.225434,0.026179,0.013866,-0.463945,0.495174,1.311974,1.153861,-0.063208,-0.194318,0.022811,0.014701,0.044931,0.086378
0.038375,-0.056341,0.017070,0.052813,-0.064877,-0.045403,0.324858,-0.199210,0.169943,0.167825,0.293949,0.002364,-0.050224,-0.157515,-0.181511,0.223303,-0.225434,0.027413,0.013866,-0.460679,0.493592,1.305301,1.151774,-0.060430,-0.194318,0.022811,0.014701,0.047497,0.086378
0.031452,-0.059103,0.016825,0.053937,-0.066506,-0.045782,0.322773,-0.199706,0.169089,0.179120,0.297337,-0.003649,-0.051528,-0.162204,-0.183027,0.223734,-0.224574,0.028712,0.014489,-0.458348,0.492943,1.297516,1.149770,-0.057638,-0.195724,0.022032,0.014371,0.050293,0.086732
0.023897,-0.062061,0.016825,0.053937,-0.066506,-0.045782,0.320493,-0.199706,0.169089,0.191526,0.301073,-0.009971,-0.051528,-0.167280,-0.184648,0.223734,-0.224574,0.030044,0.014489,-0.456483,0.492943,1.289175,1.147806,-0.054840,-0.195724,0.022032,0.014371,0.053203,0.086732
0.016128,-0.064310,0.015575,0.055995,-0.068312,-0.046285,0.317343,-0.201528,0.168985,0.206002,0.305925,-0.016419,-0.054663,-0.172970,-0.186425,0.224578,-0.223642,0.031347,0.014780,-0.454271,0.491246,1.280565,1.148241,-0.051438,-0.196639,0.020866,0.014385,0.056319,0.086562
0.008066,-0.066453,0.013867,0.057488,-0.069779,-0.046515,0.314004,-0.203085,0.170079,0.220915,0.310549,-0.022875,-0.057025,-0.178869,-0.188345,0.225966,-0.222056,0.032870,0.014963,-0.452452,0.489391,1.271705,1.149328,-0.047736,-0.196029,0.019231,0.014393,0.059604,0.085815
-0.000584,-0.068384,0.011661,0.059417,-0.069779,-0.046515,0.310288,-0.205007,0.170079,0.236704,0.314715,-0.029348,-0.059776,-0.185189,-0.190552,0.225966,-0.222056,0.032870,0.014963,-0.452452,0.489391,1.262348,1.149328,-0.043434,-0.196029,0.019231,0.014393,0.063227,0.085815
-0.008486,-0.070319,0.010467,0.061751,-0.070282,-0.045706,0.307473,-0.206044,0.171694,0.252750,0.319508,-0.035932,-0.061963,-0.191826,-0.192537,0.227815,-0.221111,0.034109,0.014770,-0.451391,0.488085,1.253771,1.149356,-0.038591,-0.194882,0.017439,0.014100,0.067038,0.084890
-0.016012,-0.072258,0.010467,0.064287,-0.070282,-0.045706,0.305110,-0.206044,0.173218,0.268925,0.324614,-0.042571,-0.063870,-0.198622,-0.194412,0.227815,-0.221111,0.034109,0.014770,-0.451391,0.488085,1.245583,1.149356,-0.033477,-0.194882,0.017439,0.014100,0.070942,0.084890
-0.022220,-0.074077,0.010704,0.066899,-0.069967,-0.044397,0.303916,-0.205808,0.175147,0.284085,0.329865,-0.049465,-0.065319,-0.205093,-0.196587,0.229630,-0.221073,0.035036,0.014274,-0.450238,0.488447,1.238918,1.146583,-0.028521,-0.194232,0.015705,0.013782,0.074712,0.083991
-0.028039,-0.075746,0.011991,0.069566,-0.068955,-0.043298,0.302449,-0.204448,0.177013,0.298659,0.334942,-0.055933,-0.066662,-0.211455,-0.198789,0.231383,-0.221878,0.035612,0.013690,-0.449402,0.489764,1.232260,1.144096,-0.023716,-0.194603,0.014403,0.013180,0.078545,0.083592
-0.033077,-0.077114,0.013768,0.072340,-0.068955,-0.041891,0.302449,-0.204448,0.178752,0.312061,0.339673,-0.061549,-0.066662,-0.217600,-0.201047,0.231383,-0.223101,0.035612,0.013690,-0.449402,0.491129,1.225611,1.140930,-0.019216,-0.194603,0.014403,0.013180,0.082503,0.083592
-0.036427,-0.078410,0.016371,0.074615,-0.067701,-0.040493,0.302212,-0.202138,0.180863,0.323389,0.344723,-0.066174,-0.066906,-0.222911,-0.203252,0.232593,-0.224692,0.036013,0.013295,-0.447828,0.492573,1.219605,1.137445,-0.014967,-0.195996,0.013962,0.012379,0.086314,0.083324
-0.038932,-0.079671,0.019388,0.076640,-0.067701,-0.040493,0.302212,-0.199766,0.183160,0.333680,0.349933,-0.070305,-0.066906,-0.227807,-0.205431,0.232593,-0.226466,0.036013,0.013295,-0.446066,0.494057,1.213919,1.133799,-0.010844,-0.197422,0.013962,0.012379,0.090053,0.083324
-0.040422,-0.081465,0.021398,0.077911,-0.066803,-0.039086,0.303233,-0.197433,0.184492,0.340232,0.354867,-0.072625,-0.066346,-0.231151,-0.207424,0.233268,-0.227875,0.036349,0.013116,-0.444516,0.494617,1.209046,1.130485,-0.007441,-0.198281,0.013623,0.011952,0.093033,0.082746
-0.041415,-0.083264,0.023526,0.079176,-0.066448,-0.038607,0.304320,-0.195140,0.186054,0.345469,0.359555,-0.074445,-0.065918,-0.233961,-0.209321,0.234108,-0.229647,0.036518,0.012872,-0.443007,0.495389,1.204628,1.127692,-0.004111,-0.199557,0.013267,0.011315,0.095655,0.082496
-0.041415,-0.085074,0.023526,0.079176,-0.066448,-0.038607,0.305818,-0.192926,0.186054,0.348075,0.363755,-0.074445,-0.065918,-0.235701,-0.211025,0.234108,-0.229647,0.036518,0.012872,-0.443007,0.495389,1.201119,1.125938,-0.000923,-0.199557,0.013267,0.011315,0.097564,0.082496
-0.040426,-0.086783,0.024622,0.079595,-0.066507,-0.039625,0.307699,-0.190967,0.187091,0.348018,0.366908,-0.074089,-0.066606,-0.236281,-0.212100,0.235085,-0.230972,0.036615,0.012955,-0.443371,0.496569,1.199041,1.125354,0.001826,-0.200758,0.013158,0.010548,0.099068,0.082457
-0.038633,-0.088440,0.024441,0.079086,-0.066736,-0.041233,0.309772,-0.189136,0.186946,0.347094,0.369904,-0.073460,-0.068160,-0.235604,-0.212375,0.235540,-0.231334,0.036640,0.013047,-0.444212,0.497539,1.198133,1.126086,0.005160,-0.201542,0.012688,0.010287,0.100818,0.082259
-0.038633,-0.090211,0.024441,0.079086,-0.066736,-0.041233,0.312015,-0.187731,0.186946,0.343642,0.369904,-0.071912,-0.068160,-0.235604,-0.212375,0.235540,-0.231334,0.036640,0.013047,-0.445764,0.497539,1.200839,1.126086,0.005160,-0.201542,0.012688,0.010287,0.100818,0.082259
-0.036907,-0.092007,0.023448,0.078699,-0.066490,-0.043083,0.314078,-0.185968,0.185795,0.339849,0.369554,-0.070278,-0.069840,-0.234229,-0.211158,0.235306,-0.230699,0.036600,0.013072,-0.447701,0.497202,1.204571,1.127555,0.005122,-0.201071,0.012259,0.010145,0.100499,0.082087
-0.036907,-0.092007,0.021941,0.078699,-0.066490,-0.043083,0.315781,-0.185968,0.185795,0.335370,0.367407,-0.068473,-0.069840,-0.232637,-0.211158,0.235306,-0.230699,0.036600,0.013072,-0.450409,0.497202,1.210354,1.129439,0.005122,-0.201071,0.012259,0.010145,0.100499,0.082087
-0.035612,-0.093215,0.020119,0.078131,-0.065422,-0.044895,0.317270,-0.184380,0.184209,0.330900,0.364576,-0.066815,-0.071340,-0.230754,-0.208893,0.234596,-0.229499,0.036410,0.013204,-0.454175,0.496869,1.218060,1.131482,0.002388,-0.199906,0.012221,0.010080,0.098367,0.082360
-0.034530,-0.094394,0.017266,0.077961,-0.064081,-0.046271,0.318651,-0.182733,0.182829,0.326435,0.361403,-0.065231,-0.072153,-0.228724,-0.206975,0.233183,-0.228804,0.035978,0.013120,-0.458470,0.498138,1.226728,1.134640,-0.000448,-0.199328,0.012863,0.009904,0.096321,0.082773
-0.034530,-0.094394,0.017266,0.077961,-0.064081,-0.046271,0.320063,-0.182733,0.182829,0.321755,0.358541,-0.063893,-0.072153,-0.226764,-0.205178,0.233183,-0.228804,0.035978,0.013120,-0.463644,0.498138,1.236997,1.134640,-0.003821,-0.199328,0.012863,0.009904,0.093716,0.082773
-0.033214,-0.094981,0.016087,0.077098,-0.063015,-0.047252,0.321595,-0.181377,0.182607,0.316820,0.355832,-0.062493,-0.071907,-0.224747,-0.203520,0.231687,-0.228831,0.035673,0.012816,-0.468673,0.499889,1.247188,1.135674,-0.007299,-0.198870,0.014095,0.009823,0.090923,0.082796
-0.031290,-0.094981,0.016087,0.077098,-0.063015,-0.047252,0.323370,-0.179963,0.182607,0.311372,0.353430,-0.060970,-0.071907,-0.222616,-0.202139,0.230232,-0.228831,0.035673,0.012816,-0.473412,0.502013,1.257222,1.135674,-0.010987,-0.198870,0.014095,0.009823,0.087754,0.082796
-0.029267,-0.096274,0.015778,0.076088,-0.062276,-0.048468,0.325569,-0.178410,0.183033,0.305655,0.351688,-0.058923,-0.071264,-0.220311,-0.200822,0.228818,-0.229616,0.035364,0.012899,-0.477454,0.504388,1.266352,1.136955,-0.014877,-0.198079,0.015719,0.009973,0.084480,0.082792
-0.027193,-0.097082,0.016331,0.074907,-0.061974,-0.049799,0.327979,-0.176789,0.183498,0.299803,0.350276,-0.056613,-0.070697,-0.217918,-0.199329,0.226515,-0.230521,0.035250,0.012879,-0.481149,0.506887,1.275031,1.138005,-0.018868,-0.197499,0.017159,0.010198,0.081154,0.083204
-0.025134,-0.098573,0.016331,0.074907,-0.061974,-0.049799,0.330282,-0.174845,0.183498,0.294308,0.350276,-0.053507,-0.070697,-0.215714,-0.199329,0.226515,-0.230521,0.035250,0.012879,-0.484055,0.508434,1.281542,1.138005,-0.022712,-0.197499,0.017159,0.010198,0.078173,0.083204
-0.023180,-0.100468,0.016575,0.073821,-0.061654,-0.050980,0.332441,-0.173114,0.184147,0.289235,0.350085,-0.050219,-0.069678,-0.213705,-0.198692,0.225607,-0.231684,0.035077,0.012963,-0.486580,0.510404,1.287266,1.138347,-0.026471,-0.197330,0.018118,0.010498,0.075062,0.083788
-0.021437,-0.100468,0.016575,0.073821,-0.061654,-0.050980,0.334315,-0.171809,0.184147,0.285008,0.350085,-0.046566,-0.069678,-0.212086,-0.198692,0.225607,-0.231684,0.035077,0.012963,-0.488340,0.510404,1.291414,1.138347,-0.030062,-0.197330,0.018118,0.010498,0.071690,0.083788
-0.020073,-0.102037,0.017015,0.073365,-0.061124,-0.052043,0.335779,-0.170549,0.184545,0.281733,0.350283,-0.043039,-0.068059,-0.210602,-0.198228,0.225012,-0.233168,0.034517,0.012503,-0.489937,0.511678,1.294681,1.138090,-0.033554,-0.196626,0.018503,0.010693,0.068319,0.084393
-0.019290,-0.103270,0.016260,0.073116,-0.060836,-0.052752,0.337039,-0.169689,0.184556,0.278933,0.349147,-0.039575,-0.067137,-0.208951,-0.197634,0.226042,-0.233920,0.034314,0.012358,-0.490947,0.512014,1.297506,1.137106,-0.036996,-0.195369,0.019388,0.010365,0.064948,0.084700
-0.019290,-0.103270,0.016260,0.073116,-0.060836,-0.052752,0.337039,-0.169689,0.184556,0.277381,0.349147,-0.036766,-0.065834,-0.208951,-0.197634,0.226042,-0.235254,0.034314,0.012358,-0.492274,0.512014,1.299719,1.137106,-0.039310,-0.195369,0.019388,0.010365,0.062554,0.084700
-0.020309,-0.103833,0.015157,0.073145,-0.059824,-0.052684,0.337449,-0.170015,0.183836,0.275881,0.347694,-0.034226,-0.064296,-0.208150,-0.196720,0.227202,-0.236752,0.033536,0.011932,-0.493159,0.512021,1.301694,1.136036,-0.041278,-0.194954,0.020055,0.010006,0.060296,0.085282
-0.020309,-0.103833,0.015157,0.073145,-0.059824,-0.052684,0.337449,-0.170015,0.183836,0.275881,0.345805,-0.032224,-0.062289,-0.208150,-0.196720,0.227202,-0.238577,0.033536,0.011932,-0.493159,0.512021,1.303193,1.134732,-0.042554,-0.194954,0.020055,0.010006,0.058308,0.085282
-0.021693,-0.102960,0.013675,0.074369,-0.058782,-0.052074,0.336331,-0.171182,0.182754,0.275857,0.343288,-0.030847,-0.060497,-0.208056,-0.195379,0.228699,-0.240595,0.032946,0.011599,-0.494739,0.511963,1.304664,1.133331,-0.043890,-0.195348,0.020757,0.009725,0.056395,0.085335
-0.023040,-0.101751,0.012218,0.075852,-0.057501,-0.051213,0.335330,-0.171987,0.181427,0.276299,0.340457,-0.030138,-0.058812,-0.208766,-0.193215,0.229546,-0.242708,0.032279,0.011382,-0.496617,0.512727,1.305634,1.132364,-0.045336,-0.195643,0.021315,0.009328,0.053576,0.085741
-0.024767,-0.101751,0.012218,0.075852,-0.057501,-0.051213,0.335330,-0.173161,0.181427,0.277818,0.337157,-0.030138,-0.057013,-0.208766,-0.193215,0.230878,-0.245532,0.032279,0.011382,-0.496617,0.512727,1.305634,1.130078,-0.045336,-0.195643,0.021315,0.009328,0.053576,0.085741
-0.026661,-0.100387,0.011247,0.077239,-0.055834,-0.049978,0.334540,-0.174811,0.180368,0.279686,0.333829,-0.030820,-0.055100,-0.210307,-0.191351,0.232226,-0.248392,0.031424,0.011198,-0.497501,0.513051,1.305331,1.127736,-0.045765,-0.196650,0.021517,0.009043,0.052599,0.085990
-0.028891,-0.100387,0.011247,0.078740,-0.055834,-0.049978,0.334540,-0.174811,0.179203,0.282255,0.330446,-0.030820,-0.052957,-0.210307,-0.191351,0.233607,-0.251325,0.031424,0.011198,-0.497501,0.513051,1.303618,1.125279,-0.045765,-0.196650,0.021517,0.009043,0.052599,0.085990
-0.031026,-0.098756,0.010300,0.080419,-0.054005,-0.048440,0.333795,-0.176419,0.177857,0.285475,0.327109,-0.032057,-0.051084,-0.212524,-0.189441,0.235052,-0.253935,0.030513,0.010643,-0.497108,0.511736,1.301141,1.123509,-0.044871,-0.197293,0.022268,0.009271,0.053290,0.085637
-0.033113,-0.097766,0.009779,0.082188,-0.052692,-0.047259,0.333408,-0.177464,0.176197,0.289021,0.323796,-0.032835,-0.049347,-0.214359,-0.187641,0.237473,-0.256383,0.029483,0.010243,-0.496675,0.510153,1.298281,1.121860,-0.044083,-0.196609,0.022499,0.009368,0.054013,0.085040
-0.034583,-0.096308,0.009779,0.084201,-0.051153,-0.045807,0.333408,-0.177464,0.176197,0.292860,0.320819,-0.034065,-0.048056,-0.216728,-0.187641,0.237473,-0.258667,0.029483,0.010243,-0.495375,0.508898,1.294046,1.121860,-0.041797,-0.196609,0.022499,0.009368,0.055696,0.085040
-0.036063,-0.094576,0.009943,0.086223,-0.049606,-0.044295,0.333798,-0.177364,0.174703,0.296903,0.318163,-0.035456,-0.046736,-0.219198,-0.186436,0.239162,-0.260813,0.028491,0.009939,-0.493864,0.508062,1.289617,1.120112,-0.039738,-0.195441,0.022739,0.009444,0.057523,0.083947
-0.037564,-0.094576,0.009943,0.088261,-0.048040,-0.042663,0.333798,-0.177364,0.174703,0.301357,0.316151,-0.037170,-0.045357,-0.221873,-0.186436,0.239162,-0.262682,0.028491,0.009939,-0.493864,0.508062,1.284800,1.120112,-0.038131,-0.195441,0.022739,0.009444,0.059637,0.083947
-0.039119,-0.093830,0.010885,0.090431,-0.046461,-0.040779,0.334952,-0.175939,0.173046,0.306568,0.315480,-0.039006,-0.043704,-0.225176,-0.186331,0.239907,-0.264087,0.027594,0.009694,-0.492169,0.506381,1.280187,1.118024,-0.036632,-0.193822,0.022381,0.009912,0.061884,0.082416
-0.040702,-0.094409,0.011793,0.092669,-0.044874,-0.038771,0.336457,-0.174407,0.171745,0.312159,0.315578,-0.040904,-0.041913,-0.228794,-0.186575,0.239276,-0.264567,0.026632,0.009359,-0.490595,0.505492,1.275676,1.116986,-0.035187,-0.192443,0.021567,0.010544,0.064196,0.080767
-0.042878,-0.094409,0.011793,0.095248,-0.043290,-0.036164,0.336457,-0.172500,0.170142,0.319788,0.317548,-0.042789,-0.039552,-0.233514,-0.188146,0.239276,-0.264567,0.026632,0.009359,-0.488402,0.505492,1.271397,1.115305,-0.032723,-0.189622,0.021567,0.010544,0.066347,0.080767
-0.045571,-0.095485,0.011995,0.098080,-0.041647,-0.033315,0.337133,-0.170628,0.168384,0.328550,0.320212,-0.044596,-0.036951,-0.238893,-0.190143,0.237943,-0.263520,0.025834,0.008928,-0.486223,0.505163,1.267243,1.113610,-0.030174,-0.186430,0.020969,0.010873,0.068386,0.079317
-0.049297,-0.097015,0.011995,0.101416,-0.039882,-0.029982,0.337133,-0.168827,0.166318,0.339577,0.324266,-0.046248,-0.033867,-0.245587,-0.192992,0.236137,-0.261287,0.025834,0.008928,-0.484074,0.505163,1.263337,1.111889,-0.027458,-0.182497,0.020969,0.010873,0.070203,0.077490
-0.053828,-0.099221,0.010119,0.105186,-0.038274,-0.026336,0.337410,-0.166631,0.164269,0.353830,0.331151,-0.047634,-0.029531,-0.253560,-0.197634,0.233412,-0.257490,0.024820,0.008500,-0.481170,0.501498,1.260280,1.108960,-0.025682,-0.178827,0.020820,0.010907,0.071729,0.075645
-0.058760,-0.101764,0.007812,0.109174,-0.036075,-0.022535,0.336245,-0.164238,0.161308,0.369696,0.339452,-0.049268,-0.024569,-0.262171,-0.203173,0.230226,-0.252912,0.023795,0.008305,-0.477889,0.496586,1.257647,1.105428,-0.023526,-0.175290,0.020440,0.010521,0.074017,0.073121
-0.064722,-0.106724,0.004383,0.113273,-0.036075,-0.018506,0.336245,-0.161093,0.161308,0.389975,0.355390,-0.049268,-0.018957,-0.273092,-0.212226,0.226192,-0.247284,0.023795,0.008305,-0.476581,0.492249,1.255072,1.101818,-0.023526,-0.169229,0.020440,0.009220,0.074017,0.073121
-0.070338,-0.112048,0.000592,0.117433,-0.035250,-0.014380,0.334411,-0.157625,0.160887,0.411677,0.374048,-0.050066,-0.013186,-0.284736,-0.222487,0.221983,-0.241360,0.023130,0.008294,-0.474673,0.487250,1.251994,1.098084,-0.022167,-0.161518,0.019828,0.007765,0.075337,0.072892
-0.075260,-0.118104,-0.003923,0.121718,-0.035250,-0.010061,0.334411,-0.153509,0.162381,0.436226,0.398146,-0.050066,-0.007094,-0.297824,-0.235162,0.217423,-0.234844,0.023130,0.008294,-0.474673,0.480927,1.247910,1.094103,-0.020644,-0.150507,0.019828,0.006003,0.076579,0.072892
-0.079999,-0.125139,-0.009599,0.126155,-0.035467,-0.006310,0.332910,-0.148592,0.164792,0.464064,0.427086,-0.047792,-0.000331,-0.312755,-0.250291,0.212878,-0.227843,0.022816,0.007932,-0.471441,0.469230,1.242844,1.091742,-0.017965,-0.129667,0.019488,0.003946,0.078099,0.074990
-0.084646,-0.132665,-0.015856,0.130669,-0.035841,-0.002844,0.332358,-0.143275,0.167659,0.493545,0.458447,-0.045107,0.006767,-0.328607,-0.266648,0.208340,-0.220598,0.022455,0.007587,-0.468147,0.454846,1.237289,1.089360,-0.014707,-0.103911,0.018336,0.001741,0.079757,0.077473
-0.088201,-0.139911,-0.023559,0.134821,-0.037080,-0.000627,0.332358,-0.138216,0.171405,0.524101,0.492088,-0.039915,0.014594,-0.344127,-0.283084,0.204424,-0.213614,0.022455,0.007587,-0.463889,0.434835,1.229327,1.089360,-0.009349,-0.050299,0.018336,-0.000864,0.082370,0.079909
-0.090952,-0.146931,-0.031408,0.138124,-0.039068,0.000109,0.332490,-0.133149,0.175290,0.553876,0.526285,-0.033813,0.023007,-0.359348,-0.299725,0.200758,-0.207434,0.022586,0.008210,-0.458671,0.413015,1.220757,1.086151,-0.003951,0.002231,0.017231,-0.002600,0.085059,0.081978
-0.092091,-0.153498,-0.039548,0.139728,-0.042552,0.000109,0.332490,-0.128064,0.179454,0.582091,0.561592,-0.025893,0.032592,-0.373971,-0.316774,0.197594,-0.202863,0.022586,0.008210,-0.451535,0.387576,1.210973,1.079024,0.001527,0.052594,0.015930,-0.002600,0.087901,0.083315
-0.093665,-0.161679,-0.051369,0.139059,-0.047986,-0.004045,0.333835,-0.122911,0.181053,0.607678,0.597144,-0.015261,0.049478,-0.387174,-0.333835,0.194494,-0.198619,0.023466,0.009848,-0.439279,0.344562,1.201924,1.047927,0.005941,0.078324,0.014468,0.003037,0.090519,0.084757
-0.095456,-0.170668,-0.065031,0.137252,-0.054397,-0.009163,0.334724,-0.117725,0.181264,0.631954,0.632820,-0.003274,0.070016,-0.399666,-0.350903,0.191427,-0.194538,0.024366,0.011183,-0.424461,0.292758,1.193243,1.004844,0.009823,0.091738,0.012927,0.010759,0.093025,0.086253
-0.104317,-0.186819,-0.078029,0.134241,-0.062908,-0.015256,0.334724,-0.114701,0.177387,0.656397,0.670781,0.007634,0.119584,-0.412018,-0.367678,0.189100,-0.191637,0.026274,0.012744,-0.408301,0.233839,1.188566,0.872364,0.007070,0.129751,0.010735,0.025874,0.096804,0.027022
-0.114548,-0.202221,-0.091717,0.131615,-0.070977,-0.021163,0.333545,-0.113920,0.171759,0.678040,0.703168,0.018528,0.166234,-0.422357,-0.381985,0.187745,-0.186265,0.028308,0.014432,-0.391393,0.172977,1.184787,0.724267,0.004210,0.180045,0.009718,0.034407,0.100496,-0.052148
-0.127519,-0.216121,-0.106784,0.129757,-0.078162,-0.026698,0.330298,-0.117622,0.162630,0.694084,0.724404,0.029396,0.207050,-0.428670,-0.391353,0.187745,-0.175952,0.028308,0.014432,-0.372991,0.108232,1.182803,0.544940,0.001136,0.254900,0.011053,0.029777,0.104017,-0.171190
-0.140485,-0.223982,-0.125775,0.128082,-0.083794,-0.031917,0.322528,-0.127398,0.150607,0.701482,0.730691,0.041613,0.225873,-0.429573,-0.394992,0.190336,-0.165088,0.029070,0.015495,-0.355655,0.035621,1.180886,0.366661,0.000575,0.276306,0.014106,0.021277,0.106264,-0.272781
-0.153449,-0.228823,-0.146728,0.126497,-0.088651,-0.036978,0.312496,-0.140213,0.137138,0.704557,0.730691,0.054506,0.233700,-0.427772,-0.394992,0.193925,-0.153951,0.029070,0.015495,-0.338853,-0.040926,1.179002,0.188904,0.000575,0.270987,0.018017,0.010841,0.107875,-0.365649
-0.161281,-0.223862,-0.166549,0.124283,-0.089401,-0.042277,0.299135,-0.156864,0.123097,0.691326,0.707786,0.065295,0.191945,-0.417265,-0.386650,0.198999,-0.159784,0.028893,0.015911,-0.327006,-0.119801,1.179002,0.038508,0.002267,0.224725,0.021532,-0.000567,0.107144,-0.439132
-0.167642,-0.217831,-0.184787,0.121212,-0.089438,-0.048127,0.286273,-0.172863,0.108145,0.673418,0.681609,0.075303,0.133980,-0.404546,-0.375830,0.203937,-0.175503,0.028514,0.015539,-0.315997,-0.198438,1.178165,-0.095331,0.003979,0.178086,0.024618,-0.011799,0.106162,-0.508362
-0.171060,-0.209662,-0.199862,0.116428,-0.089438,-0.055079,0.274407,-0.187558,0.091371,0.646154,0.647302,0.083751,0.043587,-0.387399,-0.361086,0.208606,-0.210995,0.028514,0.015539,-0.306664,-0.276607,1.178165,-0.196068,0.006659,0.130692,0.026845,-0.022679,0.106162,-0.569091
-0.173995,-0.202001,-0.213010,0.109964,-0.088545,-0.060096,0.263101,-0.201755,0.073303,0.614029,0.610169,0.091630,-0.071602,-0.368303,-0.344907,0.211099,-0.264648,0.028836,0.015414,-0.297600,-0.348040,1.176454,-0.253060,0.010138,0.071365,0.029059,-0.029248,0.106088,-0.618594
-0.176689,-0.194593,-0.225195,0.102660,-0.088786,-0.064145,0.252075,-0.215704,0.054588,0.579471,0.571621,0.099225,-0.199192,-0.348232,-0.328011,0.212037,-0.327382,0.029755,0.015838,-0.288671,-0.416107,1.173180,-0.288180,0.014016,0.006069,0.032134,-0.033662,0.105792,-0.662484
-0.180140,-0.188195,-0.231970,0.094957,-0.088786,-0.064145,0.240576,-0.231220,0.038505,0.545020,0.534411,0.102693,-0.345612,-0.328949,-0.311811,0.210681,-0.411027,0.029755,0.017222,-0.282656,-0.449443,1.168489,-0.264415,0.016589,-0.074239,0.032134,-0.035496,0.105792,-0.703665
-0.183336,-0.182052,-0.235740,0.087290,-0.089747,-0.064128,0.229432,-0.246383,0.024347,0.512058,0.499450,0.104562,-0.491523,-0.310270,-0.296635,0.208855,-0.496127,0.030512,0.018718,-0.277073,-0.468168,1.163725,-0.228617,0.018998,-0.152982,0.033198,-0.037582,0.104932,-0.747494
-0.186023,-0.176421,-0.233502,0.079693,-0.091363,-0.064128,0.219001,-0.260843,0.014037,0.482071,0.468985,0.103237,-0.636428,-0.292800,-0.283508,0.208855,-0.584140,0.030512,0.020440,-0.272353,-0.457674,1.158813,-0.168751,0.021080,-0.228599,0.033198,-0.040175,0.104932,-0.796626
-0.186384,-0.170516,-0.226636,0.071736,-0.094002,-0.065669,0.209271,-0.274921,0.007399,0.453255,0.443066,0.099890,-0.772643,-0.275621,-0.272803,0.208840,-0.663786,0.030884,0.021860,-0.267233,-0.422253,1.154047,-0.091258,0.024250,-0.301515,0.034428,-0.044772,0.104642,-0.849810
-0.186384,-0.164474,-0.217456,0.063599,-0.097152,-0.068495,0.199893,-0.288808,0.002598,0.425025,0.419420,0.095533,-0.904507,-0.258587,-0.263309,0.210199,-0.739245,0.030884,0.021860,-0.261913,-0.374369,1.149354,-0.004954,0.027965,-0.373079,0.035979,-0.050370,0.104642,-0.905020
-0.181323,-0.158566,-0.203606,0.054979,-0.102359,-0.077187,0.192180,-0.301288,-0.000378,0.398787,0.404950,0.091856,-0.997838,-0.243790,-0.258564,0.214776,-0.788404,0.030485,0.024041,-0.253828,-0.314560,1.145835,0.080853,0.031297,-0.424547,0.037306,-0.054961,0.105475,-0.944696
-0.175022,-0.152688,-0.188917,0.046093,-0.108259,-0.087829,0.185333,-0.313116,-0.003083,0.371869,0.393028,0.088983,-1.083152,-0.228818,-0.254498,0.220287,-0.832306,0.029426,0.025384,-0.244146,-0.249546,1.141559,0.171145,0.034620,-0.468264,0.039000,-0.058908,0.106639,-0.977139
-0.165171,-0.146870,-0.172549,0.036677,-0.115544,-0.102367,0.180219,-0.323642,-0.005244,0.343588,0.386204,0.088983,-1.152435,-0.213494,-0.254498,0.227667,-0.865694,0.029426,0.026745,-0.231270,-0.174120,1.135769,0.270410,0.037926,-0.496479,0.039000,-0.061569,0.107917,-0.995117
-0.153227,-0.141932,-0.156591,0.027247,-0.124059,-0.120327,0.175246,-0.333451,-0.007313,0.316099,0.386406,0.090967,-1.207691,-0.198765,-0.255821,0.236906,-0.890417,0.027625,0.027199,-0.216576,-0.091209,1.128886,0.374375,0.040421,-0.511430,0.040523,-0.061561,0.109624,-0.999701
-0.140235,-0.137435,-0.140838,0.017811,-0.133188,-0.139999,0.170342,-0.342901,-0.009336,0.289007,0.390119,0.094577,-1.255935,-0.184332,-0.259160,0.247075,-0.910806,0.025044,0.027974,-0.200972,-0.004553,1.121456,0.480691,0.042510,-0.519748,0.040402,-0.060218,0.111546,-0.997588
-0.123686,-0.135519,-0.126858,0.006445,-0.146160,-0.162350,0.165698,-0.349668,-0.011096,0.262291,0.406858,0.102796,-1.297784,-0.170910,-0.269562,0.258436,-0.919017,0.025044,0.027974,-0.183794,0.091598,1.111414,0.593754,0.037527,-0.499159,0.040402,-0.045555,0.113564,-0.927961
-0.108101,-0.133130,-0.113018,-0.005271,-0.160055,-0.185446,0.160095,-0.356203,-0.011791,0.240314,0.425839,0.110476,-1.328394,-0.160185,-0.281364,0.270560,-0.926012,0.024144,0.029468,-0.166959,0.180560,1.101876,0.696467,0.026904,-0.470943,0.038767,-0.024045,0.111913,-0.817809
-0.094449,-0.129798,-0.099460,-0.017688,-0.175795,-0.210030,0.152574,-0.362271,-0.011791,0.227817,0.449306,0.117079,-1.336523,-0.154855,-0.295966,0.284210,-0.930578,0.024144,0.031097,-0.150808,0.255136,1.093345,0.778473,0.005000,-0.427472,0.036368,0.011157,0.102922,-0.626614
-0.079571,-0.124592,-0.081881,-0.031688,-0.193752,-0.237414,0.144801,-0.366131,-0.006784,0.220878,0.476922,0.122016,-1.326203,-0.153078,-0.313268,0.301241,-0.936688,0.024803,0.033457,-0.137266,0.329181,1.083383,0.846757,-0.021961,-0.386989,0.036275,0.038518,0.087870,-0.432098
-0.064079,-0.118448,-0.062291,-0.046481,-0.212819,-0.266198,0.136902,-0.368885,0.000010,0.216719,0.506613,0.126122,-1.306658,-0.153327,-0.331921,0.319964,-0.943572,0.025793,0.036182,-0.124175,0.402961,1.072705,0.908183,-0.051451,-0.347999,0.037821,0.061960,0.069788,-0.235915
-0.047680,-0.111258,-0.032721,-0.063999,-0.235421,-0.299201,0.130770,-0.366723,0.017346,0.220497,0.541629,0.123764,-1.258088,-0.156739,-0.351929,0.344587,-0.955403,0.028436,0.039582,-0.124175,0.479777,1.059074,0.937582,-0.072728,-0.311099,0.037821,0.069293,0.056625,-0.114513
-0.031599,-0.105542,-0.001791,-0.082417,-0.259239,-0.330754,0.126129,-0.362346,0.035703,0.225680,0.578562,0.120811,-1.208456,-0.160984,-0.371721,0.368116,-0.964900,0.031121,0.043036,-0.126643,0.551186,1.044553,0.961135,-0.090202,-0.282518,0.038199,0.073760,0.045880,-0.013647
-0.016154,-0.102772,0.031860,-0.102634,-0.285493,-0.359412,0.124471,-0.353542,0.056103,0.233670,0.619327,0.116667,-1.156699,-0.166894,-0.391081,0.389457,-0.969728,0.033893,0.046598,-0.136608,0.611786,1.028249,0.972999,-0.100066,-0.270571,0.038199,0.073760,0.039967,0.046147
0.001612,-0.099520,0.062920,-0.124195,-0.313481,-0.381687,0.126032,-0.341486,0.080699,0.241965,0.660508,0.112810,-1.117380,-0.173555,-0.410238,0.405916,-0.962331,0.037283,0.051113,-0.152939,0.653204,1.011912,0.984201,-0.107018,-0.269231,0.036828,0.071929,0.036381,0.084790
0.020537,-0.096028,0.092685,-0.146427,-0.342337,-0.400770,0.129201,-0.327805,0.107394,0.250412,0.701896,0.109097,-1.084281,-0.180592,-0.429291,0.419932,-0.948820,0.040981,0.056104,-0.172454,0.685922,0.995557,0.995072,-0.112512,-0.273195,0.035462,0.069815,0.033957,0.112856
0.040746,-0.092811,0.110599,-0.168274,-0.370272,-0.408955,0.133689,-0.312084,0.136392,0.256992,0.741282,0.107090,-1.070611,-0.188361,-0.447044,0.429197,-0.914223,0.044994,0.062438,-0.201222,0.685922,0.981827,1.006994,-0.121910,-0.273195,0.035462,0.072009,0.029935,0.118336
0.058092,-0.091433,0.121210,-0.188106,-0.395753,-0.415001,0.137759,-0.297373,0.162361,0.263903,0.777653,0.104639,-1.062356,-0.195770,-0.462530,0.439783,-0.876448,0.048685,0.068497,-0.235414,0.683166,0.972673,1.016919,-0.134581,-0.275216,0.036351,0.074681,0.022848,0.121353
0.069712,-0.091433,0.117214,-0.203906,-0.416327,-0.416767,0.140993,-0.284683,0.182270,0.271475,0.807990,0.101302,-1.064931,-0.202458,-0.473483,0.453012,-0.832320,0.051731,0.074003,-0.280453,0.672219,0.972673,1.022850,-0.153795,-0.279535,0.039932,0.078311,0.009630,0.119444
0.071870,-0.096437,0.105650,-0.212243,-0.428478,-0.416906,0.144424,-0.275910,0.192548,0.281903,0.829474,0.089789,-1.073201,-0.208219,-0.479931,0.472084,-0.792830,0.052747,0.076785,-0.328184,0.674020,0.976890,1.027845,-0.168471,-0.289533,0.051336,0.081314,-0.014964,0.119319
0.069298,-0.102793,0.090300,-0.216848,-0.436417,-0.416456,0.147954,-0.269814,0.198011,0.293759,0.846531,0.074188,-1.084318,-0.213516,-0.484127,0.494076,-0.755660,0.053053,0.078205,-0.377259,0.682195,0.982197,1.032374,-0.180878,-0.302370,0.066651,0.084004,-0.045246,0.119830
0.061167,-0.106332,0.076904,-0.209285,-0.428512,-0.407749,0.149875,-0.269814,0.195675,0.301725,0.843494,0.043218,-1.095317,-0.215094,-0.480912,0.519271,-0.735795,0.050412,0.074338,-0.399047,0.702956,0.964186,1.035498,-0.045211,-0.326692,0.139650,0.087203,-0.155877,0.119830
0.053133,-0.109673,0.066939,-0.199149,-0.416534,-0.395509,0.151370,-0.271947,0.191210,0.305819,0.834624,0.010126,-1.102116,-0.214652,-0.475554,0.544234,-0.723797,0.047266,0.070055,-0.409011,0.721369,0.928713,1.034660,0.120500,-0.343855,0.197053,0.089335,-0.270611,0.114866
0.045293,-0.109673,0.063834,-0.183869,-0.396410,-0.376203,0.151370,-0.276189,0.182490,0.302171,0.814086,-0.027215,-1.102116,-0.210171,-0.465909,0.568736,-0.727532,0.043110,0.064938,-0.395324,0.735085,0.858314,1.025900,0.346313,-0.346700,0.223270,0.089335,-0.393558,0.101520
0.037561,-0.112379,0.066257,-0.166465,-0.373272,-0.354437,0.152248,-0.279900,0.169997,0.294836,0.790416,-0.072325,-1.099596,-0.204975,-0.455368,0.586087,-0.735501,0.038741,0.059963,-0.364874,0.741146,0.773685,1.017582,0.467671,-0.347335,0.233752,0.088974,-0.458220,0.092128
0.029883,-0.114963,0.071444,-0.148000,-0.348628,-0.331441,0.152248,-0.283343,0.155619,0.285658,0.765179,-0.121319,-1.096618,-0.199421,-0.444379,0.599863,-0.745588,0.034266,0.055058,-0.326043,0.743378,0.681943,1.009486,0.536805,-0.347335,0.236368,0.088974,-0.493740,0.084712
0.021900,-0.114371,0.076706,-0.123148,-0.315527,-0.308652,0.155221,-0.289251,0.141811,0.271105,0.724410,-0.160278,-1.093521,-0.189492,-0.424721,0.618264,-0.765205,0.025977,0.044671,-0.273498,0.735810,0.546814,0.990614,0.584274,-0.348399,0.268516,0.086756,-0.464665,0.072016
0.012416,-0.114313,0.080214,-0.098025,-0.282548,-0.286262,0.157810,-0.294777,0.126855,0.259055,0.683881,-0.207323,-1.093582,-0.181238,-0.405022,0.634803,-0.781562,0.018187,0.034564,-0.229982,0.731308,0.419111,0.974378,0.615157,-0.349584,0.312706,0.084822,-0.384278,0.057298
-0.000071,-0.115914,0.080214,-0.072363,-0.249812,-0.264670,0.160959,-0.299538,0.109599,0.252009,0.643830,-0.270544,-1.099960,-0.176337,-0.385243,0.647617,-0.791399,0.011397,0.025018,-0.204520,0.732940,0.306256,0.963414,0.612872,-0.349584,0.380980,0.082932,-0.201263,0.038540
-0.015441,-0.117891,0.078561,-0.046053,-0.217358,-0.244088,0.165057,-0.303262,0.092806,0.251748,0.603595,-0.349920,-1.110765,-0.174039,-0.364650,0.660899,-0.796746,0.004512,0.015867,-0.188963,0.737637,0.213312,0.955418,0.580245,-0.351378,0.410738,0.082548,-0.007427,0.024623
-0.032253,-0.120056,0.076465,-0.019419,-0.185045,-0.224010,0.169629,-0.306469,0.076244,0.254880,0.563268,-0.437376,-1.123784,-0.174039,-0.343648,0.674415,-0.799850,-0.002421,0.006913,-0.178358,0.743867,0.130321,0.948906,0.532447,-0.353668,0.421240,0.082548,0.191826,0.013127
-0.049002,-0.120919,0.074722,0.006362,-0.154947,-0.204666,0.177483,-0.305139,0.062698,0.265522,0.524723,-0.536225,-1.140887,-0.176589,-0.323748,0.690061,-0.795013,-0.009305,-0.001238,-0.177915,0.747891,0.075260,0.944778,0.496806,-0.358968,0.385277,0.082794,0.334292,0.009012
-0.064922,-0.122296,0.073155,0.031652,-0.125838,-0.186179,0.186637,-0.301945,0.050483,0.277833,0.487775,-0.635085,-1.158493,-0.180801,-0.304264,0.706635,-0.788240,-0.015997,-0.008782,-0.181960,0.751881,0.029707,0.940450,0.473045,-0.365111,0.346084,0.082726,0.461674,0.006269
-0.079184,-0.122296,0.073155,0.055961,-0.098701,-0.169405,0.198392,-0.295022,0.040930,0.293485,0.454018,-0.733973,-1.177103,-0.187007,-0.285610,0.725069,-0.777598,-0.022307,-0.015114,-0.195421,0.755803,0.003166,0.935720,0.473045,-0.372944,0.300426,0.082726,0.558897,0.006269
-0.091290,-0.122718,0.073971,0.079535,-0.073544,-0.153819,0.212604,-0.285016,0.033985,0.311660,0.423651,-0.829651,-1.196230,-0.194719,-0.268187,0.742700,-0.764870,-0.028183,-0.021126,-0.218799,0.761499,0.001251,0.930832,0.499467,-0.383365,0.256632,0.082819,0.645970,0.007667
-0.102318,-0.122718,0.075802,0.102743,-0.049378,-0.138827,0.228045,-0.273467,0.028345,0.331096,0.394979,-0.923724,-1.215615,-0.203184,-0.251379,0.759931,-0.751100,-0.033842,-0.026978,-0.247136,0.768081,0.011649,0.925863,0.539540,-0.395080,0.213770,0.082819,0.727968,0.009283
-0.108166,-0.119075,0.079169,0.124918,-0.027881,-0.123553,0.244768,-0.260432,0.026042,0.351989,0.369984,-1.005615,-1.233715,-0.213170,-0.236534,0.772958,-0.736816,-0.039289,-0.032064,-0.290419,0.780041,0.055003,0.922099,0.589232,-0.407522,0.173584,0.082911,0.797844,0.009193
-0.111602,-0.114985,0.082174,0.145806,-0.007925,-0.107042,0.260913,-0.247483,0.023812,0.371560,0.347779,-1.077278,-1.250009,-0.222812,-0.223151,0.787170,-0.723671,-0.044110,-0.036229,-0.336385,0.793823,0.100640,0.917582,0.627900,-0.417465,0.141785,0.082268,0.852805,0.008702
-0.111602,-0.109815,0.084452,0.164119,0.008952,-0.088056,0.275904,-0.234707,0.023812,0.388491,0.331150,-1.128497,-1.262694,-0.231770,-0.212690,0.803752,-0.712801,-0.047678,-0.038551,-0.387721,0.811248,0.150848,0.911559,0.644528,-0.422414,0.126756,0.082268,0.877941,0.007500
-0.110527,-0.101988,0.086350,0.182920,0.026147,-0.066303,0.288636,-0.221964,0.023996,0.408411,0.313679,-1.178325,-1.275419,-0.242741,-0.202068,0.817229,-0.700855,-0.051540,-0.041146,-0.454879,0.831980,0.221059,0.908696,0.655792,-0.428021,0.115395,0.081475,0.899828,0.006133
-0.109915,-0.092834,0.088057,0.201963,0.043502,-0.043167,0.300237,-0.209239,0.025314,0.429826,0.295789,-1.227456,-1.288163,-0.254720,-0.191367,0.829153,-0.688373,-0.055548,-0.043876,-0.529945,0.854365,0.301270,0.908432,0.664374,-0.433956,0.105867,0.080763,0.920092,0.004877
-0.108282,-0.080376,0.086475,0.220567,0.060158,-0.017704,0.307681,-0.198276,0.027451,0.452928,0.278487,-1.262087,-1.297862,-0.267681,-0.182264,0.835706,-0.674576,-0.059028,-0.046332,-0.614913,0.879267,0.392101,0.908432,0.658535,-0.440380,0.100670,0.080763,0.928547,0.004877
-0.106267,-0.066431,0.082892,0.239108,0.076742,0.008221,0.313560,-0.188368,0.030329,0.476294,0.260763,-1.290512,-1.306969,-0.281039,-0.173479,0.841067,-0.659905,-0.062569,-0.048638,-0.700334,0.904084,0.482016,0.909746,0.648214,-0.446694,0.095650,0.080471,0.931534,0.004588
-0.103490,-0.049509,0.075308,0.257523,0.093185,0.035072,0.316310,-0.180569,0.034689,0.500189,0.242194,-1.306523,-1.314893,-0.295196,-0.165328,0.844043,-0.643487,-0.066231,-0.050647,-0.786665,0.928733,0.570104,0.911911,0.628928,-0.452790,0.090984,0.080471,0.923584,0.004588
-0.101754,-0.024980,0.062690,0.278589,0.112059,0.064467,0.314721,-0.174284,0.040991,0.530631,0.214339,-1.329020,-1.327135,-0.314342,-0.153601,0.821189,-0.611273,-0.071003,-0.053043,-0.885371,0.953638,0.680425,0.928970,0.569761,-0.466559,0.085295,0.078770,0.867534,0.004894
-0.100945,0.003355,0.047553,0.300981,0.132149,0.095136,0.310963,-0.168755,0.048265,0.564349,0.181839,-1.354760,-1.341535,-0.335984,-0.140085,0.785419,-0.571158,-0.076331,-0.055632,-0.990267,0.978672,0.801866,0.953475,0.490652,-0.484164,0.079094,0.076421,0.787430,0.005630
-0.097206,0.026738,0.023532,0.320065,0.148928,0.127095,0.305816,-0.165259,0.060809,0.590248,0.161545,-1.344004,-1.351237,-0.353601,-0.133143,0.787092,-0.537716,-0.079300,-0.055632,-1.082916,1.002813,0.863308,0.963928,0.435057,-0.495047,0.090650,0.076421,0.687385,0.005630
-0.093911,0.048648,-0.002403,0.339773,0.165734,0.158717,0.300884,-0.162289,0.075315,0.616257,0.143518,-1.328701,-1.360406,-0.371222,-0.127049,0.792654,-0.504568,-0.082117,-0.055504,-1.171976,1.025245,0.918021,0.971710,0.388500,-0.504055,0.101393,0.074931,0.598633,0.006320
-0.091502,0.067613,-0.032170,0.360732,0.182594,0.189669,0.296379,-0.160368,0.093748,0.642487,0.130024,-1.304302,-1.368510,-0.388850,-0.122650,0.805991,-0.472006,-0.084631,-0.055504,-1.253864,1.044259,0.959282,0.974152,0.360015,-0.509314,0.110508,0.074931,0.532459,0.006320
-0.091769,0.082191,-0.061773,0.384369,0.200616,0.214220,0.292484,-0.157891,0.113764,0.670956,0.121387,-1.274405,-1.375310,-0.406190,-0.120280,0.816532,-0.437150,-0.088294,-0.055725,-1.314265,1.058508,0.996464,0.974966,0.337125,-0.514335,0.115857,0.073784,0.482060,0.008191
-0.093373,0.094576,-0.091295,0.409346,0.219220,0.235572,0.288892,-0.155135,0.134571,0.700545,0.115179,-1.241758,-1.381457,-0.423385,-0.118925,0.825676,-0.401147,-0.092531,-0.055725,-1.363923,1.070373,1.031605,0.974966,0.317032,-0.519236,0.119324,0.073784,0.439547,0.009901
-0.096371,0.102384,-0.113352,0.437905,0.239993,0.244230,0.286087,-0.150247,0.154609,0.731291,0.115191,-1.201029,-1.381776,-0.439604,-0.119281,0.822262,-0.367173,-0.098845,-0.059237,-1.366201,1.072273,1.058705,0.973141,0.297587,-0.524840,0.121177,0.072789,0.410306,0.011119
-0.098675,0.109793,-0.131514,0.464590,0.259401,0.250592,0.283496,-0.145489,0.173456,0.759471,0.116025,-1.162722,-1.380212,-0.454002,-0.119538,0.816867,-0.336577,-0.104685,-0.061607,-1.362144,1.073539,1.082198,0.970726,0.279990,-0.530298,0.122895,0.071872,0.384649,0.012453
-0.098675,0.116402,-0.141884,0.487529,0.276078,0.252361,0.281334,-0.140992,0.189923,0.782519,0.116025,-1.129257,-1.374565,-0.464758,-0.119538,0.807510,-0.312736,-0.109574,-0.063465,-1.345418,1.073539,1.098478,0.967120,0.266090,-0.535464,0.124346,0.071872,0.366159,0.012453
-0.099467,0.122502,-0.152456,0.506813,0.289819,0.256502,0.279300,-0.137015,0.204133,0.803201,0.116500,-1.100617,-1.367454,-0.475029,-0.119570,0.798703,-0.290613,-0.114160,-0.064305,-1.337281,1.080128,1.112461,0.960290,0.254006,-0.542114,0.125764,0.070751,0.349245,0.013850
-0.099467,0.128346,-0.163130,0.524271,0.302092,0.261829,0.277329,-0.133297,0.217216,0.822699,0.116500,-1.074389,-1.359610,-0.485056,-0.119570,0.790169,-0.269347,-0.118594,-0.064305,-1.333438,1.090747,1.125296,0.951849,0.242830,-0.549506,0.127164,0.070751,0.333117,0.013850
-0.102400,0.129132,-0.169179,0.532013,0.307327,0.266761,0.276844,-0.130076,0.223719,0.833904,0.115302,-1.063223,-1.353277,-0.490492,-0.119049,0.787085,-0.253969,-0.119390,-0.062043,-1.345509,1.108089,1.131607,0.937834,0.233863,-0.560267,0.127995,0.069674,0.320855,0.017665
-0.106020,0.127801,-0.172655,0.536717,0.310329,0.270049,0.277069,-0.126618,0.227206,0.842382,0.113648,-1.055229,-1.348063,-0.494117,-0.117517,0.785030,-0.240404,-0.119350,-0.059573,-1.355207,1.123386,1.136715,0.920874,0.225242,-0.572129,0.129365,0.069229,0.309649,0.021976
-0.111989,0.121449,-0.170984,0.535344,0.308867,0.270049,0.279199,-0.122686,0.224660,0.845409,0.113648,-1.053579,-1.345089,-0.494117,-0.114876,0.785030,-0.230463,-0.116848,-0.057128,-1.360156,1.134592,1.139413,0.898026,0.217316,-0.586192,0.129365,0.069229,0.300558,0.029024
-0.119241,0.110718,-0.166487,0.527952,0.302890,0.267142,0.283550,-0.118660,0.217359,0.842634,0.112845,-1.054483,-1.346326,-0.491076,-0.110919,0.785821,-0.223216,-0.112402,-0.054978,-1.356431,1.137878,1.141467,0.866141,0.210047,-0.601009,0.130458,0.068961,0.293043,0.040612
-0.127134,0.097794,-0.160577,0.517549,0.294655,0.262948,0.289011,-0.114587,0.207680,0.836957,0.112341,-1.056665,-1.349669,-0.486385,-0.106304,0.787439,-0.217315,-0.106985,-0.052974,-1.348367,1.137429,1.143198,0.829733,0.203106,-0.616203,0.131010,0.068958,0.286315,0.054471
-0.132993,0.079750,-0.156604,0.494761,0.276919,0.254243,0.297862,-0.112464,0.194678,0.817916,0.114761,-1.060321,-1.357743,-0.475678,-0.101782,0.793361,-0.234344,-0.095840,-0.046778,-1.335366,1.124855,1.143198,0.753901,0.191397,-0.639764,0.132319,0.065864,0.277485,0.101939
-0.139205,0.062500,-0.153173,0.471138,0.258592,0.246530,0.305759,-0.111048,0.180687,0.798440,0.115928,-1.064953,-1.370340,-0.465518,-0.097559,0.798902,-0.246482,-0.085698,-0.041113,-1.324136,1.109302,1.142665,0.681389,0.181874,-0.656900,0.133667,0.061966,0.270732,0.144022
-0.146122,0.046838,-0.153173,0.445845,0.239081,0.240801,0.311750,-0.111048,0.164721,0.778094,0.114593,-1.071536,-1.391981,-0.456452,-0.093934,0.803677,-0.246482,-0.077561,-0.036513,-1.316449,1.087787,1.142665,0.615511,0.176724,-0.661187,0.133667,0.056462,0.268133,0.175338
-0.150080,0.028200,-0.152984,0.410958,0.212620,0.231388,0.318132,-0.114037,0.149504,0.743793,0.116056,-1.081434,-1.404479,-0.439270,-0.089717,0.810726,-0.284239,-0.063213,-0.027508,-1.305580,1.049157,1.136348,0.506864,0.169679,-0.647584,0.135148,0.038728,0.265493,0.236704
-0.152558,0.008074,-0.153576,0.371274,0.182683,0.220133,0.324710,-0.118863,0.134662,0.702514,0.118760,-1.092989,-1.412404,-0.418031,-0.085204,0.818910,-0.339698,-0.045758,-0.016301,-1.293120,1.001968,1.128178,0.376827,0.161686,-0.625036,0.136657,0.014877,0.262415,0.313097
-0.152558,-0.004647,-0.142734,0.334180,0.154218,0.214297,0.327354,-0.126043,0.118544,0.662615,0.118760,-1.111557,-1.394938,-0.399513,-0.083129,0.810246,-0.419309,-0.032607,-0.007598,-1.279755,0.934856,1.115684,0.247047,0.156401,-0.525966,0.139752,-0.026609,0.262415,0.401633
-0.150632,-0.016995,-0.131718,0.297088,0.125496,0.209618,0.328433,-0.134269,0.103080,0.621743,0.121344,-1.131511,-1.382614,-0.380526,-0.083040,0.791822,-0.479829,-0.020029,0.001273,-1.264737,0.863605,1.110112,0.149045,0.154420,-0.384513,0.143116,-0.067399,0.262853,0.485507
-0.146188,-0.028596,-0.120356,0.260000,0.096259,0.207250,0.328433,-0.144590,0.088924,0.578920,0.129577,-1.154238,-1.380577,-0.360598,-0.086923,0.753879,-0.502170,-0.008591,0.010482,-1.246412,0.784068,1.118384,0.114593,0.159047,-0.158283,0.147014,-0.106796,0.265419,0.560064
-0.139168,-0.039351,-0.109444,0.224119,0.067201,0.206460,0.325371,-0.156144,0.076969,0.535639,0.143296,-1.177982,-1.390182,-0.339918,-0.094444,0.705691,-0.499897,0.002138,0.019520,-1.225004,0.702204,1.133897,0.130468,0.170221,0.096966,0.150383,-0.134476,0.269462,0.633335
-0.130859,-0.049683,-0.098757,0.188841,0.038232,0.206267,0.321804,-0.168315,0.066116,0.492129,0.159760,-1.202236,-1.405609,-0.318861,-0.103784,0.652379,-0.485318,0.012514,0.028473,-1.202053,0.619172,1.153031,0.171506,0.184669,0.366734,0.154002,-0.156297,0.274242,0.705965
-0.121522,-0.058481,-0.086609,0.157315,0.011067,0.209473,0.314768,-0.181181,0.059577,0.452532,0.181596,-1.226262,-1.422578,-0.298505,-0.116022,0.597413,-0.465809,0.022590,0.036412,-1.174269,0.534739,1.169553,0.233625,0.198086,0.581535,0.154002,-0.156297,0.279878,0.775834
-0.112019,-0.066340,-0.074740,0.127219,-0.015519,0.213313,0.306629,-0.194649,0.054436,0.415139,0.204876,-1.249501,-1.438660,-0.278814,-0.128965,0.542784,-0.446523,0.032214,0.044032,-1.143530,0.447870,1.184351,0.298931,0.210814,0.768676,0.154025,-0.154335,0.284921,0.831083
-0.102181,-0.072318,-0.063430,0.099982,-0.040948,0.218420,0.296282,-0.209322,0.052091,0.382149,0.231045,-1.271166,-1.452965,-0.260447,-0.143320,0.488826,-0.427680,0.040936,0.051012,-1.106882,0.356122,1.195702,0.370615,0.222165,0.900511,0.154025,-0.146610,0.288779,0.857095
-0.090898,-0.074946,-0.054544,0.074091,-0.066445,0.225710,0.283757,-0.225374,0.052674,0.353282,0.258662,-1.291126,-1.464316,-0.243831,-0.158594,0.437062,-0.410931,0.049434,0.058161,-1.069237,0.260402,1.204105,0.450618,0.233358,0.996934,0.154346,-0.139712,0.291451,0.861516
-0.078893,-0.075017,-0.046870,0.048872,-0.091977,0.234091,0.270141,-0.242116,0.054720,0.326477,0.287004,-1.310234,-1.474191,-0.228090,-0.174327,0.386392,-0.395228,0.057821,0.065395,-1.031092,0.162691,1.211035,0.534782,0.244472,1.075655,0.155160,-0.133227,0.293530,0.855142
-0.063878,-0.075017,-0.044833,0.022209,-0.120578,0.238785,0.253587,-0.258883,0.058533,0.300163,0.321786,-1.330293,-1.483244,-0.212060,-0.193724,0.335112,-0.388866,0.067005,0.074164,-1.001483,0.071910,1.224949,0.632605,0.260988,1.158555,0.157595,-0.125515,0.295190,0.819846
-0.048686,-0.073425,-0.044748,-0.004356,-0.149397,0.241000,0.236191,-0.275223,0.062317,0.275053,0.356652,-1.348224,-1.488230,-0.196450,-0.213146,0.286936,-0.386755,0.075606,0.082813,-0.975106,-0.009633,1.237676,0.727642,0.279477,1.253146,0.159951,-0.119576,0.296297,0.767498
-0.033138,-0.070341,-0.048567,-0.030724,-0.178648,0.238253,0.217113,-0.290706,0.066043,0.252352,0.391680,-1.361898,-1.485083,-0.181680,-0.232619,0.244971,-0.393147,0.083040,0.091220,-0.955193,-0.072697,1.248029,0.817103,0.301911,1.371119,0.162151,-0.117184,0.296297,0.681046
-0.018126,-0.065962,-0.055582,-0.055658,-0.207248,0.229284,0.197771,-0.305253,0.068646,0.233407,0.425771,-1.367055,-1.469823,-0.169153,-0.252091,0.214828,-0.404623,0.089202,0.098553,-0.945059,-0.107696,1.248942,0.892603,0.322343,1.482960,0.164179,-0.129429,0.296409,0.563848
-0.003382,-0.060934,-0.064194,-0.079876,-0.235523,0.217205,0.178296,-0.319332,0.070688,0.216340,0.459395,-1.367653,-1.448506,-0.157748,-0.271563,0.190595,-0.418642,0.094729,0.105349,-0.939815,-0.128665,1.245137,0.961128,0.341775,1.591740,0.166122,-0.148994,0.294971,0.431272
0.012825,-0.054813,-0.073550,-0.103076,-0.263642,0.195629,0.161429,-0.329069,0.073229,0.203262,0.493580,-1.358559,-1.412852,-0.149346,-0.291752,0.178394,-0.433094,0.098377,0.110682,-0.946407,-0.108806,1.230237,1.019168,0.355516,1.642955,0.168247,-0.159541,0.294971,0.317090
0.029866,-0.048794,-0.081597,-0.126157,-0.291961,0.170328,0.146237,-0.336778,0.076751,0.191015,0.528221,-1.348238,-1.374178,-0.141882,-0.312276,0.168291,-0.445953,0.101481,0.115658,-0.956498,-0.077656,1.213778,1.073219,0.367397,1.678402,0.170315,-0.163509,0.294138,0.223867
0.048578,-0.042980,-0.087029,-0.149001,-0.320682,0.137572,0.134395,-0.340428,0.082239,0.180430,0.563774,-1.335458,-1.329465,-0.136292,-0.333469,0.162384,-0.455623,0.103498,0.119919,-0.973588,-0.023922,1.194202,1.119289,0.375561,1.682310,0.170315,-0.154319,0.294138,0.172568
0.068147,-0.038593,-0.088623,-0.171922,-0.350156,0.106758,0.126567,-0.339551,0.091085,0.171404,0.600394,-1.323158,-1.287008,-0.132454,-0.353945,0.158776,-0.458847,0.105245,0.124025,-0.988162,0.021143,1.172989,1.146440,0.383667,1.676868,0.170650,-0.145684,0.295103,0.138298
0.088144,-0.035235,-0.088406,-0.194881,-0.380008,0.076914,0.120155,-0.336408,0.101612,0.163156,0.637548,-1.311097,-1.245679,-0.129216,-0.374061,0.156330,-0.459093,0.106856,0.128053,-1.001478,0.061874,1.150957,1.164130,0.391743,1.666750,0.169831,-0.137328,0.296134,0.112542
0.108672,-0.035235,-0.085155,-0.218632,-0.412124,0.056766,0.120155,-0.327583,0.114680,0.156135,0.678204,-1.297889,-1.209256,-0.129216,-0.393666,0.156330,-0.451539,0.108372,0.133469,-1.002789,0.067189,1.125185,1.160233,0.402768,1.658893,0.169831,-0.135929,0.297848,0.096024
0.128264,-0.036406,-0.080933,-0.241031,-0.442728,0.038486,0.120648,-0.317779,0.127215,0.150071,0.717240,-1.283807,-1.175310,-0.129396,-0.411983,0.156999,-0.443393,0.109782,0.138903,-0.998459,0.065351,1.096156,1.155256,0.414871,1.651602,0.169866,-0.134996,0.297821,0.080991
0.145981,-0.038975,-0.074771,-0.260726,-0.470307,0.023944,0.123902,-0.306018,0.138681,0.145922,0.753033,-1.267979,-1.146323,-0.130764,-0.427725,0.156999,-0.434064,0.110982,0.144374,-0.982849,0.049209,1.060618,1.148119,0.429129,1.645447,0.171477,-0.134996,0.294312,0.068929
0.158889,-0.043212,-0.067389,-0.274660,-0.490067,0.008584,0.128071,-0.294782,0.147982,0.143444,0.781121,-1.252506,-1.123919,-0.132176,-0.439572,0.160593,-0.425228,0.111065,0.147793,-0.955422,0.032289,1.013395,1.142648,0.442705,1.636304,0.176046,-0.133782,0.278448,0.058476
0.168544,-0.048285,-0.059396,-0.285714,-0.505918,-0.007185,0.132696,-0.283808,0.156199,0.141802,0.805357,-1.237212,-1.104808,-0.133133,-0.449471,0.164998,-0.416638,0.110749,0.150185,-0.922086,0.014979,0.960327,1.138008,0.455940,1.625667,0.182094,-0.131291,0.256406,0.048827
0.168544,-0.055361,-0.050667,-0.284347,-0.505918,-0.020980,0.137210,-0.277667,0.158207,0.145658,0.815882,-1.206117,-1.093362,-0.135319,-0.454729,0.213396,-0.410258,0.106508,0.147055,-0.873335,0.008031,0.842093,1.136565,0.487063,1.590891,0.202619,-0.125264,0.048039,0.024523
0.163692,-0.062022,-0.041300,-0.279024,-0.500721,-0.032678,0.141101,-0.274072,0.157760,0.150785,0.820192,-1.183809,-1.084178,-0.137401,-0.457180,0.251554,-0.405714,0.101384,0.142105,-0.822620,0.004445,0.736106,1.135210,0.515124,1.566801,0.205058,-0.123395,-0.172140,0.005573
0.151677,-0.067852,-0.030657,-0.265790,-0.485008,-0.040185,0.143744,-0.275569,0.152404,0.158456,0.812078,-1.179075,-1.079520,-0.139275,-0.454019,0.269232,-0.405714,0.094498,0.133514,-0.767979,0.007582,0.654613,1.135210,0.537062,1.564080,0.171328,-0.129839,-0.415932,-0.002674
0.135799,-0.071309,-0.024342,-0.246448,-0.461520,-0.043715,0.144332,-0.281135,0.144439,0.168067,0.794616,-1.174255,-1.077967,-0.142014,-0.447170,0.285733,-0.404465,0.086901,0.123339,-0.713085,0.012713,0.586609,1.131695,0.516172,1.563174,0.115405,-0.134172,-0.609646,-0.006363
0.117988,-0.073580,-0.020562,-0.224052,-0.434144,-0.045258,0.143664,-0.288736,0.135169,0.178648,0.772480,-1.169391,-1.077675,-0.145186,-0.438477,0.301645,-0.403030,0.078950,0.112373,-0.658062,0.017994,0.525347,1.127014,0.473865,1.562602,0.048384,-0.137449,-0.778325,-0.007774
0.096633,-0.073580,-0.020562,-0.195980,-0.399089,-0.037257,0.143664,-0.297214,0.125171,0.192934,0.739753,-1.162323,-1.082606,-0.149548,-0.425229,0.316759,-0.400235,0.070609,0.100529,-0.604026,0.017994,0.494691,1.118958,0.299383,1.551741,-0.006711,-0.133077,-0.855284,-0.000664
0.075722,-0.072557,-0.021460,-0.167062,-0.362886,-0.028275,0.144021,-0.304596,0.116216,0.207946,0.705170,-1.157358,-1.088979,-0.154379,-0.411021,0.330492,-0.396582,0.062259,0.088446,-0.551251,0.015852,0.474794,1.109676,0.103538,1.539529,-0.057511,-0.129242,-0.910279,0.006872
0.055699,-0.070004,-0.023042,-0.136453,-0.324389,-0.017334,0.146217,-0.309784,0.109350,0.224409,0.666874,-1.157358,-1.098234,-0.160149,-0.394891,0.341463,-0.391215,0.053892,0.075885,-0.500999,0.011963,0.474794,1.097941,-0.135024,1.524616,-0.099718,-0.129242,-0.921341,0.015257
0.036527,-0.068709,-0.021892,-0.105782,-0.285881,-0.008460,0.151237,-0.310255,0.102871,0.241106,0.628357,-1.164746,-1.109116,-0.166116,-0.377804,0.349908,-0.385347,0.045358,0.062979,-0.449654,0.012136,0.487084,1.086506,-0.339894,1.511306,-0.134882,-0.129413,-0.930169,0.020746
0.017779,-0.068265,-0.019377,-0.075079,-0.247365,-0.000621,0.157669,-0.308366,0.096586,0.257920,0.589728,-1.176207,-1.120810,-0.172181,-0.360237,0.357089,-0.379229,0.036740,0.049900,-0.397761,0.014341,0.504706,1.075222,-0.527928,1.498798,-0.166524,-0.131051,-0.937880,0.024787
0.001282,-0.069651,-0.012254,-0.045328,-0.211611,0.006879,0.169657,-0.300361,0.090119,0.275117,0.553531,-1.193478,-1.131878,-0.179375,-0.342678,0.363611,-0.371458,0.028497,0.038899,-0.345803,0.016237,0.531389,1.062832,-0.687678,1.492837,-0.181530,-0.128591,-0.935816,0.028400
-0.014842,-0.071794,-0.004480,-0.016112,-0.177319,0.013654,0.182917,-0.291017,0.083577,0.293095,0.519090,-1.211198,-1.142744,-0.187002,-0.325472,0.370473,-0.362696,0.020321,0.028497,-0.295118,0.019019,0.562239,1.050513,-0.841588,1.488268,-0.193792,-0.127541,-0.927339,0.031878
-0.030219,-0.075451,0.004595,0.012032,-0.145956,0.018976,0.198722,-0.278993,0.076886,0.312633,0.488164,-1.229815,-1.153203,-0.195494,-0.308972,0.378016,-0.351954,0.012277,0.019294,-0.246986,0.023577,0.601421,1.038337,-0.983807,1.486482,-0.200569,-0.127541,-0.906036,0.035084
-0.045147,-0.080480,0.015097,0.039729,-0.116778,0.022551,0.215917,-0.265487,0.070219,0.333968,0.460998,-1.249173,-1.163238,-0.205302,-0.293530,0.386058,-0.341148,0.004095,0.009913,-0.200542,0.030814,0.652679,1.027867,-1.094436,1.479263,-0.206064,-0.127754,-0.877067,0.037918
-0.059850,-0.086196,0.026313,0.067203,-0.088692,0.025252,0.233806,-0.251239,0.063564,0.356202,0.435714,-1.268899,-1.173060,-0.215769,-0.278617,0.394351,-0.330311,-0.004156,0.000444,-0.154943,0.039392,0.709975,1.018249,-1.189267,1.469326,-0.210920,-0.127377,-0.844266,0.040566
-0.072412,-0.089857,0.038384,0.094949,-0.062053,0.030186,0.251028,-0.236489,0.058742,0.382029,0.413375,-1.286183,-1.180913,-0.228820,-0.264421,0.406042,-0.319641,-0.011977,-0.007819,-0.117402,0.049000,0.781076,1.010229,-1.245266,1.457077,-0.216032,-0.124106,-0.794466,0.045148
-0.084134,-0.091268,0.049451,0.123366,-0.035192,0.036346,0.267079,-0.222333,0.054763,0.409568,0.390354,-1.301198,-1.187652,-0.242711,-0.249763,0.418907,-0.309120,-0.019793,-0.015889,-0.086025,0.060756,0.855098,1.002213,-1.291540,1.445662,-0.221776,-0.121372,-0.735510,0.049858
-0.094176,-0.088179,0.058508,0.153124,-0.007891,0.044960,0.280790,-0.209365,0.052470,0.440528,0.365972,-1.311670,-1.192162,-0.258283,-0.234180,0.434117,-0.298896,-0.027598,-0.023569,-0.066978,0.076810,0.934961,0.994205,-1.318361,1.435920,-0.228785,-0.119711,-0.658246,0.054821
-0.102609,-0.079560,0.065107,0.183618,0.019639,0.059953,0.290792,-0.198095,0.052173,0.474123,0.338905,-1.315754,-1.193665,-0.274536,-0.217958,0.448493,-0.288571,-0.034699,-0.029993,-0.060335,0.090448,1.016320,0.986195,-1.333167,1.424281,-0.229561,-0.118101,-0.568444,0.059955
-0.110238,-0.068176,0.069959,0.214479,0.047282,0.078136,0.298941,-0.187675,0.052641,0.509035,0.310497,-1.316347,-1.193257,-0.291130,-0.201417,0.462451,-0.278194,-0.041449,-0.035787,-0.060040,0.102876,1.098425,0.978186,-1.341965,1.411694,-0.227221,-0.116517,-0.472376,0.065173
-0.114741,-0.048135,0.069959,0.244673,0.074065,0.103266,0.301175,-0.180197,0.056304,0.544529,0.277066,-1.307643,-1.185878,-0.308499,-0.184230,0.470728,-0.265182,-0.047751,-0.039566,-0.075960,0.109568,1.183795,0.967856,-1.327264,1.402226,-0.206297,-0.119097,-0.364231,0.070267
-0.117743,-0.024832,0.066934,0.274246,0.100494,0.128720,0.301938,-0.173543,0.060748,0.578762,0.240442,-1.296054,-1.175654,-0.326177,-0.166292,0.474885,-0.250928,-0.054046,-0.043016,-0.094324,0.115251,1.268746,0.957091,-1.300801,1.394123,-0.178978,-0.123117,-0.253295,0.074891
-0.117743,0.004993,0.059415,0.302577,0.126217,0.154820,0.299756,-0.168536,0.066753,0.610472,0.197433,-1.278698,-1.159738,-0.344472,-0.146854,0.470802,-0.234190,-0.060325,-0.043016,-0.117573,0.118915,1.352853,0.945454,-1.250818,1.388751,-0.138871,-0.130019,-0.136783,0.078578
-0.116408,0.035340,0.046573,0.327966,0.149288,0.178968,0.294882,-0.165158,0.074761,0.639576,0.158258,-1.257967,-1.140387,-0.363564,-0.131169,0.457527,-0.216707,-0.065844,-0.041559,-0.145671,0.121344,1.428218,0.934838,-1.214485,1.378139,-0.084137,-0.133018,-0.019802,0.084368
-0.113956,0.065946,0.031068,0.351884,0.171034,0.202139,0.288662,-0.163118,0.083770,0.667376,0.121001,-1.235547,-1.119319,-0.383055,-0.117361,0.439657,-0.198853,-0.070982,-0.037978,-0.176191,0.123154,1.499210,0.924735,-1.184977,1.364908,-0.022093,-0.133717,0.097411,0.091209
-0.113956,0.080585,0.012006,0.371860,0.187163,0.218700,0.278478,-0.163118,0.094784,0.695729,0.118754,-1.212429,-1.095582,-0.402037,-0.123527,0.414994,-0.182946,-0.075136,-0.034347,-0.198397,0.121206,1.532125,0.914877,-1.199806,1.340180,0.067564,-0.125312,0.213420,0.097687
-0.114555,0.093890,-0.004631,0.392317,0.203751,0.232644,0.267962,-0.164104,0.105874,0.723724,0.117763,-1.190252,-1.070815,-0.419596,-0.129181,0.391311,-0.168833,-0.079306,-0.032384,-0.207512,0.116024,1.556493,0.904333,-1.222534,1.316363,0.148170,-0.114564,0.311934,0.102678
-0.116701,0.104525,-0.016414,0.413735,0.221255,0.241352,0.256787,-0.165491,0.117111,0.750995,0.119284,-1.169962,-1.043994,-0.434306,-0.133808,0.369593,-0.158311,-0.083505,-0.033757,-0.190448,0.104378,1.563762,0.892416,-1.261056,1.294372,0.210663,-0.099130,0.375445,0.102678
-0.119472,0.114415,-0.023452,0.436017,0.238982,0.249404,0.249046,-0.165094,0.127025,0.776526,0.116396,-1.148704,-1.018962,-0.446351,-0.133301,0.354741,-0.152676,-0.087837,-0.035923,-0.165399,0.090544,1.566669,0.886546,-1.306349,1.269131,0.248874,-0.072261,0.404167,0.101339
-0.122556,0.123932,-0.028116,0.458730,0.256820,0.257127,0.243022,-0.163806,0.136276,0.801187,0.111303,-1.126962,-0.994825,-0.457065,-0.130228,0.343322,-0.149484,-0.092233,-0.038106,-0.136358,0.075615,1.567152,0.883699,-1.355027,1.242266,0.274942,-0.039675,0.415493,0.098319
-0.120808,0.128723,-0.032609,0.469482,0.264103,0.263327,0.245091,-0.160700,0.143218,0.811604,0.108062,-1.110125,-0.983470,-0.461572,-0.126614,0.341384,-0.158130,-0.092233,-0.038106,-0.136358,0.058707,1.565947,0.896565,-1.380477,1.188959,0.283960,0.024724,0.386081,0.086162
-0.118884,0.131101,-0.037589,0.474863,0.267415,0.267944,0.247561,-0.157932,0.147264,0.817376,0.105485,-1.095607,-0.976974,-0.463932,-0.123648,0.341589,-0.170227,-0.091161,-0.035783,-0.143089,0.040392,1.564408,0.909652,-1.387367,1.148265,0.289972,0.095263,0.351639,0.055882
-0.118884,0.128654,-0.043540,0.469502,0.262784,0.269393,0.250835,-0.157932,0.147264,0.813855,0.105485,-1.085727,-0.980201,-0.463932,-0.121979,0.346078,-0.189225,-0.086546,-0.029955,-0.163473,0.019265,1.562201,0.923179,-1.357133,1.132797,0.289972,0.178080,0.307141,-0.010645
-0.120214,0.120819,-0.046361,0.455541,0.252189,0.268391,0.253731,-0.157560,0.140291,0.803233,0.106142,-1.081556,-0.993740,-0.459333,-0.121423,0.351595,-0.208991,-0.079059,-0.022904,-0.174608,-0.013364,1.560493,0.934610,-1.319664,1.211838,0.279343,0.175741,0.275001,-0.167684
-0.123349,0.110291,-0.047616,0.437281,0.238611,0.266163,0.256439,-0.157548,0.130703,0.789059,0.107754,-1.080679,-1.012436,-0.453402,-0.121019,0.357625,-0.229142,-0.070137,-0.015243,-0.181119,-0.051743,1.558355,0.944991,-1.278579,1.338128,0.263760,0.130826,0.248303,-0.369971
-0.127184,0.095062,-0.044129,0.410452,0.218366,0.260712,0.261404,-0.157548,0.116122,0.764853,0.109378,-1.086145,-1.043966,-0.442174,-0.121019,0.363806,-0.247402,-0.059225,-0.007529,-0.170543,-0.105224,1.558355,0.964920,-1.263953,1.321228,0.243599,0.004435,0.248303,-0.497578
-0.130285,0.079901,-0.039616,0.382340,0.196851,0.253679,0.267495,-0.157211,0.102027,0.737693,0.110461,-1.093332,-1.077377,-0.429409,-0.119405,0.369768,-0.265889,-0.048510,-0.000137,-0.161708,-0.152892,1.557006,0.982387,-1.249396,1.276449,0.222133,-0.112218,0.248140,-0.600870
-0.130285,0.064879,-0.033050,0.351662,0.172797,0.243484,0.275838,-0.157211,0.088906,0.704631,0.110461,-1.103961,-1.114548,-0.413571,-0.116350,0.375292,-0.284830,-0.038189,0.006612,-0.156353,-0.188933,1.557006,0.994929,-1.234977,1.175914,0.198057,-0.209384,0.249860,-0.655524
-0.128812,0.048652,-0.024965,0.320715,0.147665,0.230118,0.285290,-0.157740,0.078246,0.667768,0.114774,-1.118184,-1.149309,-0.395332,-0.114895,0.379103,-0.296329,-0.028961,0.012364,-0.157360,-0.206589,1.555688,0.975832,-1.217031,1.093809,0.173445,-0.279350,0.254481,-0.705828
-0.125787,0.031821,-0.016121,0.289634,0.121994,0.215168,0.295297,-0.158457,0.068815,0.629007,0.121774,-1.134204,-1.182864,-0.375892,-0.114458,0.382055,-0.304107,-0.020279,0.017617,-0.161548,-0.215052,1.554513,0.940915,-1.197323,1.020922,0.148565,-0.335713,0.260551,-0.753956
-0.120222,0.009643,-0.006364,0.259765,0.095827,0.197313,0.305113,-0.160548,0.062278,0.587829,0.143946,-1.153720,-1.210711,-0.355225,-0.121598,0.382055,-0.297792,-0.013256,0.022116,-0.170996,-0.198920,1.554513,0.874147,-1.184320,0.977006,0.129408,-0.358716,0.271190,-0.788378
-0.114000,-0.012555,0.004138,0.230718,0.070335,0.178049,0.314462,-0.162421,0.056630,0.546653,0.167836,-1.173766,-1.236027,-0.334422,-0.129727,0.381378,-0.288462,-0.006632,0.025953,-0.179016,-0.174619,1.554491,0.801436,-1.174408,0.936191,0.113084,-0.377522,0.280919,-0.817534
-0.106467,-0.034789,0.016131,0.203318,0.046193,0.155968,0.322880,-0.163855,0.052760,0.505484,0.195156,-1.194870,-1.256279,-0.313353,-0.139830,0.378257,-0.273104,-0.000808,0.028468,-0.184175,-0.133984,1.554491,0.716844,-1.170680,0.901582,0.102425,-0.387931,0.288829,-0.836157
-0.096548,-0.054514,0.029532,0.177656,0.023864,0.131751,0.330330,-0.163605,0.051837,0.464972,0.223572,-1.216037,-1.272962,-0.292316,-0.150378,0.373058,-0.258414,0.004454,0.029790,-0.187850,-0.076492,1.555956,0.634396,-1.170491,0.850003,0.100057,-0.392114,0.289449,-0.849236
-0.085437,-0.072983,0.043636,0.152864,0.002441,0.106466,0.337296,-0.163605,0.051837,0.424791,0.252535,-1.237236,-1.287859,-0.271298,-0.161147,0.366821,-0.244059,0.009434,0.029790,-0.190782,-0.010575,1.557398,0.553023,-1.172071,0.789939,0.101835,-0.392114,0.286424,-0.859542
-0.071613,-0.087031,0.055854,0.131571,-0.015636,0.076289,0.342487,-0.160980,0.055570,0.387797,0.282181,-1.256902,-1.301362,-0.252213,-0.174679,0.358978,-0.234133,0.013105,0.029821,-0.195359,0.073126,1.559486,0.484784,-1.170243,0.697292,0.109090,-0.387187,0.276848,-0.864156
-0.057047,-0.099191,0.067712,0.111224,-0.032955,0.046028,0.346508,-0.159234,0.059825,0.352775,0.311782,-1.274994,-1.313426,-0.234284,-0.188827,0.350759,-0.225576,0.016130,0.028870,-0.200893,0.159471,1.561554,0.419103,-1.167331,0.604499,0.114962,-0.382210,0.267469,-0.866609
-0.040999,-0.107576,0.078849,0.092772,-0.048758,0.015598,0.348189,-0.157790,0.065855,0.321702,0.341293,-1.289936,-1.322615,-0.218670,-0.204208,0.341791,-0.219758,0.017865,0.028870,-0.208341,0.251100,1.563582,0.358538,-1.162248,0.511416,0.118067,-0.378558,0.258485,-0.864741
-0.026025,-0.113996,0.088209,0.075379,-0.064017,-0.016631,0.347014,-0.156883,0.072277,0.295802,0.370462,-1.301308,-1.328482,-0.205531,-0.220553,0.333330,-0.216865,0.018444,0.028373,-0.218659,0.345863,1.565536,0.299098,-1.156483,0.429119,0.117569,-0.376208,0.250608,-0.856463
-0.011589,-0.119434,0.096681,0.058515,-0.079003,-0.049759,0.344410,-0.156564,0.078895,0.272489,0.399460,-1.310894,-1.332688,-0.193630,-0.237381,0.325123,-0.216705,0.018774,0.028692,-0.230411,0.442191,1.567452,0.240220,-1.150377,0.352215,0.115268,-0.374508,0.243287,-0.844981
0.003191,-0.121933,0.105194,0.040477,-0.095995,-0.082540,0.338330,-0.156564,0.087439,0.254463,0.430173,-1.314850,-1.330697,-0.184506,-0.257259,0.315779,-0.216705,0.018774,0.028692,-0.241335,0.537691,1.569580,0.185434,-1.142067,0.297210,0.109721,-0.377649,0.236530,-0.815508
0.018628,-0.124452,0.113376,0.021306,-0.114423,-0.114447,0.331828,-0.156045,0.096604,0.236964,0.462885,-1.316967,-1.323726,-0.176066,-0.278281,0.306539,-0.218218,0.019886,0.030060,-0.250496,0.625518,1.571709,0.130824,-1.132176,0.242461,0.102584,-0.378767,0.227281,-0.758182
0.035381,-0.127011,0.120896,-0.000127,-0.135728,-0.144609,0.324480,-0.156045,0.107012,0.220515,0.499600,-1.315406,-1.306795,-0.168993,-0.301595,0.297504,-0.220379,0.022538,0.033325,-0.256133,0.698007,1.573839,0.076559,-1.119123,0.188219,0.092267,-0.375835,0.213048,-0.645145
0.053248,-0.129179,0.130161,-0.021871,-0.158254,-0.173152,0.318435,-0.153412,0.119332,0.206668,0.538160,-1.309763,-1.286639,-0.164717,-0.324829,0.289159,-0.220716,0.024775,0.036549,-0.259047,0.760884,1.575525,0.030316,-1.109070,0.147359,0.081125,-0.354491,0.194894,-0.500586
0.071671,-0.131797,0.140299,-0.043769,-0.181389,-0.200885,0.313041,-0.150402,0.132608,0.194122,0.577641,-1.302079,-1.264871,-0.162245,-0.348022,0.281158,-0.219802,0.027448,0.039753,-0.260599,0.818953,1.576989,-0.011917,-1.100516,0.113192,0.069572,-0.323941,0.174781,-0.340271
0.090225,-0.131797,0.154191,-0.064969,-0.205520,-0.226535,0.310043,-0.146174,0.148774,0.186423,0.616841,-1.290564,-1.241317,-0.162245,-0.369288,0.273364,-0.219802,0.027448,0.041962,-0.265984,0.874533,1.578292,-0.035620,-1.096321,0.085214,0.061390,-0.298479,0.157675,-0.232836
0.108566,-0.131471,0.168973,-0.085551,-0.229486,-0.249879,0.306964,-0.142379,0.165786,0.180287,0.654357,-1.278903,-1.214689,-0.163443,-0.389778,0.264743,-0.221534,0.028762,0.044442,-0.273872,0.927870,1.579653,-0.056156,-1.091720,0.059780,0.054634,-0.273385,0.141965,-0.128405
0.126481,-0.128560,0.185536,-0.104899,-0.253122,-0.268613,0.303724,-0.139452,0.184490,0.177274,0.688508,-1.266951,-1.181914,-0.165821,-0.408719,0.254467,-0.228325,0.028762,0.047466,-0.286766,0.976724,1.581132,-0.070360,-1.086303,0.039432,0.050730,-0.249026,0.129046,-0.029973
0.141181,-0.123680,0.200868,-0.119986,-0.272626,-0.285608,0.299736,-0.138153,0.203969,0.178229,0.715804,-1.252397,-1.150960,-0.168988,-0.423556,0.246750,-0.237307,0.029100,0.049599,-0.303118,1.026172,1.583799,-0.076498,-1.080046,0.028605,0.051642,-0.235227,0.127986,0.013885
0.154272,-0.117816,0.215766,-0.132943,-0.290065,-0.301732,0.295374,-0.137206,0.223835,0.181167,0.739671,-1.235837,-1.120916,-0.172550,-0.436339,0.240312,-0.247384,0.028767,0.051287,-0.321200,1.075917,1.586595,-0.077841,-1.073370,0.022541,0.054963,-0.226710,0.132855,0.030453
0.162025,-0.112676,0.215766,-0.142228,-0.302691,-0.292001,0.291783,-0.137206,0.237891,0.186937,0.754964,-1.235837,-1.094286,-0.176742,-0.444020,0.230547,-0.254287,0.030644,0.054322,-0.385582,1.111872,1.586595,-0.077841,-1.071406,0.019096,0.063407,-0.228451,0.144217,0.006121
0.166835,-0.108355,0.216647,-0.149422,-0.313127,-0.283680,0.288595,-0.136267,0.249468,0.194855,0.768945,-1.236255,-1.068817,-0.181936,-0.450775,0.220938,-0.263523,0.032316,0.056959,-0.438097,1.136770,1.588138,-0.082337,-1.073683,0.012216,0.084768,-0.230321,0.168223,-0.029981
0.166835,-0.108355,0.218745,-0.152433,-0.319186,-0.278175,0.286215,-0.136267,0.256090,0.207070,0.780299,-1.239625,-1.045668,-0.189133,-0.455679,0.211643,-0.277424,0.033579,0.056959,-0.466882,1.139555,1.594164,-0.098105,-1.084442,-0.001534,0.131964,-0.232453,0.217521,-0.089627
0.162343,-0.107326,0.218253,-0.149173,-0.317406,-0.277249,0.284204,-0.137595,0.257327,0.217787,0.782964,-1.242563,-1.037043,-0.193659,-0.456277,0.214180,-0.283248,0.032285,0.054590,-0.462074,1.134399,1.596172,-0.106809,-1.097837,-0.017643,0.171530,-0.231760,0.270297,-0.130659
0.156142,-0.106871,0.216466,-0.142776,-0.311705,-0.278613,0.282377,-0.140064,0.255872,0.227754,0.781285,-1.245283,-1.035681,-0.197183,-0.454722,0.222633,-0.285033,0.029711,0.050116,-0.440468,1.125272,1.596771,-0.111980,-1.112550,-0.034931,0.207279,-0.229250,0.324811,-0.162382
0.147222,-0.106871,0.210293,-0.129911,-0.297761,-0.271632,0.280395,-0.145561,0.246098,0.232718,0.768114,-1.258048,-1.043955,-0.197183,-0.448934,0.231901,-0.283609,0.026710,0.045965,-0.430845,1.117717,1.582999,-0.107510,-1.133530,-0.047575,0.213772,-0.229250,0.358021,-0.178982
0.137388,-0.106226,0.203033,-0.115264,-0.281697,-0.261174,0.278366,-0.151964,0.234636,0.236519,0.751553,-1.274911,-1.054391,-0.196942,-0.441208,0.239866,-0.282659,0.023562,0.041477,-0.430862,1.111982,1.558931,-0.102765,-1.150367,-0.058369,0.216976,-0.229296,0.385402,-0.192778
0.125725,-0.106226,0.193595,-0.097052,-0.261392,-0.243763,0.276246,-0.160177,0.219802,0.237996,0.728212,-1.299969,-1.069151,-0.195221,-0.429606,0.245226,-0.282659,0.020125,0.036316,-0.450159,1.109888,1.514271,-0.097470,-1.158917,-0.065465,0.213603,-0.230654,0.401127,-0.200967
0.110044,-0.104784,0.183352,-0.074206,-0.235910,-0.226016,0.273997,-0.170358,0.203626,0.240460,0.695015,-1.324125,-1.089418,-0.192642,-0.412137,0.255642,-0.281497,0.014495,0.028772,-0.476471,1.108590,1.445361,-0.092668,-1.152935,-0.075061,0.205364,-0.233432,0.417560,-0.210968
0.092353,-0.103106,0.172706,-0.049042,-0.207841,-0.208100,0.271685,-0.181522,0.186780,0.243418,0.656890,-1.347830,-1.112437,-0.189633,-0.391735,0.268586,-0.279361,0.007769,0.020038,-0.506289,1.108590,1.364327,-0.088112,-1.139687,-0.085907,0.194692,-0.236920,0.434346,-0.221873
0.072125,-0.102554,0.164163,-0.024215,-0.180320,-0.189040,0.268875,-0.191968,0.168454,0.248437,0.617146,-1.377379,-1.133005,-0.188218,-0.371342,0.278741,-0.282494,0.002181,0.012267,-0.536238,1.109529,1.270573,-0.088112,-1.099289,-0.095989,0.173062,-0.239993,0.435110,-0.231427
0.051162,-0.102483,0.156334,-0.000290,-0.153660,-0.169995,0.266139,-0.201254,0.150257,0.254529,0.577880,-1.408470,-1.152658,-0.187275,-0.350947,0.288883,-0.288388,-0.002971,0.004757,-0.569243,1.111550,1.172330,-0.090264,-1.050315,-0.106925,0.149658,-0.242622,0.431211,-0.240675
0.028730,-0.103925,0.149935,0.021830,-0.128722,-0.150979,0.263550,-0.208221,0.132316,0.262763,0.539570,-1.442642,-1.170481,-0.187275,-0.330548,0.299001,-0.299804,-0.007250,-0.002232,-0.608359,1.114536,1.065115,-0.095785,-0.984195,-0.119570,0.122708,-0.244362,0.417225,-0.249308
0.006190,-0.106507,0.145744,0.041761,-0.106357,-0.131464,0.261705,-0.212701,0.115219,0.273403,0.504354,-1.477589,-1.187630,-0.189246,-0.311164,0.313191,-0.315562,-0.010697,-0.007972,-0.657800,1.119468,0.951680,-0.102924,-0.893973,-0.137261,0.091278,-0.245022,0.396518,-0.260127
-0.016402,-0.109660,0.143428,0.060597,-0.085280,-0.111700,0.260724,-0.215937,0.098545,0.285244,0.470687,-1.512922,-1.204441,-0.191736,-0.292289,0.329417,-0.333490,-0.013727,-0.013087,-0.712400,1.125373,0.835144,-0.110871,-0.791707,-0.157473,0.057612,-0.244256,0.372454,-0.272038
-0.036055,-0.113210,0.143428,0.076768,-0.068022,-0.090465,0.262235,-0.215937,0.083222,0.298625,0.443046,-1.553221,-1.217715,-0.196387,-0.276317,0.348512,-0.352450,-0.015966,-0.016764,-0.776189,1.131171,0.721492,-0.117775,-0.675968,-0.180858,0.016347,-0.244256,0.352944,-0.285381
-0.054231,-0.116469,0.145003,0.092412,-0.051672,-0.070597,0.264617,-0.215834,0.068580,0.311978,0.417181,-1.593298,-1.229946,-0.201419,-0.261228,0.364958,-0.370302,-0.018286,-0.020125,-0.837910,1.136573,0.608943,-0.124034,-0.569194,-0.202925,-0.022205,-0.242698,0.336184,-0.298212
-0.069451,-0.119143,0.147415,0.106999,-0.037137,-0.053468,0.268743,-0.214221,0.055306,0.325272,0.394874,-1.632924,-1.240090,-0.207213,-0.247908,0.376104,-0.385937,-0.020769,-0.022851,-0.895486,1.141184,0.498620,-0.129004,-0.480368,-0.222349,-0.055327,-0.242698,0.324927,-0.310015
-0.080277,-0.119076,0.150044,0.121299,-0.023225,-0.038142,0.274477,-0.211021,0.045586,0.338740,0.374290,-1.665821,-1.248410,-0.213953,-0.235963,0.378960,-0.398807,-0.023313,-0.025477,-0.944384,1.145879,0.387561,-0.133744,-0.413189,-0.239351,-0.077691,-0.241732,0.309569,-0.321086
-0.088906,-0.117639,0.152490,0.135455,-0.009625,-0.023719,0.281014,-0.207026,0.037642,0.352296,0.354567,-1.695352,-1.255816,-0.221166,-0.224706,0.378101,-0.410294,-0.025887,-0.028051,-0.988941,1.150615,0.276138,-0.138369,-0.356837,-0.255140,-0.094675,-0.241966,0.292163,-0.331790
-0.091190,-0.110690,0.152490,0.150082,0.004076,-0.010402,0.288763,-0.201273,0.033965,0.366833,0.335422,-1.712808,-1.260254,-0.230149,-0.214018,0.365040,-0.418483,-0.028472,-0.029872,-1.033639,1.161793,0.176333,-0.143368,-0.324538,-0.270250,-0.098660,-0.241966,0.264995,-0.342336
-0.092233,-0.101855,0.152713,0.165336,0.018265,0.003947,0.296371,-0.194911,0.032197,0.382848,0.315948,-1.727845,-1.263212,-0.240001,-0.203332,0.348567,-0.427139,-0.031249,-0.031485,-1.081595,1.177201,0.082050,-0.146700,-0.296302,-0.285533,-0.100431,-0.243890,0.235565,-0.354190
-0.090795,-0.089248,0.152713,0.181841,0.033425,0.020358,0.303697,-0.187329,0.032197,0.401813,0.295821,-1.738040,-1.263212,-0.251590,-0.192653,0.325269,-0.436728,-0.034404,-0.032682,-1.136061,1.201063,-0.001173,-0.146700,-0.276194,-0.301161,-0.097772,-0.248200,0.201617,-0.368657
-0.087994,-0.075282,0.153228,0.198860,0.048540,0.039807,0.310457,-0.179386,0.034712,0.422555,0.277554,-1.745820,-1.260253,-0.263862,-0.183309,0.297560,-0.447725,-0.037506,-0.034006,-1.200290,1.233923,-0.066817,-0.140738,-0.260821,-0.314428,-0.093908,-0.256978,0.171973,-0.384019
-0.084512,-0.060636,0.153618,0.216137,0.063633,0.060776,0.316932,-0.171260,0.037457,0.444187,0.260217,-1.752392,-1.255401,-0.276477,-0.174633,0.267645,-0.459427,-0.040579,-0.036148,-1.269402,1.271282,-0.123673,-0.132127,-0.247813,-0.326516,-0.089441,-0.267990,0.144481,-0.399828
-0.079795,-0.045748,0.151236,0.233873,0.078527,0.086728,0.322408,-0.162916,0.043328,0.467006,0.246673,-1.750905,-1.242833,-0.289676,-0.167908,0.239587,-0.473626,-0.043358,-0.036148,-1.343443,1.306618,-0.157532,-0.114366,-0.240481,-0.340548,-0.085680,-0.278066,0.127037,-0.415914
-0.074391,-0.030293,0.148207,0.251765,0.093305,0.120168,0.327997,-0.154059,0.050467,0.490639,0.233875,-1.743498,-1.226793,-0.303670,-0.161419,0.216047,-0.490175,-0.045650,-0.036513,-1.394244,1.340548,-0.184268,-0.092693,-0.234349,-0.356933,-0.082019,-0.287194,0.112110,-0.431802
-0.067612,-0.013703,0.143882,0.269965,0.107850,0.168576,0.333811,-0.144180,0.060141,0.515895,0.222574,-1.724248,-1.203812,-0.319252,-0.155406,0.201546,-0.511421,-0.046971,-0.035349,-1.398561,1.371660,-0.196752,-0.063202,-0.230617,-0.378019,-0.078557,-0.294425,0.102217,-0.447293
-0.059964,0.005843,0.133318,0.293039,0.125901,0.205093,0.339202,-0.134342,0.073820,0.545232,0.210062,-1.692385,-1.178221,-0.336961,-0.149371,0.197974,-0.531842,-0.049110,-0.034188,-1.400000,1.389218,-0.194723,-0.031150,-0.226457,-0.404622,-0.076135,-0.302821,0.096479,-0.462369
-0.051881,0.026867,0.119636,0.318550,0.145707,0.235664,0.344381,-0.124525,0.089502,0.576608,0.196945,-1.654216,-1.151324,-0.355734,-0.143325,0.199867,-0.551851,-0.051658,-0.034188,-1.400000,1.400000,-0.185436,0.002182,-0.222084,-0.433982,-0.074234,-0.311800,0.092819,-0.477237
-0.043522,0.051355,0.101523,0.349212,0.168136,0.253348,0.347991,-0.116988,0.107937,0.612567,0.182147,-1.616422,-1.124721,-0.375849,-0.138145,0.204658,-0.574358,-0.057657,-0.034333,-1.400000,1.400000,-0.173701,0.045186,-0.217394,-0.469998,-0.074682,-0.319841,0.088274,-0.491089
-0.035433,0.075319,0.084998,0.379976,0.190217,0.272336,0.351363,-0.109899,0.125140,0.648412,0.168128,-1.583914,-1.098009,-0.395832,-0.133483,0.207853,-0.598860,-0.064001,-0.035722,-1.400000,1.399609,-0.164081,0.092848,-0.213923,-0.505496,-0.075719,-0.326730,0.083047,-0.503812
