Lukebird17/AI3618-SONIC/reference/reference/example/tired_forward_lunge_R_001__A359_M/joint_pos.csv
joint_0,joint_1,joint_2,joint_3,joint_4,joint_5,joint_6,joint_7,joint_8,joint_9,joint_10,joint_11,joint_12,joint_13,joint_14,joint_15,joint_16,joint_17,joint_18,joint_19,joint_20,joint_21,joint_22,joint_23,joint_24,joint_25,joint_26,joint_27,joint_28
0.104553,0.123118,-0.134209,0.021093,0.013010,0.052441,0.229817,-0.000809,0.311336,0.245476,0.208592,-0.002682,-0.133746,-0.237661,-0.210104,0.320124,-0.271047,0.004444,-0.001395,-0.668717,0.599103,1.022878,1.205331,-0.134708,-0.000311,0.060952,0.033540,-0.041903,-0.019811
0.104553,0.123118,-0.134209,0.021093,0.013010,0.052441,0.229817,-0.000809,0.307083,0.244129,0.206912,-0.010558,-0.143976,-0.237661,-0.210104,0.307838,-0.258640,0.004444,-0.001395,-0.668717,0.597670,1.040782,1.227050,-0.150185,0.006194,0.060952,0.033540,-0.043466,-0.030530
0.105602,0.124407,-0.134734,0.019745,0.011993,0.051948,0.230118,-0.000446,0.302423,0.242067,0.205041,-0.014804,-0.150018,-0.237837,-0.210042,0.299107,-0.249774,0.003852,-0.000437,-0.669374,0.595768,1.053415,1.242712,-0.163657,0.011871,0.059223,0.032298,-0.044831,-0.040162
0.106772,0.124407,-0.134734,0.019745,0.011993,0.051948,0.230118,-0.000446,0.296948,0.238578,0.202788,-0.011791,-0.147683,-0.235698,-0.210042,0.297489,-0.247991,0.003852,-0.000437,-0.669374,0.592927,1.053415,1.246259,-0.173116,0.015891,0.059223,0.032298,-0.044831,-0.047622
0.108183,0.125637,-0.134942,0.018358,0.011487,0.051619,0.229996,-0.000324,0.291357,0.234765,0.200661,-0.007768,-0.144490,-0.234029,-0.208398,0.296950,-0.246947,0.003923,-0.000079,-0.669184,0.590948,1.052988,1.249043,-0.180356,0.019205,0.058474,0.031245,-0.045155,-0.053377
0.109715,0.125637,-0.134942,0.018358,0.011487,0.051619,0.229996,-0.000324,0.285709,0.230790,0.198598,-0.003239,-0.140868,-0.234029,-0.208398,0.296950,-0.246947,0.003923,-0.000079,-0.669184,0.589401,1.051303,1.251445,-0.186487,0.022165,0.058474,0.031245,-0.045155,-0.058279
0.110671,0.126820,-0.135873,0.017160,0.011245,0.051814,0.229187,-0.000709,0.279870,0.227458,0.197162,0.001655,-0.137368,-0.232718,-0.207554,0.297150,-0.245819,0.003864,0.000269,-0.668079,0.587323,1.049392,1.253899,-0.189800,0.023961,0.058069,0.030835,-0.045487,-0.061246
0.112156,0.127705,-0.136863,0.015678,0.010084,0.050816,0.228417,-0.001940,0.274087,0.224602,0.195623,0.006628,-0.133809,-0.231853,-0.207166,0.298028,-0.244198,0.004425,-0.000163,-0.667622,0.585009,1.047594,1.255996,-0.192583,0.025870,0.057932,0.031221,-0.045726,-0.063854
0.112156,0.128894,-0.138344,0.015678,0.010084,0.050816,0.227155,-0.001940,0.268412,0.222696,0.193875,0.011760,-0.130135,-0.230324,-0.207166,0.298028,-0.244198,0.004425,-0.000163,-0.667622,0.582227,1.046021,1.257379,-0.194304,0.025870,0.057932,0.031221,-0.045726,-0.065744
0.113588,0.130301,-0.140048,0.014148,0.009094,0.049636,0.225868,-0.003596,0.262924,0.220514,0.191911,0.016750,-0.126010,-0.229239,-0.207385,0.298508,-0.242462,0.003815,-0.000759,-0.667162,0.578230,1.044321,1.257840,-0.195757,0.027184,0.057267,0.031538,-0.045760,-0.067314
0.113588,0.131819,-0.141862,0.014148,0.009094,0.049636,0.224568,-0.004871,0.257527,0.218193,0.189838,0.021668,-0.121660,-0.229239,-0.207385,0.298508,-0.242462,0.003815,-0.000759,-0.667162,0.573627,1.042557,1.257840,-0.195757,0.027184,0.057267,0.031538,-0.045760,-0.068723
0.115999,0.132760,-0.142688,0.012757,0.008282,0.048741,0.223839,-0.005515,0.252344,0.215041,0.188287,0.026114,-0.116779,-0.228664,-0.207850,0.299455,-0.241460,0.004030,-0.000277,-0.665865,0.570201,1.040673,1.256365,-0.196637,0.027786,0.056905,0.031565,-0.045408,-0.069404
0.117494,0.134139,-0.143573,0.011421,0.007901,0.048112,0.222703,-0.006158,0.247231,0.212077,0.186666,0.030302,-0.112002,-0.227770,-0.207839,0.300168,-0.241358,0.003929,-0.000311,-0.665320,0.566964,1.038472,1.254944,-0.197288,0.027217,0.056759,0.031513,-0.045425,-0.070163
0.118959,0.135449,-0.143573,0.011421,0.007901,0.048112,0.222703,-0.006158,0.242255,0.209492,0.184904,0.033972,-0.107432,-0.227770,-0.207839,0.300168,-0.241358,0.003929,-0.000311,-0.665320,0.566964,1.038472,1.254944,-0.197288,0.027217,0.056759,0.031513,-0.045425,-0.070163
0.120194,0.136603,-0.142942,0.010796,0.007292,0.047911,0.222002,-0.006642,0.237370,0.207547,0.183419,0.036823,-0.103565,-0.225983,-0.207608,0.300806,-0.241464,0.003554,-0.000808,-0.666634,0.566012,1.037527,1.254819,-0.197339,0.027122,0.056763,0.031472,-0.045788,-0.069907
0.120194,0.136603,-0.142942,0.010796,0.007292,0.047911,0.222002,-0.006642,0.232530,0.205923,0.182073,0.039265,-0.100048,-0.225983,-0.207608,0.300806,-0.241464,0.003554,-0.000808,-0.666634,0.566012,1.037527,1.254819,-0.197339,0.027122,0.056763,0.031472,-0.045788,-0.069907
0.122225,0.138122,-0.141270,0.010613,0.007675,0.047818,0.221979,-0.006559,0.228396,0.204994,0.181598,0.041525,-0.097055,-0.225482,-0.207535,0.301083,-0.241685,0.002886,-0.000817,-0.667362,0.567210,1.037526,1.255877,-0.197289,0.027131,0.056996,0.031894,-0.046115,-0.069574
0.124027,0.139607,-0.139353,0.010726,0.008094,0.047660,0.222252,-0.006474,0.224555,0.203707,0.181036,0.043622,-0.094149,-0.226556,-0.208081,0.301578,-0.241597,0.003187,-0.001095,-0.665831,0.566675,1.036611,1.255947,-0.196670,0.026841,0.056641,0.032099,-0.046082,-0.069326
0.124027,0.139607,-0.139353,0.010726,0.008094,0.047660,0.222252,-0.006474,0.221301,0.203707,0.181036,0.045391,-0.091421,-0.226556,-0.208081,0.301578,-0.241597,0.003187,-0.001095,-0.665831,0.566675,1.036611,1.255947,-0.196670,0.026841,0.056641,0.032099,-0.046082,-0.069326
0.125986,0.141538,-0.137683,0.011369,0.008358,0.047627,0.221830,-0.006136,0.218962,0.203685,0.180741,0.046751,-0.088973,-0.227487,-0.208397,0.301824,-0.242500,0.003477,-0.001659,-0.663774,0.564788,1.035639,1.254510,-0.195922,0.026613,0.056455,0.032349,-0.045919,-0.068946
0.127509,0.143408,-0.137683,0.011369,0.008358,0.047627,0.221830,-0.006136,0.217080,0.203685,0.180741,0.047907,-0.086666,-0.227487,-0.208397,0.301824,-0.242500,0.003477,-0.001659,-0.663774,0.564788,1.035639,1.254510,-0.195922,0.026613,0.056455,0.032349,-0.045919,-0.068946
0.129342,0.145691,-0.136418,0.011631,0.009043,0.047262,0.221375,-0.006224,0.216466,0.204522,0.180430,0.048705,-0.085201,-0.228394,-0.209179,0.302468,-0.243521,0.003600,-0.002155,-0.661475,0.563359,1.034560,1.252959,-0.196102,0.026610,0.056477,0.032549,-0.046527,-0.068521
0.131066,0.147687,-0.135889,0.011740,0.009037,0.046369,0.221050,-0.007538,0.215852,0.205670,0.180782,0.049502,-0.083761,-0.229414,-0.210505,0.303478,-0.244508,0.003364,-0.002379,-0.660489,0.563009,1.033321,1.251788,-0.196834,0.026657,0.056599,0.032080,-0.046878,-0.068834
0.132571,0.149109,-0.135889,0.011740,0.009037,0.046369,0.221050,-0.007538,0.215852,0.205670,0.182142,0.049502,-0.083761,-0.229414,-0.210505,0.303478,-0.244508,0.003364,-0.002379,-0.660489,0.563009,1.033321,1.251788,-0.196834,0.026657,0.056599,0.032080,-0.046878,-0.068834
0.134016,0.150208,-0.135519,0.011705,0.008621,0.045854,0.220368,-0.009042,0.217002,0.206732,0.184083,0.048859,-0.083633,-0.230761,-0.211989,0.304956,-0.244995,0.002749,-0.002670,-0.660652,0.563689,1.032744,1.251112,-0.196998,0.026873,0.056618,0.031538,-0.047229,-0.069194
0.135431,0.150208,-0.135519,0.011705,0.008621,0.045854,0.220368,-0.009042,0.217002,0.206732,0.186314,0.048859,-0.083633,-0.232106,-0.211989,0.304956,-0.244995,0.002749,-0.002670,-0.660652,0.563689,1.032744,1.251112,-0.196998,0.026873,0.056618,0.031538,-0.047229,-0.069194
0.136293,0.151386,-0.135343,0.012201,0.008874,0.044974,0.219737,-0.010059,0.219017,0.207819,0.188140,0.047394,-0.085222,-0.233488,-0.214227,0.306459,-0.245914,0.002340,-0.003644,-0.661486,0.565604,1.032381,1.250941,-0.196358,0.026862,0.057201,0.031536,-0.047310,-0.068921
0.137376,0.152534,-0.135908,0.012095,0.008398,0.043912,0.219179,-0.010938,0.220490,0.209089,0.190295,0.045873,-0.086576,-0.233767,-0.215902,0.307755,-0.246201,0.002309,-0.003523,-0.662231,0.566125,1.032918,1.251031,-0.195862,0.027522,0.057738,0.031526,-0.047620,-0.068547
0.137376,0.152534,-0.135908,0.012095,0.008398,0.043912,0.219179,-0.010938,0.222299,0.210886,0.190295,0.043962,-0.088128,-0.233767,-0.215902,0.307755,-0.246201,0.002309,-0.003523,-0.662231,0.566125,1.032918,1.251031,-0.195862,0.027522,0.057738,0.031526,-0.047620,-0.068547
0.137418,0.153130,-0.137170,0.011731,0.007560,0.042600,0.218508,-0.012075,0.224355,0.212419,0.192236,0.041736,-0.089565,-0.233677,-0.217112,0.308326,-0.246304,0.002143,-0.002830,-0.661633,0.564733,1.033782,1.249783,-0.195977,0.027847,0.057984,0.031395,-0.047785,-0.068807
0.137418,0.153130,-0.137170,0.011731,0.007560,0.042600,0.218508,-0.012075,0.226535,0.212419,0.193739,0.039353,-0.089565,-0.233677,-0.217112,0.308326,-0.246304,0.002143,-0.002830,-0.661633,0.563250,1.033782,1.248597,-0.195977,0.027847,0.057984,0.031395,-0.047785,-0.068807
0.136590,0.151910,-0.137781,0.011829,0.007584,0.041738,0.217706,-0.012819,0.229278,0.214725,0.196023,0.036147,-0.091288,-0.236364,-0.218391,0.308972,-0.246438,0.002864,-0.003290,-0.659814,0.562521,1.035178,1.247006,-0.196676,0.027829,0.058027,0.030573,-0.047412,-0.069362
0.135418,0.149999,-0.136734,0.012676,0.007930,0.041263,0.217562,-0.012931,0.232388,0.216688,0.198234,0.032586,-0.092568,-0.238075,-0.219421,0.308743,-0.247364,0.003367,-0.003319,-0.657869,0.562724,1.036468,1.245374,-0.197763,0.028195,0.057625,0.029987,-0.047185,-0.069579
0.133854,0.149999,-0.136734,0.012676,0.007930,0.041263,0.217562,-0.012931,0.236233,0.219834,0.200299,0.028317,-0.093995,-0.238075,-0.219421,0.308743,-0.247364,0.003367,-0.003319,-0.657869,0.562724,1.037724,1.243659,-0.197763,0.028195,0.057625,0.029987,-0.047185,-0.069579
0.131944,0.147854,-0.135136,0.013780,0.008057,0.040926,0.217967,-0.013485,0.240685,0.223019,0.202561,0.023806,-0.095676,-0.239819,-0.220450,0.307922,-0.248451,0.003601,-0.002595,-0.655299,0.563656,1.038293,1.241880,-0.198606,0.027954,0.057739,0.029764,-0.047277,-0.070163
0.129862,0.146150,-0.135136,0.013780,0.008057,0.040926,0.217967,-0.013485,0.245441,0.226223,0.204921,0.019175,-0.097484,-0.242002,-0.220450,0.307922,-0.248451,0.003601,-0.002595,-0.652877,0.563656,1.038293,1.240070,-0.198606,0.027954,0.057739,0.029764,-0.047277,-0.070163
0.126989,0.143812,-0.133791,0.015126,0.008487,0.040804,0.217926,-0.013826,0.250900,0.230583,0.207802,0.014128,-0.099670,-0.243793,-0.222055,0.306974,-0.249316,0.003745,-0.002548,-0.650010,0.563138,1.038444,1.238107,-0.199580,0.027775,0.057729,0.029308,-0.047286,-0.071169
0.123863,0.141226,-0.133145,0.016271,0.009604,0.040279,0.217770,-0.014096,0.256729,0.235490,0.211124,0.009032,-0.102043,-0.245916,-0.223496,0.305715,-0.250165,0.003432,-0.001751,-0.647011,0.561441,1.038364,1.236034,-0.200242,0.027914,0.057185,0.029010,-0.046839,-0.072377
0.120233,0.138148,-0.133145,0.017620,0.009604,0.040279,0.217770,-0.014096,0.263298,0.241488,0.215330,0.003841,-0.104790,-0.248702,-0.223496,0.305715,-0.250165,0.003432,-0.001751,-0.643746,0.558846,1.038364,1.233745,-0.200242,0.027914,0.057185,0.029010,-0.046839,-0.072377
0.115837,0.134536,-0.133788,0.019125,0.010674,0.040350,0.218138,-0.014112,0.270708,0.248876,0.220339,-0.001980,-0.108002,-0.252186,-0.225700,0.304075,-0.251008,0.002960,-0.001184,-0.640870,0.555919,1.039670,1.231735,-0.200960,0.026775,0.056590,0.028675,-0.046141,-0.073548
0.111058,0.130658,-0.133788,0.020710,0.010674,0.040350,0.218138,-0.014112,0.278538,0.256957,0.225748,-0.008115,-0.111445,-0.256019,-0.228181,0.304075,-0.251008,0.002960,-0.001184,-0.638188,0.552827,1.039670,1.229864,-0.200960,0.026775,0.056590,0.028675,-0.046141,-0.073548
0.105516,0.125695,-0.134890,0.022597,0.011825,0.040420,0.218383,-0.013680,0.287434,0.266308,0.233227,-0.015398,-0.115469,-0.261148,-0.231058,0.301568,-0.251400,0.003240,-0.001621,-0.634984,0.549791,1.042504,1.228549,-0.201537,0.025997,0.056267,0.028483,-0.045815,-0.074750
0.099780,0.120468,-0.135937,0.024392,0.012785,0.040635,0.218498,-0.014062,0.296752,0.275990,0.241147,-0.023042,-0.119829,-0.265858,-0.233876,0.299854,-0.252139,0.004195,-0.001218,-0.632352,0.547248,1.044645,1.227955,-0.201834,0.025338,0.056318,0.027855,-0.045651,-0.075961
0.093656,0.114712,-0.135937,0.026003,0.012785,0.040635,0.218498,-0.014062,0.306914,0.286335,0.249951,-0.031409,-0.124864,-0.269728,-0.236578,0.298062,-0.252139,0.004195,-0.001218,-0.630867,0.545690,1.047367,1.227955,-0.201834,0.025338,0.056318,0.027855,-0.045651,-0.075961
0.087177,0.107844,-0.136481,0.027386,0.013122,0.040372,0.219278,-0.013792,0.317006,0.296184,0.259602,-0.040231,-0.130158,-0.273240,-0.239424,0.296128,-0.252751,0.005317,-0.000866,-0.629649,0.545170,1.050395,1.228908,-0.202357,0.024528,0.056549,0.027384,-0.044972,-0.077228
0.080520,0.100420,-0.137421,0.029527,0.013013,0.039504,0.220981,-0.012731,0.327064,0.305786,0.269676,-0.049282,-0.135581,-0.276573,-0.242342,0.294124,-0.251835,0.005798,-0.000479,-0.628477,0.544185,1.053576,1.228760,-0.201841,0.024038,0.056328,0.027254,-0.043892,-0.078374
0.073678,0.091847,-0.137421,0.029527,0.013013,0.039504,0.220981,-0.012731,0.337048,0.314346,0.280383,-0.058490,-0.140048,-0.277902,-0.244346,0.292030,-0.251835,0.005798,-0.000479,-0.628477,0.544185,1.056498,1.228760,-0.201841,0.024038,0.056328,0.027254,-0.043892,-0.078374
0.067555,0.083260,-0.138685,0.029864,0.012474,0.038447,0.222636,-0.011336,0.347444,0.321626,0.291224,-0.067795,-0.143613,-0.279269,-0.246667,0.289989,-0.251667,0.005999,0.000233,-0.627373,0.542316,1.059010,1.225710,-0.201993,0.023323,0.056430,0.027293,-0.043337,-0.079507
0.062873,0.074644,-0.138685,0.029864,0.011156,0.036569,0.224721,-0.009318,0.358664,0.326344,0.302332,-0.077293,-0.145375,-0.279269,-0.249623,0.288051,-0.251667,0.005999,0.000233,-0.625408,0.538678,1.060703,1.219012,-0.201993,0.022069,0.056430,0.027293,-0.043337,-0.079507
0.059708,0.066143,-0.139904,0.028061,0.009282,0.034306,0.227210,-0.007219,0.370565,0.328238,0.313474,-0.086679,-0.144819,-0.279749,-0.253186,0.286303,-0.252986,0.007486,0.000475,-0.622584,0.533605,1.061267,1.207686,-0.203088,0.019957,0.056505,0.026588,-0.042353,-0.081022
0.057302,0.057698,-0.139904,0.026158,0.007128,0.031851,0.229900,-0.005079,0.382808,0.328238,0.324633,-0.096008,-0.143105,-0.279749,-0.257053,0.284650,-0.254747,0.007486,0.000475,-0.619331,0.527814,1.061267,1.194047,-0.203088,0.017417,0.056505,0.026588,-0.042353,-0.082309
0.055062,0.047861,-0.141761,0.023398,0.004388,0.028721,0.232181,-0.002586,0.396522,0.328007,0.337915,-0.105755,-0.136376,-0.278693,-0.260830,0.283129,-0.259032,0.008852,0.002256,-0.614542,0.519404,1.061116,1.170849,-0.205258,0.012471,0.054756,0.023244,-0.041115,-0.085095
0.052312,0.037695,-0.143144,0.020632,0.001583,0.025371,0.234478,-0.000138,0.410392,0.327834,0.351504,-0.115410,-0.128544,-0.278110,-0.265179,0.281386,-0.263543,0.010069,0.003855,-0.609179,0.510607,1.060315,1.146035,-0.206664,0.006772,0.053392,0.020203,-0.039503,-0.088233
0.048541,0.026872,-0.144777,0.017857,-0.001354,0.021578,0.236806,0.002221,0.424574,0.328972,0.365707,-0.124879,-0.118505,-0.278110,-0.270672,0.281386,-0.268505,0.010069,0.003855,-0.602668,0.501037,1.058673,1.117991,-0.207885,-0.000431,0.051861,0.016557,-0.039503,-0.092075
0.042201,0.012968,-0.146153,0.014824,-0.004635,0.017509,0.238963,0.004794,0.437638,0.332038,0.383166,-0.134502,-0.107581,-0.279666,-0.277259,0.280656,-0.273851,0.011494,0.004630,-0.595947,0.493397,1.056801,1.091759,-0.209322,-0.004926,0.050476,0.011582,-0.037974,-0.096601
0.034575,-0.002477,-0.147400,0.011663,-0.008089,0.013301,0.241034,0.007474,0.450143,0.336067,0.402254,-0.144200,-0.096215,-0.281595,-0.284393,0.280809,-0.279390,0.012864,0.004619,-0.589121,0.486722,1.054813,1.066433,-0.210868,-0.007574,0.049164,0.005943,-0.036435,-0.101469
0.022570,-0.022335,-0.150846,0.008300,-0.012277,0.009060,0.242883,0.009379,0.459682,0.342946,0.424186,-0.153808,-0.084188,-0.283780,-0.292636,0.280809,-0.283917,0.012864,0.006261,-0.583799,0.477917,1.052751,1.047100,-0.212205,-0.007574,0.047709,-0.001155,-0.036435,-0.106725
0.010420,-0.042168,-0.154822,0.004609,-0.016689,0.004749,0.244590,0.011442,0.469034,0.349806,0.446015,-0.163756,-0.071885,-0.285936,-0.300979,0.281792,-0.288272,0.014309,0.007356,-0.579328,0.468497,1.050667,1.030575,-0.212688,-0.006649,0.046278,-0.008060,-0.034785,-0.111487
-0.002023,-0.061955,-0.159856,0.000262,-0.021550,0.000296,0.246016,0.013820,0.478011,0.356626,0.467639,-0.174384,-0.059028,-0.288031,-0.309525,0.283358,-0.292281,0.014309,0.007356,-0.576559,0.457847,1.048538,1.019668,-0.211461,-0.005351,0.044895,-0.014577,-0.034785,-0.115260
-0.014688,-0.081450,-0.164973,-0.004267,-0.026195,-0.003544,0.247094,0.016459,0.485343,0.362866,0.487909,-0.185375,-0.045430,-0.290460,-0.317939,0.285015,-0.295988,0.015907,0.008334,-0.574636,0.448218,1.046692,1.016032,-0.208543,-0.000724,0.044001,-0.021161,-0.033096,-0.119180
-0.027465,-0.100800,-0.170131,-0.008887,-0.030733,-0.007960,0.247021,0.019229,0.491852,0.368817,0.507503,-0.196548,-0.031461,-0.293056,-0.326288,0.286717,-0.299542,0.016505,0.008794,-0.573429,0.439101,1.044988,1.015999,-0.204779,0.005567,0.043439,-0.027777,-0.031504,-0.123174
-0.041787,-0.119493,-0.175842,-0.012558,-0.034377,-0.007960,0.247021,0.020530,0.495142,0.374613,0.523744,-0.208406,-0.015074,-0.295424,-0.332821,0.288293,-0.302665,0.016505,0.008794,-0.573429,0.431101,1.043362,1.025514,-0.202632,0.016651,0.043439,-0.034330,-0.031504,-0.128239
-0.055693,-0.137040,-0.181625,-0.015880,-0.037706,-0.008253,0.245806,0.021397,0.497788,0.380096,0.538412,-0.220254,0.002517,-0.297687,-0.339127,0.289782,-0.305845,0.015541,0.008350,-0.572753,0.423525,1.041401,1.036633,-0.200418,0.027327,0.042694,-0.040530,-0.030156,-0.133032
-0.068765,-0.152294,-0.187553,-0.018505,-0.040404,-0.008253,0.244182,0.021397,0.499145,0.384955,0.549935,-0.232080,0.022515,-0.299739,-0.344978,0.291100,-0.309139,0.015541,0.006846,-0.572753,0.416798,1.041401,1.050962,-0.200418,0.037187,0.042694,-0.046025,-0.030156,-0.137278
-0.079960,-0.164600,-0.193792,-0.021049,-0.042826,-0.006222,0.240952,0.020180,0.500107,0.388759,0.559279,-0.243551,0.045691,-0.301593,-0.350562,0.292392,-0.312819,0.014036,0.005330,-0.571249,0.410996,1.038568,1.065762,-0.197034,0.044084,0.041431,-0.049116,-0.028474,-0.139756
-0.090216,-0.175433,-0.200187,-0.023552,-0.045112,-0.004057,0.236918,0.018385,0.500617,0.392036,0.567535,-0.254846,0.070456,-0.304076,-0.356012,0.293671,-0.316692,0.012809,0.004315,-0.570214,0.405657,1.035633,1.080798,-0.193131,0.049499,0.040030,-0.050070,-0.026879,-0.140812
-0.097824,-0.182258,-0.206671,-0.025835,-0.047155,-0.000862,0.231218,0.015186,0.500617,0.394999,0.573780,-0.264429,0.098462,-0.304076,-0.361444,0.295185,-0.321216,0.011479,0.002231,-0.570214,0.403378,1.029939,1.097106,-0.187474,0.054221,0.040030,-0.050070,-0.024494,-0.140812
-0.104068,-0.187655,-0.212920,-0.028244,-0.049232,0.002608,0.225632,0.011932,0.500255,0.397796,0.579592,-0.273221,0.126776,-0.305261,-0.366808,0.296926,-0.325956,0.010019,0.000013,-0.570044,0.402483,1.023330,1.113860,-0.182273,0.058255,0.038531,-0.047979,-0.022089,-0.139018
-0.107582,-0.190192,-0.218699,-0.028244,-0.049232,0.006627,0.220274,0.008570,0.500255,0.400263,0.584536,-0.280432,0.155704,-0.306632,-0.372034,0.299121,-0.331126,0.008298,-0.002469,-0.570044,0.402483,1.014890,1.131504,-0.177984,0.060910,0.038531,-0.044508,-0.019640,-0.135250
-0.109532,-0.190431,-0.224634,-0.029129,-0.049946,0.010641,0.215206,0.005106,0.498728,0.403643,0.589071,-0.285089,0.184615,-0.307993,-0.376828,0.301917,-0.336320,0.006072,-0.005326,-0.571450,0.403244,1.005582,1.148841,-0.174110,0.060613,0.036842,-0.039410,-0.016854,-0.129732
-0.109532,-0.190431,-0.230646,-0.029129,-0.049946,0.014652,0.210285,0.001590,0.497216,0.407481,0.593403,-0.288468,0.213516,-0.309348,-0.381405,0.305013,-0.341527,0.003594,-0.008371,-0.572919,0.403244,0.995839,1.166025,-0.170443,0.058839,0.036842,-0.033497,-0.013898,-0.123339
-0.110309,-0.187951,-0.236613,-0.026557,-0.047773,0.019022,0.206451,-0.001508,0.492293,0.413186,0.597886,-0.285734,0.240536,-0.312572,-0.386122,0.308752,-0.346485,0.000039,-0.012521,-0.573489,0.402988,0.983949,1.183530,-0.166107,0.055224,0.034050,-0.026735,-0.010440,-0.117357
-0.109862,-0.186101,-0.242200,-0.024154,-0.045655,0.023135,0.203313,-0.004323,0.486231,0.419316,0.602832,-0.281030,0.266233,-0.316641,-0.391190,0.312660,-0.351635,-0.003909,-0.016666,-0.574059,0.401701,0.971436,1.200971,-0.161729,0.052371,0.032360,-0.020920,-0.007134,-0.112213
-0.109862,-0.184293,-0.247031,-0.021158,-0.042850,0.026737,0.201565,-0.004323,0.477890,0.426295,0.608705,-0.272387,0.289284,-0.322402,-0.396959,0.316907,-0.357169,-0.008645,-0.020802,-0.574059,0.401701,0.957677,1.218284,-0.157265,0.051041,0.030987,-0.016996,-0.004135,-0.108744
-0.108336,-0.181167,-0.250740,-0.015404,-0.037567,0.030576,0.201569,-0.004346,0.467464,0.437185,0.614559,-0.257307,0.309986,-0.330654,-0.403308,0.321903,-0.363545,-0.014644,-0.025904,-0.573460,0.398475,0.942486,1.233472,-0.153783,0.049585,0.029204,-0.012925,-0.000803,-0.104960
-0.107437,-0.177382,-0.253887,-0.008270,-0.031044,0.034534,0.202155,-0.003619,0.455995,0.450030,0.620405,-0.239007,0.329514,-0.340151,-0.409948,0.327273,-0.370344,-0.021275,-0.031489,-0.571880,0.394978,0.926578,1.247599,-0.150792,0.048572,0.027216,-0.008780,0.002695,-0.101018
-0.107437,-0.171807,-0.253887,0.003867,-0.020121,0.040414,0.204748,-0.000983,0.442966,0.471566,0.626444,-0.213318,0.343378,-0.353809,-0.415749,0.332795,-0.379375,-0.028521,-0.038356,-0.570390,0.392725,0.909553,1.259565,-0.149280,0.046290,0.024624,-0.003138,0.006651,-0.096274
-0.107928,-0.165738,-0.252954,0.017362,-0.008595,0.046449,0.208865,0.002143,0.430070,0.496818,0.633510,-0.186365,0.354886,-0.368531,-0.421478,0.337912,-0.389181,-0.035638,-0.045215,-0.568944,0.392024,0.893275,1.270794,-0.147278,0.043912,0.022241,0.002366,0.011103,-0.091556
-0.107928,-0.158678,-0.248956,0.033571,0.004139,0.052793,0.216033,0.006248,0.417439,0.529505,0.642632,-0.156886,0.361678,-0.385381,-0.427063,0.342220,-0.400540,-0.042499,-0.052059,-0.568944,0.394428,0.878487,1.280551,-0.144297,0.043912,0.020279,0.007593,0.016549,-0.086891
-0.114487,-0.150197,-0.241336,0.050624,0.015508,0.058232,0.223375,0.010365,0.406944,0.576568,0.654016,-0.126910,0.360958,-0.401266,-0.436360,0.344581,-0.411444,-0.047720,-0.058021,-0.568491,0.401867,0.865592,1.291464,-0.138467,0.045152,0.020599,0.011939,0.023121,-0.083065
-0.123065,-0.141005,-0.231904,0.068099,0.026194,0.063219,0.230803,0.014487,0.397515,0.630818,0.666532,-0.096687,0.356480,-0.416667,-0.447512,0.345968,-0.422121,-0.052120,-0.063541,-0.568491,0.411824,0.853643,1.302954,-0.131212,0.048298,0.020599,0.015844,0.030254,-0.079660
-0.143461,-0.126608,-0.219022,0.087971,0.035780,0.067980,0.231467,0.016683,0.393181,0.712460,0.678363,-0.068376,0.335337,-0.414073,-0.462400,0.345968,-0.429154,-0.058612,-0.071431,-0.572583,0.439895,0.846676,1.322700,-0.117082,0.058971,0.027743,0.019577,0.041134,-0.077944
-0.168274,-0.109301,-0.205054,0.108230,0.044499,0.072006,0.230639,0.019086,0.390291,0.801367,0.686950,-0.041887,0.309499,-0.392761,-0.475315,0.345622,-0.434653,-0.064472,-0.079229,-0.578798,0.472252,0.842761,1.342942,-0.102578,0.070821,0.034456,0.023150,0.051798,-0.075968
-0.201921,-0.086177,-0.188915,0.129266,0.051487,0.074562,0.226168,0.021903,0.390291,0.904808,0.689052,-0.019044,0.274270,-0.334011,-0.484285,0.343660,-0.437087,-0.069066,-0.086840,-0.588103,0.513181,0.844948,1.364178,-0.087330,0.085024,0.042259,0.026403,0.062031,-0.075968
-0.239884,-0.063008,-0.170834,0.143180,0.055830,0.075062,0.216431,0.026062,0.389029,1.001795,0.690947,0.003137,0.234033,-0.280075,-0.492582,0.341307,-0.437898,-0.073169,-0.093151,-0.597961,0.553549,0.850717,1.380131,-0.076114,0.096162,0.048304,0.028481,0.067737,-0.074011
-0.280006,-0.039816,-0.151784,0.153535,0.058388,0.074711,0.204062,0.030892,0.387452,1.095556,0.692739,0.024987,0.191290,-0.228545,-0.500541,0.338191,-0.437750,-0.077025,-0.098811,-0.608095,0.593638,0.858276,1.393444,-0.066915,0.105766,0.053471,0.030762,0.070724,-0.071456
-0.319155,-0.022134,-0.134110,0.150408,0.058388,0.071144,0.190799,0.036122,0.383443,1.154088,0.700113,0.048810,0.139425,-0.234339,-0.512756,0.338191,-0.432081,-0.080607,-0.101516,-0.617214,0.623430,0.867099,1.400144,-0.060882,0.110877,0.057296,0.030762,0.070724,-0.071456
-0.356784,-0.004287,-0.117808,0.148934,0.057002,0.066310,0.181245,0.040527,0.379474,1.201595,0.708435,0.073829,0.085873,-0.240991,-0.525535,0.338122,-0.423782,-0.082298,-0.104403,-0.624002,0.647051,0.876093,1.403972,-0.058092,0.115150,0.060281,0.032206,0.069042,-0.070997
-0.391371,0.013889,-0.104248,0.150767,0.054229,0.058941,0.181245,0.043280,0.375586,1.227053,0.718651,0.101238,0.028952,-0.249359,-0.539440,0.339611,-0.410223,-0.082298,-0.107655,-0.624002,0.658331,0.885431,1.402059,-0.061786,0.117744,0.061585,0.032206,0.065363,-0.072221
-0.422235,0.033462,-0.091809,0.157547,0.050594,0.051155,0.187625,0.044052,0.371916,1.231558,0.728113,0.129676,-0.027858,-0.253839,-0.553055,0.342249,-0.394883,-0.075900,-0.109956,-0.620547,0.661799,0.894071,1.394014,-0.072461,0.119596,0.060459,0.032431,0.058902,-0.074088
-0.451237,0.053733,-0.079931,0.166800,0.046528,0.043161,0.198262,0.044052,0.368354,1.225587,0.737197,0.158628,-0.084610,-0.256374,-0.566524,0.345460,-0.378652,-0.067349,-0.111781,-0.614301,0.661799,0.902361,1.382901,-0.086626,0.119596,0.058118,0.032431,0.051049,-0.076277
-0.475623,0.070654,-0.068354,0.178676,0.042791,0.037113,0.216337,0.043515,0.364647,1.192192,0.749848,0.186177,-0.142999,-0.258734,-0.580755,0.352641,-0.362812,-0.056904,-0.112659,-0.614301,0.665055,0.904379,1.367376,-0.089335,0.122221,0.057345,0.029356,0.041758,-0.078451
-0.497911,0.086116,-0.056844,0.189310,0.039498,0.031443,0.235478,0.044065,0.361200,1.151071,0.764829,0.213884,-0.202234,-0.260711,-0.595051,0.360848,-0.346768,-0.048196,-0.114010,-0.615333,0.670623,0.904756,1.351632,-0.087189,0.124160,0.057291,0.026350,0.033690,-0.080657
-0.516004,0.098658,-0.045463,0.197461,0.037090,0.026530,0.256749,0.046890,0.358275,1.094499,0.784473,0.241907,-0.263163,-0.260711,-0.609478,0.371111,-0.330317,-0.042965,-0.114010,-0.618521,0.680234,0.901847,1.335449,-0.075330,0.126700,0.059447,0.022628,0.028068,-0.082925
-0.530081,0.109283,-0.035099,0.198932,0.034379,0.021427,0.275306,0.050065,0.354834,1.025216,0.806945,0.272262,-0.323930,-0.258273,-0.625210,0.382470,-0.312622,-0.045748,-0.113354,-0.618897,0.689555,0.894562,1.318055,-0.065757,0.127547,0.060943,0.019579,0.024307,-0.084783
-0.542150,0.118949,-0.025244,0.197064,0.031516,0.016228,0.292506,0.053414,0.351136,0.949578,0.830831,0.303784,-0.384616,-0.254010,-0.641595,0.394378,-0.294303,-0.052538,-0.111661,-0.618897,0.698730,0.885087,1.300057,-0.057327,0.127547,0.060943,0.016865,0.021476,-0.086436
-0.547893,0.127406,-0.017732,0.191069,0.030547,0.011761,0.306118,0.056910,0.346852,0.862341,0.857224,0.339035,-0.441320,-0.240439,-0.659159,0.408768,-0.275029,-0.075059,-0.109190,-0.615519,0.705164,0.869982,1.277032,-0.057327,0.123400,0.060228,0.014771,0.019207,-0.086785
-0.552655,0.135406,-0.011091,0.184578,0.030047,0.008363,0.318328,0.060247,0.341239,0.774252,0.883244,0.375056,-0.495574,-0.223422,-0.677128,0.423493,-0.255870,-0.099431,-0.106195,-0.612275,0.710259,0.852982,1.253143,-0.057097,0.118876,0.058456,0.012673,0.016703,-0.087316
-0.555454,0.142495,-0.006190,0.177098,0.031450,0.007104,0.327732,0.063266,0.332965,0.684461,0.908516,0.412616,-0.544929,-0.199517,-0.695906,0.438889,-0.236940,-0.127500,-0.102150,-0.607923,0.712676,0.832190,1.227525,-0.057097,0.112658,0.056128,0.010570,0.013733,-0.087316
-0.559919,0.148456,-0.001257,0.169912,0.034706,0.008746,0.331785,0.066925,0.322180,0.605937,0.934309,0.448704,-0.587414,-0.174514,-0.714639,0.452205,-0.220453,-0.151194,-0.096178,-0.602630,0.713482,0.812070,1.197859,-0.056125,0.106522,0.054536,0.008704,0.011118,-0.088111
-0.565217,0.153852,0.003692,0.162873,0.038887,0.011838,0.333162,0.070904,0.310139,0.533047,0.960364,0.484057,-0.626464,-0.148963,-0.733349,0.464482,-0.205187,-0.172700,-0.089243,-0.596866,0.713482,0.792287,1.166170,-0.054157,0.100427,0.053312,0.006958,0.008681,-0.088111
-0.568731,0.160616,0.009946,0.155178,0.042399,0.016851,0.324530,0.074059,0.299919,0.479540,0.986438,0.521914,-0.657056,-0.125684,-0.755400,0.476642,-0.192880,-0.183911,-0.081880,-0.583695,0.709766,0.767015,1.127920,-0.051392,0.092102,0.051331,0.005074,0.006764,-0.089354
-0.571987,0.169721,0.016749,0.148082,0.045770,0.022361,0.313411,0.077499,0.291460,0.436410,1.011719,0.558850,-0.684254,-0.108570,-0.778519,0.487992,-0.181867,-0.193223,-0.075142,-0.569069,0.706238,0.741428,1.087909,-0.048567,0.083353,0.049036,0.003080,0.005063,-0.090918
-0.574729,0.183511,0.024653,0.142181,0.048862,0.028867,0.297316,0.081510,0.286524,0.414032,1.035412,0.593945,-0.704664,-0.103786,-0.803775,0.497722,-0.173445,-0.198738,-0.069652,-0.551530,0.701943,0.715211,1.044374,-0.045625,0.073753,0.046115,0.000866,0.003791,-0.090918
-0.579357,0.199880,0.033994,0.137186,0.050425,0.034219,0.276659,0.085844,0.283900,0.414026,1.058880,0.624939,-0.718490,-0.105955,-0.830361,0.506482,-0.166591,-0.198857,-0.064554,-0.532901,0.698978,0.691185,0.999357,-0.041540,0.063093,0.043240,-0.001383,0.002716,-0.093952
-0.584927,0.217538,0.044052,0.132644,0.050425,0.038996,0.253720,0.090339,0.283900,0.425204,1.082237,0.653885,-0.729022,-0.111601,-0.857614,0.514757,-0.160521,-0.196278,-0.059651,-0.513725,0.696678,0.668254,0.953597,-0.036883,0.051901,0.040387,-0.003651,0.002716,-0.097103
-0.594503,0.237645,0.057072,0.127978,0.050455,0.041007,0.222904,0.095879,0.282177,0.464984,1.095020,0.674148,-0.728194,-0.121942,-0.866647,0.525691,-0.156811,-0.193759,-0.057465,-0.496669,0.703990,0.651228,0.901340,-0.031374,0.028672,0.036134,-0.004616,0.002066,-0.106830
-0.613452,0.253450,0.069535,0.123928,0.048507,0.041158,0.196955,0.100510,0.278623,0.512910,1.106878,0.688653,-0.726354,-0.107798,-0.872670,0.536799,-0.153351,-0.184661,-0.055594,-0.481953,0.716390,0.637319,0.848972,-0.026245,0.002691,0.031910,-0.004985,0.002174,-0.118385
-0.651145,0.260650,0.080884,0.121111,0.044172,0.037592,0.180739,0.103323,0.270193,0.577127,1.116886,0.691641,-0.723321,-0.044679,-0.872670,0.548257,-0.150387,-0.162404,-0.054352,-0.471915,0.738971,0.629644,0.796380,-0.021876,-0.028796,0.027743,-0.004985,0.004285,-0.133600
-0.699070,0.273773,0.091348,0.123766,0.044672,0.035609,0.164202,0.105414,0.272339,0.671989,1.125558,0.681615,-0.721778,-0.008920,-0.872670,0.563187,-0.146119,-0.141638,-0.054400,-0.468569,0.769981,0.623892,0.747078,-0.016590,-0.054876,0.025660,-0.006442,0.009408,-0.146911
-0.752111,0.289856,0.101369,0.129157,0.047590,0.034417,0.147504,0.107144,0.279774,0.782173,1.133562,0.665081,-0.721778,0.013157,-0.872670,0.579853,-0.141198,-0.121618,-0.054400,-0.468569,0.805205,0.619102,0.699421,-0.010846,-0.078253,0.025660,-0.009520,0.016037,-0.159271
-0.794537,0.313482,0.114492,0.132696,0.044528,0.030146,0.140319,0.103550,0.299885,0.883073,1.140747,0.632430,-0.721880,0.026282,-0.872670,0.602035,-0.138308,-0.094023,-0.059282,-0.475419,0.849233,0.610931,0.657892,-0.005326,-0.093878,0.025513,-0.019380,0.026373,-0.169142
-0.834591,0.334479,0.130283,0.136344,0.039389,0.025420,0.135992,0.100829,0.319390,0.977804,1.149187,0.598438,-0.725994,0.033046,-0.872670,0.623036,-0.135582,-0.063197,-0.064883,-0.480473,0.897638,0.599716,0.622444,-0.000436,-0.109039,0.025789,-0.030718,0.036855,-0.177831
-0.869899,0.350219,0.151409,0.140211,0.030095,0.019782,0.137382,0.100829,0.337683,1.060200,1.160138,0.561761,-0.736432,0.027085,-0.872670,0.641674,-0.133182,-0.025909,-0.072844,-0.480473,0.954799,0.582413,0.599160,0.003195,-0.123273,0.025789,-0.045011,0.047629,-0.184160
-0.908335,0.357581,0.172862,0.146113,0.025747,0.015532,0.134353,0.104365,0.350848,1.136041,1.170405,0.527914,-0.753782,0.009953,-0.872670,0.658693,-0.125009,-0.000910,-0.079812,-0.480047,1.016913,0.558081,0.589048,0.005417,-0.142891,0.024303,-0.058603,0.059392,-0.189201
-0.948332,0.360752,0.194477,0.153032,0.023871,0.011977,0.129114,0.110157,0.361450,1.208602,1.180332,0.495483,-0.774586,-0.012764,-0.872670,0.674902,-0.113950,0.017944,-0.086284,-0.478399,1.081502,0.530235,0.585524,0.006936,-0.165198,0.022479,-0.071843,0.071649,-0.193598
-0.984356,0.360235,0.211328,0.154246,0.023633,0.008293,0.123250,0.114052,0.375961,1.267122,1.191948,0.465052,-0.796612,-0.041007,-0.872670,0.690246,-0.097580,0.023285,-0.093168,-0.478399,1.134619,0.495966,0.598086,0.011518,-0.196236,0.019418,-0.082064,0.087819,-0.197278
-1.018332,0.359179,0.227532,0.154278,0.022386,0.003786,0.118504,0.116955,0.393122,1.321999,1.203639,0.435845,-0.820027,-0.068347,-0.872670,0.705902,-0.080694,0.027596,-0.101058,-0.479236,1.184976,0.460188,0.615611,0.018472,-0.230218,0.015097,-0.092808,0.106905,-0.201759
-1.048210,0.359179,0.242445,0.151947,0.019356,-0.002365,0.115993,0.116955,0.415583,1.369588,1.215478,0.409086,-0.846218,-0.093877,-0.872670,0.722182,-0.062777,0.027596,-0.110961,-0.480748,1.229809,0.421396,0.643060,0.030167,-0.270087,0.008256,-0.104598,0.131823,-0.207842
-1.077496,0.355751,0.253916,0.150123,0.015957,-0.009856,0.114846,0.116399,0.439692,1.410607,1.225759,0.387762,-0.873902,-0.113132,-0.872670,0.740609,-0.043889,0.030079,-0.120156,-0.485283,1.269185,0.378502,0.675296,0.043717,-0.312453,-0.004078,-0.116122,0.166469,-0.218778
-1.106487,0.351418,0.263666,0.147938,0.012683,-0.018016,0.114536,0.114699,0.464624,1.448341,1.235260,0.369155,-0.902333,-0.129249,-0.872670,0.760108,-0.024516,0.032676,-0.128999,-0.491329,1.305833,0.333556,0.709925,0.058194,-0.356069,-0.019160,-0.127513,0.205979,-0.232142
-1.134807,0.346233,0.267890,0.147938,0.012683,-0.021109,0.112460,0.114699,0.489294,1.479339,1.239161,0.357673,-0.922768,-0.141731,-0.872670,0.779492,-0.003902,0.037534,-0.133422,-0.498558,1.325989,0.279735,0.747771,0.081906,-0.401717,-0.049220,-0.138731,0.272851,-0.253177
-1.163891,0.339922,0.271219,0.146763,0.013916,-0.022488,0.109696,0.113348,0.508592,1.509217,1.242883,0.350543,-0.936969,-0.154269,-0.872670,0.797501,0.015394,0.042082,-0.137276,-0.506326,1.342780,0.225873,0.783146,0.110115,-0.444047,-0.084210,-0.149931,0.344822,-0.275539
-1.194504,0.331358,0.272760,0.145089,0.016690,-0.022488,0.105556,0.111814,0.517148,1.536851,1.246245,0.352113,-0.938702,-0.166922,-0.872670,0.812761,0.032050,0.046009,-0.139990,-0.515169,1.352844,0.171931,0.813581,0.147316,-0.479738,-0.129056,-0.161096,0.426989,-0.300554
-1.224930,0.320763,0.273015,0.143347,0.017525,-0.022073,0.102106,0.109102,0.520000,1.561903,1.250653,0.359141,-0.933854,-0.177839,-0.872670,0.825835,0.042926,0.049813,-0.140103,-0.524649,1.359603,0.118547,0.831423,0.183827,-0.506066,-0.173059,-0.170185,0.495073,-0.323661
-1.255264,0.309153,0.272755,0.140707,0.016969,-0.022340,0.099003,0.105801,0.520000,1.585663,1.255585,0.368898,-0.925714,-0.187887,-0.872670,0.837818,0.050911,0.053555,-0.139311,-0.534447,1.364709,0.065440,0.842968,0.219993,-0.527712,-0.216643,-0.178237,0.556116,-0.345815
-1.285270,0.293285,0.270906,0.140707,0.016969,-0.028088,0.096143,0.104031,0.520000,1.605724,1.264597,0.386210,-0.922790,-0.196469,-0.872670,0.853445,0.052617,0.055841,-0.137940,-0.543123,1.370365,0.014877,0.837610,0.255464,-0.545203,-0.255859,-0.182704,0.596546,-0.367047
-1.313732,0.278256,0.268244,0.139539,0.016503,-0.035098,0.093074,0.102381,0.520000,1.624707,1.272808,0.404582,-0.919924,-0.205153,-0.872670,0.869829,0.054926,0.057365,-0.136009,-0.552428,1.375980,-0.032607,0.827398,0.289447,-0.560247,-0.291752,-0.186116,0.631029,-0.386801
-1.339102,0.264906,0.263955,0.139539,0.016503,-0.044633,0.089586,0.100972,0.520000,1.641535,1.279417,0.425074,-0.919924,-0.214040,-0.872670,0.887730,0.058444,0.057365,-0.136009,-0.562991,1.381513,-0.073933,0.807477,0.320455,-0.570399,-0.321001,-0.187419,0.653621,-0.403597
-1.361874,0.254509,0.258797,0.139718,0.017735,-0.054561,0.085051,0.098393,0.520000,1.658430,1.285051,0.447030,-0.916874,-0.223420,-0.872670,0.909027,0.063442,0.056036,-0.134993,-0.574352,1.387527,-0.111024,0.778117,0.353858,-0.578171,-0.346682,-0.187750,0.671224,-0.418991
-1.383346,0.245589,0.253204,0.139771,0.019325,-0.064686,0.079994,0.095229,0.520000,1.675360,1.290198,0.469717,-0.913357,-0.233046,-0.872670,0.932023,0.068384,0.054473,-0.136101,-0.586113,1.393782,-0.145997,0.744035,0.388460,-0.584754,-0.370579,-0.187646,0.686334,-0.433684
-1.401542,0.239544,0.251044,0.139771,0.019325,-0.078516,0.074182,0.088959,0.520000,1.690681,1.293711,0.488364,-0.913357,-0.244195,-0.872670,0.961051,0.068384,0.050213,-0.136101,-0.598045,1.397513,-0.168777,0.706026,0.430603,-0.594504,-0.392966,-0.185609,0.698265,-0.449374
-1.419339,0.233680,0.248257,0.138822,0.020706,-0.092152,0.068602,0.082583,0.520000,1.704775,1.296053,0.503624,-0.914019,-0.254435,-0.872670,0.989122,0.068443,0.046105,-0.137224,-0.610204,1.400000,-0.188732,0.670889,0.471578,-0.603542,-0.413312,-0.182999,0.709126,-0.463877
-1.436336,0.228181,0.244213,0.137265,0.022976,-0.105402,0.063489,0.075995,0.520000,1.716415,1.296053,0.512111,-0.916956,-0.262860,-0.872670,1.015281,0.068443,0.042305,-0.139110,-0.622814,1.400000,-0.203035,0.641500,0.510218,-0.611158,-0.429575,-0.179241,0.717845,-0.476004
-1.452060,0.224188,0.239315,0.134718,0.025815,-0.115692,0.058187,0.067786,0.520000,1.727306,1.295406,0.516118,-0.919730,-0.269457,-0.872670,1.038828,0.071606,0.039934,-0.138863,-0.635394,1.400000,-0.215376,0.616065,0.545523,-0.618158,-0.442441,-0.174152,0.725264,-0.486340
-1.467148,0.220948,0.233991,0.131676,0.028940,-0.124500,0.052790,0.058768,0.520000,1.737821,1.295406,0.517885,-0.922422,-0.275140,-0.872670,1.061069,0.075067,0.038278,-0.138863,-0.647959,1.400000,-0.226735,0.592607,0.579161,-0.624849,-0.453609,-0.168399,0.732033,-0.495780
-1.484095,0.215941,0.231748,0.131875,0.036018,-0.128430,0.043755,0.053298,0.520000,1.748812,1.293707,0.514832,-0.927814,-0.278262,-0.872670,1.081043,0.079235,0.038278,-0.135357,-0.658493,1.400000,-0.232613,0.571741,0.609826,-0.631424,-0.462173,-0.162798,0.739566,-0.505585
-1.500965,0.210596,0.230253,0.133006,0.044050,-0.131464,0.034450,0.049011,0.520000,1.759318,1.291835,0.510880,-0.933042,-0.280343,-0.872670,1.099075,0.083387,0.038682,-0.132397,-0.667552,1.400000,-0.237105,0.552425,0.638436,-0.637261,-0.469637,-0.157338,0.747407,-0.514903
-1.517684,0.204576,0.230253,0.135805,0.053989,-0.132707,0.024607,0.049011,0.520000,1.768851,1.291835,0.505132,-0.937940,-0.280343,-0.872670,1.113224,0.087510,0.038682,-0.128775,-0.673663,1.400000,-0.238825,0.536210,0.662936,-0.641621,-0.474902,-0.152158,0.755865,-0.523246
-1.531295,0.199806,0.230552,0.137044,0.061626,-0.134960,0.017058,0.047574,0.520000,1.776225,1.289502,0.500814,-0.941504,-0.280433,-0.872670,1.125768,0.090510,0.040408,-0.125024,-0.678288,1.400000,-0.238531,0.523201,0.684094,-0.644872,-0.478436,-0.147560,0.764103,-0.531659
-1.543353,0.195660,0.230552,0.137044,0.068110,-0.137718,0.010655,0.047574,0.520000,1.782519,1.287417,0.497212,-0.944400,-0.280433,-0.872670,1.137510,0.092949,0.041870,-0.121209,-0.682172,1.400000,-0.238531,0.511796,0.703582,-0.647568,-0.481105,-0.143254,0.772231,-0.540108
-1.549582,0.194777,0.228565,0.135888,0.069023,-0.142829,0.008948,0.044386,0.520000,1.786186,1.284932,0.495424,-0.944400,-0.280751,-0.872670,1.151305,0.093761,0.042665,-0.120606,-0.686485,1.400000,-0.235095,0.505479,0.716920,-0.649510,-0.482776,-0.140782,0.778813,-0.547977
-1.555002,0.193745,0.226534,0.134179,0.069936,-0.148266,0.007301,0.041846,0.520000,1.789611,1.282513,0.492754,-0.945670,-0.281561,-0.872670,1.167369,0.094573,0.043800,-0.120599,-0.692119,1.400000,-0.232427,0.500272,0.729520,-0.651379,-0.484420,-0.138740,0.785367,-0.556086
-1.558805,0.193745,0.224046,0.134179,0.069936,-0.154356,0.005771,0.039011,0.520000,1.792554,1.280223,0.488320,-0.947391,-0.281561,-0.872670,1.187971,0.094573,0.043800,-0.122385,-0.700397,1.400000,-0.229559,0.497286,0.740643,-0.653100,-0.486010,-0.137558,0.791864,-0.564676
-1.560955,0.193163,0.222231,0.134259,0.068775,-0.162259,0.004444,0.038066,0.520000,1.794526,1.278431,0.481291,-0.950480,-0.283023,-0.872670,1.209288,0.095525,0.043285,-0.125222,-0.710405,1.400000,-0.228603,0.496291,0.750787,-0.654541,-0.487525,-0.137196,0.799226,-0.574067
-1.561836,0.192730,0.220336,0.135956,0.067481,-0.171070,0.003628,0.037727,0.520000,1.795360,1.276888,0.472966,-0.954253,-0.285564,-0.872670,1.230961,0.096769,0.042430,-0.128585,-0.721278,1.400000,-0.228833,0.495974,0.760440,-0.655408,-0.489208,-0.138090,0.807021,-0.583858
-1.557293,0.195278,0.220336,0.135956,0.063231,-0.181409,0.007043,0.039676,0.520000,1.795360,1.273355,0.465628,-0.958477,-0.285564,-0.872670,1.249454,0.096769,0.042430,-0.130323,-0.731843,1.400000,-0.233210,0.498899,0.768031,-0.655408,-0.489208,-0.138090,0.815994,-0.593757
-1.552283,0.198515,0.218960,0.136996,0.059237,-0.190631,0.010439,0.041958,0.520000,1.794053,1.268931,0.459611,-0.962950,-0.286529,-0.872670,1.267637,0.098445,0.042620,-0.131077,-0.741657,1.400000,-0.237776,0.502749,0.775005,-0.654616,-0.490291,-0.139611,0.824970,-0.603537
-1.546342,0.203127,0.217563,0.136996,0.055756,-0.197618,0.013800,0.041958,0.520000,1.792089,1.262723,0.456231,-0.967916,-0.286529,-0.872670,1.285202,0.098445,0.044324,-0.129862,-0.749971,1.400000,-0.242723,0.508449,0.780746,-0.653126,-0.490291,-0.141588,0.833950,-0.613078
-1.541296,0.206947,0.216190,0.137153,0.053810,-0.202212,0.015676,0.042505,0.520000,1.789780,1.257203,0.453514,-0.973201,-0.285783,-0.872670,1.301939,0.099949,0.045605,-0.129408,-0.756049,1.400000,-0.247540,0.516081,0.785487,-0.650947,-0.490678,-0.144169,0.842772,-0.622337
-1.536699,0.210370,0.215588,0.137349,0.051928,-0.205611,0.017212,0.042069,0.520000,1.787296,1.252026,0.451126,-0.978645,-0.284482,-0.872670,1.318262,0.100024,0.045900,-0.129963,-0.761009,1.400000,-0.252292,0.524680,0.789727,-0.648423,-0.490648,-0.147051,0.851515,-0.631456
-1.530541,0.213492,0.215588,0.137349,0.051928,-0.206960,0.017212,0.042069,0.520000,1.783329,1.247272,0.447638,-0.983446,-0.284482,-0.872670,1.330294,0.100024,0.045900,-0.129963,-0.763436,1.400000,-0.256249,0.536735,0.792844,-0.645024,-0.490648,-0.150941,0.859920,-0.640031
-1.523411,0.217080,0.216398,0.137886,0.051224,-0.207613,0.018430,0.042390,0.520000,1.778671,1.241628,0.443699,-0.987848,-0.282817,-0.872670,1.340700,0.099052,0.044577,-0.129748,-0.765584,1.400000,-0.259566,0.549798,0.795679,-0.641368,-0.490031,-0.155190,0.868130,-0.648356
-1.514335,0.221602,0.217912,0.139049,0.051224,-0.207613,0.019747,0.044183,0.520000,1.772629,1.234207,0.438856,-0.991451,-0.282817,-0.872670,1.347851,0.097641,0.044577,-0.127286,-0.767176,1.400000,-0.261603,0.564880,0.797948,-0.637199,-0.490031,-0.160157,0.875954,-0.656182
-1.503328,0.227383,0.220696,0.139923,0.050383,-0.205823,0.021427,0.046221,0.520000,1.765365,1.225973,0.432471,-0.994381,-0.281897,-0.872670,1.353104,0.095500,0.042810,-0.124675,-0.768833,1.400000,-0.262691,0.582247,0.799691,-0.632393,-0.489042,-0.165868,0.883094,-0.663509
-1.491357,0.233794,0.224116,0.139923,0.050383,-0.203508,0.023289,0.048382,0.520000,1.757489,1.217334,0.425315,-0.996974,-0.281897,-0.872670,1.357407,0.092995,0.041517,-0.121989,-0.770522,1.400000,-0.262691,0.600758,0.801170,-0.627269,-0.489042,-0.171951,0.889894,-0.670587
-1.477925,0.239853,0.229842,0.140038,0.047566,-0.201587,0.025438,0.048235,0.520000,1.747632,1.207781,0.415865,-1.000379,-0.281544,-0.872670,1.360977,0.089773,0.038924,-0.124460,-0.772913,1.400000,-0.262511,0.621997,0.801787,-0.620764,-0.488108,-0.178917,0.895108,-0.676822
-1.464086,0.245822,0.236241,0.139090,0.044938,-0.200634,0.027484,0.047127,0.520000,1.737028,1.197995,0.405749,-1.004610,-0.281747,-0.872670,1.364648,0.086755,0.035849,-0.127904,-0.775153,1.400000,-0.261093,0.643641,0.802405,-0.613634,-0.487721,-0.186171,0.899615,-0.682577
-1.449437,0.251610,0.243987,0.139090,0.041914,-0.200634,0.029326,0.047127,0.520000,1.724931,1.187741,0.394299,-1.010492,-0.281747,-0.872670,1.368524,0.084147,0.031811,-0.133294,-0.777088,1.400000,-0.261093,0.666095,0.802405,-0.605251,-0.487721,-0.193998,0.902707,-0.687370
-1.434396,0.257699,0.252447,0.138513,0.040906,-0.202317,0.030395,0.046743,0.520000,1.712114,1.176958,0.382781,-1.018711,-0.282091,-0.872670,1.371909,0.083278,0.027785,-0.137214,-0.778006,1.400000,-0.261865,0.687600,0.802101,-0.595779,-0.488023,-0.202374,0.903738,-0.690519
-1.419160,0.263940,0.261263,0.138513,0.040906,-0.204350,0.030395,0.046743,0.520000,1.698937,1.165911,0.371229,-1.028098,-0.282091,-0.872670,1.375049,0.083278,0.023764,-0.140399,-0.778006,1.400000,-0.264267,0.708631,0.802101,-0.585763,-0.488023,-0.211024,0.903738,-0.692848
-1.405094,0.270415,0.266613,0.136911,0.043970,-0.203686,0.030851,0.050367,0.520000,1.685430,1.152078,0.360515,-1.032381,-0.280331,-0.872670,1.374906,0.089000,0.021944,-0.139449,-0.775011,1.400000,-0.271534,0.725697,0.799779,-0.574502,-0.490210,-0.220045,0.902319,-0.692198
-1.391779,0.276902,0.270309,0.134820,0.046545,-0.200162,0.031182,0.053586,0.520000,1.671913,1.138067,0.349466,-1.032854,-0.277119,-0.872670,1.371809,0.094779,0.021369,-0.136481,-0.770357,1.400000,-0.279307,0.740783,0.797703,-0.563077,-0.492328,-0.228974,0.899797,-0.690822
-1.379966,0.283414,0.270309,0.131299,0.048976,-0.191582,0.032894,0.057157,0.520000,1.658377,1.123704,0.337749,-1.025707,-0.271528,-0.872670,1.362949,0.101857,0.023281,-0.130428,-0.762932,1.400000,-0.288090,0.751908,0.795197,-0.551322,-0.495267,-0.237720,0.896275,-0.688645
-1.369184,0.288870,0.265815,0.126748,0.049113,-0.180373,0.036507,0.059533,0.520000,1.644975,1.111437,0.327603,-1.014357,-0.265123,-0.872670,1.346060,0.104739,0.026322,-0.123504,-0.754363,1.400000,-0.293968,0.759701,0.792686,-0.540406,-0.498594,-0.245759,0.892538,-0.687262
-1.358916,0.293799,0.258880,0.121682,0.049113,-0.167850,0.041072,0.061313,0.520000,1.631638,1.100219,0.318243,-1.000904,-0.258313,-0.872670,1.325156,0.104739,0.029927,-0.116145,-0.745223,1.400000,-0.298394,0.765827,0.790172,-0.529910,-0.502114,-0.253443,0.888692,-0.687262
-1.348973,0.297548,0.243725,0.116761,0.043399,-0.154811,0.048490,0.061313,0.520000,1.619091,1.091718,0.313438,-0.985741,-0.249368,-0.872670,1.293495,0.090407,0.033651,-0.111089,-0.732709,1.400000,-0.294076,0.771347,0.786872,-0.521960,-0.504820,-0.259250,0.886491,-0.688897
-1.338631,0.301081,0.227097,0.112255,0.037330,-0.142347,0.056608,0.061355,0.520000,1.606547,1.084801,0.309748,-0.971075,-0.240938,-0.872670,1.259811,0.068645,0.037464,-0.106953,-0.718348,1.400000,-0.285900,0.778263,0.783464,-0.514806,-0.507145,-0.264135,0.885023,-0.692668
-1.327491,0.304179,0.207522,0.108577,0.029203,-0.131034,0.066123,0.061355,0.520000,1.594011,1.081052,0.308288,-0.957405,-0.233535,-0.872670,1.222079,0.033067,0.041459,-0.104656,-0.700295,1.400000,-0.270011,0.787972,0.779838,-0.509242,-0.508705,-0.267175,0.885023,-0.699398
-1.315796,0.306366,0.193695,0.106803,0.021211,-0.125553,0.075089,0.062482,0.520000,1.582434,1.080683,0.307825,-0.947900,-0.228810,-0.872670,1.190944,-0.011748,0.044339,-0.103191,-0.681553,1.384384,-0.248391,0.799895,0.776238,-0.503764,-0.510212,-0.268573,0.885698,-0.708152
-1.303825,0.308098,0.182743,0.106803,0.013285,-0.122988,0.083781,0.064134,0.520000,1.571337,1.080683,0.307825,-0.940478,-0.225424,-0.872670,1.163108,-0.061181,0.046663,-0.103191,-0.662468,1.360965,-0.223905,0.812926,0.772650,-0.498331,-0.510212,-0.268573,0.886924,-0.717920
-1.292789,0.308844,0.178065,0.108157,0.006995,-0.127362,0.090539,0.066843,0.520000,1.561468,1.082404,0.309489,-0.933012,-0.222034,-0.872670,1.152487,-0.121941,0.047087,-0.103955,-0.645695,1.345048,-0.198389,0.827015,0.767540,-0.491640,-0.512667,-0.266305,0.889611,-0.726821
-1.282617,0.310396,0.173351,0.110178,0.001639,-0.131516,0.096460,0.069224,0.520000,1.552403,1.082360,0.310583,-0.922488,-0.217891,-0.872670,1.145964,-0.186067,0.048095,-0.105184,-0.630113,1.333040,-0.174968,0.838293,0.761771,-0.485017,-0.514377,-0.261730,0.892786,-0.733370
-1.274175,0.312809,0.168564,0.110178,-0.001846,-0.135232,0.100707,0.069224,0.520000,1.544945,1.082360,0.310583,-0.905848,-0.212244,-0.872670,1.147637,-0.256925,0.049847,-0.105184,-0.616910,1.328854,-0.155735,0.843948,0.754685,-0.478527,-0.516568,-0.253306,0.896939,-0.735211
-1.266416,0.315799,0.163802,0.110395,-0.003873,-0.136242,0.103746,0.070762,0.520000,1.538244,1.080305,0.310395,-0.879228,-0.207735,-0.872670,1.151935,-0.329769,0.052033,-0.103973,-0.605248,1.322162,-0.140066,0.848521,0.748921,-0.473567,-0.518452,-0.242222,0.900055,-0.727495
-1.259000,0.319076,0.159053,0.110395,-0.005171,-0.136242,0.106179,0.070762,0.520000,1.531923,1.078549,0.310395,-0.847618,-0.203797,-0.872670,1.157545,-0.403604,0.054438,-0.101777,-0.594356,1.314218,-0.126179,0.852553,0.743820,-0.469373,-0.520182,-0.229809,0.902654,-0.714999
-1.251842,0.321723,0.158789,0.109778,-0.007078,-0.129961,0.108575,0.075043,0.520000,1.526260,1.077069,0.305405,-0.790444,-0.201077,-0.872670,1.162416,-0.495732,0.055640,-0.098584,-0.589375,1.292920,-0.113749,0.843007,0.738882,-0.462956,-0.522122,-0.210102,0.903481,-0.686849
-1.244674,0.324227,0.158984,0.110099,-0.009297,-0.121734,0.110906,0.078339,0.520000,1.520852,1.076082,0.298751,-0.724912,-0.198563,-0.872670,1.166112,-0.591605,0.056007,-0.095292,-0.586989,1.265371,-0.100959,0.829462,0.733698,-0.455435,-0.523898,-0.187756,0.904308,-0.656767
-1.237491,0.326441,0.160358,0.111304,-0.012138,-0.109161,0.113106,0.081589,0.520000,1.515953,1.076082,0.287467,-0.642668,-0.196461,-0.872670,1.167456,-0.694966,0.054703,-0.091799,-0.589792,1.225321,-0.087450,0.807922,0.728023,-0.445709,-0.525348,-0.160131,0.904308,-0.622822
-1.229863,0.329538,0.158895,0.112712,-0.015099,-0.093138,0.115818,0.084584,0.520000,1.511388,1.076044,0.272288,-0.547389,-0.193318,-0.872670,1.164110,-0.795717,0.055192,-0.087536,-0.595209,1.173962,-0.073769,0.786980,0.722834,-0.435357,-0.525831,-0.133139,0.903602,-0.590715
-1.222012,0.333075,0.156012,0.114221,-0.018122,-0.075388,0.118785,0.087452,0.520000,1.506990,1.076044,0.255160,-0.445590,-0.189656,-0.872670,1.158417,-0.895164,0.055192,-0.082886,-0.601932,1.116944,-0.060002,0.766337,0.717888,-0.424691,-0.525831,-0.106463,0.902117,-0.559526
-1.212559,0.338044,0.146851,0.115149,-0.020579,-0.052746,0.121696,0.089059,0.520000,1.501065,1.074490,0.232826,-0.330858,-0.183898,-0.872670,1.140880,-0.963802,0.058742,-0.077616,-0.610024,1.043012,-0.045284,0.763447,0.714760,-0.414729,-0.525361,-0.090327,0.899050,-0.535733
-1.202706,0.343560,0.134923,0.116713,-0.022217,-0.030549,0.124276,0.090564,0.519096,1.494501,1.072533,0.210305,-0.218731,-0.177072,-0.872670,1.120522,-1.017785,0.062203,-0.072200,-0.617862,0.968846,-0.031913,0.767084,0.711773,-0.404326,-0.524398,-0.076075,0.896153,-0.513278
-1.192051,0.350172,0.117462,0.116713,-0.022217,-0.009244,0.126194,0.091866,0.519096,1.486655,1.069219,0.187410,-0.111816,-0.168109,-0.872670,1.094524,-1.042456,0.067334,-0.066490,-0.625194,0.894217,-0.021236,0.783777,0.709067,-0.393044,-0.524398,-0.065587,0.893595,-0.493500
-1.183632,0.355130,0.096351,0.118265,-0.020820,0.011013,0.126833,0.093166,0.507203,1.478495,1.065915,0.171627,-0.012639,-0.157326,-0.872670,1.069269,-1.041487,0.072477,-0.058664,-0.631962,0.829114,-0.016435,0.813212,0.705475,-0.381758,-0.522880,-0.057352,0.891964,-0.477172
-1.176331,0.359856,0.073414,0.119639,-0.018422,0.030746,0.126344,0.094463,0.490718,1.470177,1.063288,0.159398,0.082671,-0.145632,-0.872670,1.044384,-1.027697,0.077627,-0.049780,-0.638450,0.768775,-0.014571,0.849020,0.701440,-0.370469,-0.521479,-0.050243,0.890486,-0.462569
-1.167822,0.359856,0.048295,0.121209,-0.017105,0.051657,0.126344,0.097542,0.472100,1.458911,1.063288,0.144995,0.168892,-0.133439,-0.872670,1.028246,-1.001317,0.080353,-0.040863,-0.643415,0.717447,-0.024624,0.888837,0.697802,-0.359741,-0.519659,-0.044890,0.890486,-0.451095
-1.158074,0.360048,0.023106,0.123589,-0.017151,0.072818,0.126396,0.101072,0.453779,1.446458,1.065203,0.129840,0.251634,-0.120680,-0.872670,1.016141,-0.973990,0.082171,-0.032774,-0.646725,0.669897,-0.038742,0.928840,0.694901,-0.349643,-0.517966,-0.040168,0.889246,-0.440343
-1.145845,0.358836,-0.002224,0.127593,-0.017151,0.094478,0.126396,0.105505,0.436053,1.431628,1.068927,0.113180,0.327420,-0.106788,-0.872670,1.012100,-0.944767,0.082171,-0.026342,-0.646725,0.629902,-0.060989,0.969221,0.693476,-0.340803,-0.516529,-0.036710,0.887623,-0.431032
-1.130704,0.358432,-0.025772,0.132972,-0.019823,0.118751,0.128118,0.110457,0.420217,1.414578,1.072389,0.093479,0.399424,-0.089206,-0.872670,1.016999,-0.918853,0.083040,-0.023500,-0.643399,0.601555,-0.092540,1.009284,0.692009,-0.331558,-0.515475,-0.034337,0.886392,-0.420095
-1.114106,0.358432,-0.048428,0.139039,-0.022447,0.144330,0.130022,0.115668,0.405327,1.396417,1.075720,0.072258,0.469536,-0.069778,-0.872670,1.026367,-0.894593,0.083040,-0.023500,-0.638394,0.579032,-0.128742,1.049187,0.690521,-0.322112,-0.515475,-0.032507,0.886392,-0.408344
-1.093093,0.357162,-0.064125,0.144653,-0.025983,0.180671,0.132775,0.118643,0.391195,1.370704,1.079487,0.042891,0.547554,-0.049692,-0.872670,1.050518,-0.879870,0.085102,-0.022048,-0.630186,0.574556,-0.182527,1.084357,0.689015,-0.313487,-0.514203,-0.029713,0.885703,-0.390903
-1.071975,0.355060,-0.078687,0.149609,-0.027537,0.219081,0.134611,0.121955,0.376270,1.342735,1.082485,0.013009,0.627121,-0.028867,-0.872670,1.078089,-0.866677,0.085868,-0.019509,-0.618513,0.569328,-0.238164,1.116393,0.687375,-0.307142,-0.513505,-0.027076,0.886019,-0.372705
-1.050648,0.351307,-0.090979,0.153248,-0.027537,0.261634,0.134611,0.125940,0.359755,1.310254,1.083945,-0.017904,0.709795,-0.006561,-0.872670,1.112503,-0.856542,0.085868,-0.014156,-0.599906,0.562594,-0.297508,1.142166,0.687375,-0.307142,-0.513505,-0.024755,0.886019,-0.352994
-1.026970,0.347710,-0.104413,0.154932,-0.023048,0.297705,0.133211,0.129126,0.341100,1.270631,1.083506,-0.037717,0.788749,0.019099,-0.872670,1.155710,-0.842051,0.083325,-0.007178,-0.569099,0.527988,-0.352731,1.161946,0.684478,-0.311315,-0.515180,-0.023460,0.886192,-0.331389
-1.002115,0.344190,-0.118417,0.154932,-0.017520,0.330535,0.131221,0.131913,0.321375,1.227436,1.083506,-0.051980,0.865844,0.046436,-0.872670,1.203313,-0.825384,0.079931,0.000612,-0.532192,0.479446,-0.405892,1.178728,0.681086,-0.318466,-0.517603,-0.023460,0.886192,-0.308838
-0.970771,0.341882,-0.134012,0.154413,-0.010779,0.350295,0.129882,0.132460,0.304183,1.170979,1.075913,-0.048603,0.924882,0.079236,-0.872670,1.261115,-0.813530,0.074857,0.005891,-0.489309,0.408720,-0.441300,1.186144,0.672601,-0.324687,-0.521986,-0.021101,0.892518,-0.288835
-0.934632,0.339003,-0.146942,0.153911,-0.004597,0.369038,0.129849,0.133972,0.289455,1.106520,1.068217,-0.043686,0.978379,0.113298,-0.872670,1.319199,-0.807419,0.067813,0.010764,-0.448545,0.342268,-0.471868,1.186657,0.662702,-0.329807,-0.526773,-0.018516,0.899210,-0.269622
-0.888902,0.334983,-0.154542,0.153911,0.000467,0.385744,0.132426,0.136867,0.279652,1.026057,1.058461,-0.035693,1.020798,0.149885,-0.872670,1.377848,-0.812795,0.056828,0.014827,-0.412020,0.284365,-0.492754,1.173364,0.649973,-0.332723,-0.532369,-0.014440,0.908131,-0.251985
-0.832165,0.326551,-0.155122,0.156832,0.004997,0.402870,0.140350,0.144667,0.272376,0.926495,1.050619,-0.033491,1.047746,0.160376,-0.872670,1.429798,-0.829921,0.042997,0.019889,-0.383877,0.244133,-0.504652,1.149417,0.638211,-0.336732,-0.537701,-0.009984,0.915105,-0.232736
-0.769926,0.315913,-0.152191,0.160484,0.009261,0.420205,0.150949,0.154919,0.266363,0.817386,1.043735,-0.033491,1.066956,0.157819,-0.872670,1.478399,-0.852922,0.027744,0.025450,-0.359927,0.212738,-0.512056,1.120143,0.626931,-0.341288,-0.542899,-0.005337,0.921105,-0.212680
-0.706525,0.298751,-0.141902,0.164241,0.013867,0.437317,0.168479,0.168492,0.258241,0.701171,1.034203,-0.053313,1.054961,0.087215,-0.872670,1.509845,-0.884425,0.031331,0.029289,-0.352982,0.206768,-0.512056,1.091919,0.620684,-0.343021,-0.545999,-0.003533,0.920247,-0.195430
-0.646753,0.281388,-0.131423,0.169593,0.018310,0.452779,0.189805,0.179934,0.249253,0.589795,1.021569,-0.079714,1.031090,0.013664,-0.871833,1.536575,-0.914861,0.035162,0.030154,-0.353168,0.206553,-0.511734,1.064720,0.614662,-0.343161,-0.549022,-0.002330,0.917650,-0.181067
-0.594246,0.263624,-0.120565,0.178134,0.022425,0.464939,0.218720,0.187114,0.238533,0.488105,1.002734,-0.120193,0.983467,-0.065774,-0.871833,1.553867,-0.943159,0.039477,0.025070,-0.367615,0.217845,-0.509229,1.039573,0.609090,-0.340115,-0.549022,-0.002330,0.912429,-0.172481
-0.550603,0.246536,-0.113917,0.189630,0.025660,0.470769,0.259797,0.186015,0.226994,0.409388,0.970691,-0.175010,0.911034,-0.091520,-0.845862,1.563021,-0.960683,0.027803,0.016610,-0.395752,0.235372,-0.501640,1.015552,0.601240,-0.333350,-0.548972,-0.001950,0.906441,-0.169531
-0.511392,0.229787,-0.109373,0.202602,0.028455,0.473433,0.306955,0.180776,0.215046,0.342157,0.932043,-0.236997,0.826194,-0.091520,-0.808160,1.568106,-0.972819,0.008133,0.006460,-0.430733,0.256017,-0.491509,0.992095,0.592252,-0.324724,-0.547462,-0.001950,0.900071,-0.169531
-0.491327,0.217172,-0.121720,0.207094,0.034512,0.465112,0.312184,0.171380,0.211900,0.336260,0.891357,-0.306993,0.706857,-0.075276,-0.769616,1.557851,-0.952041,0.000822,-0.003641,-0.478700,0.269142,-0.464081,0.970943,0.578999,-0.304873,-0.541981,-0.004446,0.888997,-0.175277
-0.478837,0.206895,-0.141086,0.211282,0.041097,0.454944,0.307690,0.161546,0.213355,0.358726,0.851138,-0.374840,0.583583,-0.073069,-0.733790,1.540814,-0.920234,-0.002229,-0.013568,-0.526928,0.278343,-0.427643,0.947258,0.565239,-0.280973,-0.534005,-0.008991,0.874358,-0.182093
-0.481498,0.201292,-0.174491,0.214863,0.048738,0.441078,0.283752,0.150835,0.224015,0.437919,0.811847,-0.438392,0.452423,-0.097465,-0.703397,1.510212,-0.866367,0.003242,-0.023148,-0.575681,0.279696,-0.373183,0.918505,0.550464,-0.248973,-0.521036,-0.017410,0.852588,-0.190873
-0.485556,0.195314,-0.210846,0.223193,0.055789,0.429827,0.274621,0.140932,0.236134,0.539788,0.775617,-0.495432,0.339684,-0.134730,-0.678671,1.469188,-0.805427,0.013831,-0.030840,-0.624889,0.279190,-0.308754,0.873819,0.534955,-0.212739,-0.503811,-0.030226,0.824289,-0.199920
-0.490313,0.189148,-0.248677,0.233898,0.062544,0.419884,0.272895,0.131432,0.248982,0.652996,0.740916,-0.549215,0.236156,-0.178429,-0.656779,1.422952,-0.740950,0.026979,-0.037589,-0.674324,0.277754,-0.239340,0.821166,0.519079,-0.174387,-0.484458,-0.045241,0.792725,-0.209100
-0.483092,0.173158,-0.278570,0.247596,0.068533,0.415239,0.291754,0.128276,0.255839,0.750549,0.714436,-0.594408,0.163688,-0.219585,-0.637074,1.371019,-0.682819,0.045082,-0.041578,-0.724640,0.287460,-0.168213,0.752137,0.500125,-0.150912,-0.468706,-0.061127,0.764499,-0.213156
-0.474331,0.153531,-0.305417,0.258895,0.075122,0.411994,0.307859,0.126628,0.261554,0.841769,0.690772,-0.639347,0.097930,-0.258476,-0.617042,1.314736,-0.627551,0.061074,-0.044237,-0.774495,0.300551,-0.095905,0.681911,0.479722,-0.135747,-0.453101,-0.076683,0.735524,-0.214966
-0.462491,0.126630,-0.326175,0.265394,0.082913,0.411994,0.318455,0.127998,0.264984,0.920328,0.672741,-0.683780,0.045589,-0.292837,-0.596356,1.249752,-0.578008,0.072846,-0.044237,-0.823430,0.320412,-0.021233,0.609291,0.456420,-0.137199,-0.437789,-0.091581,0.705046,-0.214966
-0.447256,0.100455,-0.342317,0.265327,0.090531,0.412820,0.320809,0.127753,0.267991,0.984186,0.651428,-0.729607,0.005913,-0.324145,-0.576816,1.164593,-0.535856,0.075579,-0.042500,-0.870517,0.342405,0.063493,0.539035,0.422628,-0.161753,-0.411057,-0.107234,0.654717,-0.212032
-0.430322,0.074644,-0.356153,0.261975,0.098062,0.412820,0.319042,0.127753,0.270787,1.040695,0.628473,-0.776132,-0.027432,-0.353926,-0.557848,1.069344,-0.497399,0.073792,-0.039680,-0.916681,0.365466,0.153250,0.469960,0.383590,-0.197859,-0.378614,-0.123265,0.594460,-0.208972
-0.398599,0.059788,-0.371112,0.257133,0.103738,0.408652,0.321254,0.122228,0.274726,1.066554,0.593570,-0.796679,-0.046708,-0.375491,-0.536034,0.973322,-0.464942,0.072482,-0.035027,-0.940113,0.386438,0.230497,0.411077,0.343461,-0.235863,-0.331389,-0.132157,0.525537,-0.210954
-0.364687,0.046083,-0.386719,0.252959,0.108575,0.401517,0.326437,0.116977,0.277908,1.084775,0.557640,-0.809712,-0.062285,-0.396290,-0.515077,0.879965,-0.434744,0.072168,-0.030692,-0.959132,0.405769,0.305019,0.355978,0.305568,-0.267832,-0.286642,-0.138965,0.462037,-0.213312
-0.326401,0.034679,-0.403622,0.250122,0.111736,0.390395,0.337562,0.110873,0.279574,1.084775,0.519657,-0.807717,-0.070462,-0.415560,-0.495834,0.791936,-0.409065,0.073845,-0.026996,-0.969324,0.421818,0.374090,0.308446,0.272150,-0.287728,-0.246851,-0.141606,0.409384,-0.216420
-0.287514,0.021357,-0.420489,0.246451,0.113768,0.376180,0.351620,0.105537,0.279281,1.072471,0.485951,-0.793341,-0.074195,-0.432694,-0.478175,0.713342,-0.389610,0.076221,-0.024575,-0.975866,0.436001,0.433090,0.270819,0.244793,-0.297933,-0.220306,-0.143200,0.371522,-0.218825
-0.248325,0.007075,-0.437338,0.242363,0.114746,0.360417,0.367146,0.100585,0.277524,1.052541,0.454383,-0.772775,-0.075708,-0.448762,-0.461307,0.639463,-0.373267,0.078946,-0.022791,-0.980582,0.449253,0.487057,0.238143,0.220466,-0.302304,-0.200382,-0.144306,0.341054,-0.220879
-0.209813,-0.007956,-0.454537,0.232591,0.114746,0.342869,0.378086,0.095704,0.277524,1.012405,0.429211,-0.741539,-0.070004,-0.459013,-0.445181,0.575279,-0.366467,0.074764,-0.022791,-0.985051,0.459971,0.530959,0.220081,0.202338,-0.302304,-0.188447,-0.144306,0.319144,-0.223208
-0.173808,-0.024650,-0.471815,0.220424,0.115303,0.326302,0.386211,0.090419,0.276191,0.965455,0.406045,-0.708576,-0.062216,-0.466856,-0.428468,0.515047,-0.362479,0.066073,-0.023144,-0.991331,0.469683,0.572258,0.206905,0.186312,-0.299551,-0.177361,-0.144699,0.298579,-0.225793
-0.142817,-0.044670,-0.489250,0.203466,0.115303,0.311697,0.386211,0.084330,0.276191,0.904883,0.386894,-0.672159,-0.050257,-0.469885,-0.410583,0.462723,-0.364120,0.048361,-0.023144,-1.001231,0.477381,0.608344,0.203499,0.174490,-0.294254,-0.167978,-0.144699,0.280707,-0.228892
-0.118011,-0.068149,-0.504697,0.188528,0.116937,0.298132,0.386289,0.076493,0.274929,0.834273,0.371298,-0.631135,-0.036093,-0.462224,-0.394940,0.418305,-0.367162,0.028133,-0.022164,-1.008320,0.480575,0.639527,0.209413,0.166062,-0.288671,-0.160091,-0.142196,0.263627,-0.230990
-0.096297,-0.093358,-0.519149,0.174598,0.118947,0.285087,0.386289,0.067783,0.274929,0.758644,0.357480,-0.587808,-0.020828,-0.449217,-0.380419,0.377839,-0.370905,0.006647,-0.020544,-1.014003,0.480575,0.668258,0.219986,0.159332,-0.282945,-0.152952,-0.138812,0.246941,-0.232588
-0.073671,-0.120319,-0.529084,0.162200,0.124595,0.270345,0.383205,0.058795,0.277164,0.656880,0.349400,-0.535654,-0.003660,-0.462095,-0.366915,0.346710,-0.370254,-0.014843,-0.020544,-1.007786,0.472480,0.696182,0.248660,0.158719,-0.281578,-0.147164,-0.130608,0.228672,-0.230708
-0.053288,-0.145615,-0.536128,0.149153,0.128999,0.253410,0.378794,0.050312,0.279954,0.560851,0.342656,-0.481299,0.014100,-0.472558,-0.352811,0.317183,-0.366725,-0.031110,-0.020853,-0.996570,0.460667,0.725759,0.284397,0.159027,-0.281864,-0.141270,-0.121358,0.211303,-0.228138
-0.037390,-0.167583,-0.537389,0.134804,0.130915,0.232083,0.370221,0.042835,0.283023,0.476282,0.338582,-0.422538,0.033047,-0.478191,-0.337508,0.290856,-0.358089,-0.036933,-0.020853,-0.975353,0.442675,0.758644,0.334265,0.161787,-0.285454,-0.135163,-0.110011,0.195730,-0.224185
-0.027181,-0.188916,-0.530864,0.115001,0.125935,0.204623,0.357807,0.036765,0.284046,0.407640,0.340226,-0.362879,0.050514,-0.467266,-0.322834,0.266477,-0.343157,-0.028413,-0.021544,-0.940785,0.418923,0.797530,0.400566,0.163364,-0.291437,-0.128604,-0.096962,0.184663,-0.221779
-0.019816,-0.209931,-0.520446,0.092470,0.117507,0.174097,0.343472,0.031399,0.284046,0.346961,0.344729,-0.302768,0.067241,-0.448060,-0.308474,0.243072,-0.325076,-0.012721,-0.021544,-0.899539,0.392289,0.839416,0.475086,0.163364,-0.298616,-0.121821,-0.083061,0.175849,-0.220147
-0.025743,-0.229401,-0.500949,0.069602,0.100905,0.138729,0.331832,0.026858,0.284191,0.317993,0.353520,-0.249165,0.081186,-0.421182,-0.299467,0.227839,-0.297216,0.001282,-0.021412,-0.845660,0.354830,0.887249,0.569887,0.156834,-0.306795,-0.115301,-0.066283,0.173252,-0.223402
-0.032543,-0.244619,-0.479234,0.052475,0.086823,0.105707,0.322948,0.021464,0.284528,0.297083,0.358889,-0.195798,0.097186,-0.398679,-0.289841,0.215934,-0.268452,0.009072,-0.022206,-0.788426,0.316440,0.934997,0.667990,0.145031,-0.311790,-0.108438,-0.048596,0.172259,-0.228113
-0.041089,-0.251331,-0.453080,0.046831,0.077782,0.077378,0.319579,0.014364,0.287057,0.292285,0.357412,-0.142901,0.117300,-0.384928,-0.278979,0.210687,-0.237879,0.004431,-0.025749,-0.724476,0.276186,0.982580,0.772705,0.123994,-0.310418,-0.100890,-0.029089,0.174472,-0.235733
-0.046171,-0.252912,-0.417892,0.044129,0.072323,0.058742,0.318456,0.008483,0.290019,0.286953,0.350241,-0.093911,0.137880,-0.371235,-0.265241,0.209878,-0.215523,0.003358,-0.028591,-0.661055,0.254779,1.026088,0.878326,0.080609,-0.275976,-0.090029,-0.007972,0.179224,-0.245275
-0.049521,-0.252912,-0.378188,0.044129,0.068656,0.044954,0.318456,0.003210,0.293197,0.281354,0.340223,-0.046876,0.158693,-0.357572,-0.250065,0.209878,-0.197278,0.003358,-0.031081,-0.597900,0.242798,1.067558,0.984397,0.026050,-0.224998,-0.077511,0.013950,0.185246,-0.255777
-0.054004,-0.253911,-0.326377,0.040284,0.065184,0.044796,0.318639,0.000751,0.296040,0.274939,0.329941,-0.011637,0.179895,-0.342917,-0.233453,0.215252,-0.195572,0.009836,-0.029779,-0.546455,0.280078,1.099722,1.069261,-0.053937,-0.122410,-0.064411,0.025098,0.195138,-0.234284
-0.056993,-0.252843,-0.275563,0.037798,0.062312,0.047005,0.317502,-0.001667,0.299713,0.269288,0.317824,0.021839,0.202644,-0.329756,-0.217585,0.221041,-0.195649,0.014360,-0.028128,-0.497430,0.321303,1.128947,1.142281,-0.135958,-0.046372,-0.053811,0.037923,0.204932,-0.196495
-0.056993,-0.246324,-0.226741,0.036387,0.060640,0.054108,0.315097,-0.004003,0.305046,0.265169,0.302037,0.051789,0.228490,-0.319584,-0.203202,0.229539,-0.199289,0.015921,-0.025783,-0.453244,0.370422,1.152293,1.191614,-0.222051,-0.023437,-0.048209,0.054104,0.214530,-0.126107
-0.054411,-0.234669,-0.185967,0.036709,0.060688,0.062996,0.311703,-0.006855,0.311988,0.263197,0.284011,0.080635,0.252212,-0.313056,-0.191577,0.240227,-0.202715,0.017381,-0.024054,-0.416301,0.412615,1.172618,1.228035,-0.297980,-0.055759,-0.047578,0.059779,0.220593,-0.054819
-0.050321,-0.220447,-0.149218,0.037897,0.061294,0.072776,0.307815,-0.009965,0.319733,0.262600,0.264867,0.108927,0.274872,-0.308349,-0.181331,0.252009,-0.206351,0.018789,-0.022089,-0.382982,0.451343,1.191431,1.257996,-0.368823,-0.115712,-0.050409,0.060059,0.225500,0.016917
-0.048886,-0.210388,-0.128526,0.039884,0.062818,0.079378,0.304194,-0.012113,0.320973,0.264528,0.250859,0.140293,0.289282,-0.306374,-0.173677,0.265608,-0.206351,0.020703,-0.022089,-0.363122,0.466550,1.208418,1.282364,-0.400326,-0.144782,-0.050409,0.055308,0.225500,0.042225
-0.047488,-0.200871,-0.112949,0.042060,0.064324,0.083780,0.300799,-0.014157,0.320026,0.266632,0.237573,0.172912,0.300787,-0.303705,-0.165441,0.279730,-0.206538,0.022601,-0.021050,-0.347762,0.473573,1.224785,1.306303,-0.423900,-0.162570,-0.050941,0.053987,0.224886,0.057115
-0.046164,-0.192441,-0.107606,0.042060,0.064324,0.083780,0.297857,-0.015995,0.314705,0.266632,0.225730,0.208036,0.306482,-0.299648,-0.156043,0.294897,-0.206538,0.024468,-0.019563,-0.341403,0.464226,1.239912,1.329384,-0.431614,-0.157792,-0.049606,0.059526,0.221211,0.051166
-0.040996,-0.180143,-0.109102,0.043468,0.065224,0.080110,0.294823,-0.018897,0.307743,0.264963,0.211180,0.243210,0.306579,-0.295457,-0.146352,0.309455,-0.207504,0.026252,-0.018495,-0.340185,0.445876,1.252779,1.348184,-0.418717,-0.139047,-0.045461,0.065914,0.215711,0.026143
-0.033906,-0.165913,-0.114018,0.044023,0.065633,0.075428,0.291742,-0.022332,0.299962,0.261232,0.195278,0.278405,0.303877,-0.291201,-0.136516,0.323707,-0.209153,0.027535,-0.017924,-0.341537,0.423026,1.264514,1.363824,-0.395516,-0.113319,-0.039911,0.073527,0.209298,-0.008417
-0.021856,-0.145026,-0.119532,0.045847,0.067286,0.070933,0.290114,-0.025430,0.293454,0.256715,0.174395,0.306567,0.296560,-0.284479,-0.122582,0.333896,-0.215546,0.027535,-0.019998,-0.345825,0.404137,1.271931,1.363824,-0.362738,-0.084231,-0.031375,0.073527,0.204359,-0.044761
-0.009745,-0.123935,-0.123736,0.047615,0.069331,0.067293,0.288129,-0.027495,0.286799,0.252092,0.153116,0.331885,0.288436,-0.278546,-0.108851,0.342872,-0.223097,0.026248,-0.022289,-0.349269,0.388162,1.276490,1.356393,-0.332113,-0.058539,-0.022476,0.073453,0.199238,-0.077785
0.002486,-0.102437,-0.125321,0.049269,0.072158,0.065364,0.285431,-0.027495,0.279850,0.247259,0.131045,0.351514,0.278699,-0.274193,-0.095529,0.349420,-0.232960,0.026248,-0.025016,-0.349269,0.378018,1.275329,1.337154,-0.305797,-0.039643,-0.012853,0.070822,0.193755,-0.104166
0.015877,-0.081902,-0.122518,0.050557,0.075025,0.065308,0.283469,-0.025928,0.272554,0.241771,0.111719,0.364826,0.269326,-0.270911,-0.083506,0.353149,-0.244528,0.025420,-0.027128,-0.345887,0.372013,1.269430,1.307104,-0.285133,-0.028936,-0.003036,0.066327,0.185692,-0.123293
0.029849,-0.061848,-0.117522,0.051293,0.077912,0.065896,0.282332,-0.023361,0.265085,0.235954,0.093765,0.374980,0.260136,-0.268165,-0.072132,0.354912,-0.256950,0.024807,-0.029597,-0.339937,0.368078,1.261161,1.271648,-0.267295,-0.022324,0.006877,0.060899,0.176339,-0.138792
0.044811,-0.044195,-0.107298,0.051293,0.079128,0.067673,0.282332,-0.021738,0.258587,0.229018,0.081207,0.373548,0.249628,-0.265972,-0.066339,0.354912,-0.270513,0.024807,-0.029597,-0.333141,0.371725,1.249086,1.227797,-0.254574,-0.020912,0.014976,0.051141,0.163328,-0.147218
0.059951,-0.027743,-0.096690,0.051028,0.080490,0.069453,0.283741,-0.019861,0.252675,0.221874,0.070938,0.369121,0.236885,-0.263356,-0.061411,0.353677,-0.283380,0.023320,-0.031087,-0.328610,0.377295,1.235510,1.186323,-0.241693,-0.016673,0.022373,0.038198,0.150105,-0.156200
0.075449,-0.013693,-0.085318,0.051028,0.080490,0.071239,0.286599,-0.019861,0.247937,0.214314,0.065245,0.358704,0.219670,-0.259893,-0.058213,0.351638,-0.294852,0.023320,-0.031087,-0.328610,0.386713,1.218936,1.149608,-0.228491,-0.006782,0.028365,0.018884,0.136462,-0.166295
0.090071,-0.002260,-0.076645,0.050941,0.082058,0.072642,0.288767,-0.018242,0.242966,0.206508,0.062825,0.343739,0.199705,-0.258154,-0.056751,0.348382,-0.303533,0.020999,-0.032358,-0.334366,0.394943,1.204948,1.115682,-0.217128,0.006316,0.029478,-0.002983,0.124330,-0.178945
0.104257,0.007863,-0.069321,0.051242,0.084247,0.073450,0.290591,-0.017798,0.237877,0.198579,0.062303,0.326499,0.178363,-0.257569,-0.055974,0.344518,-0.310819,0.018570,-0.033773,-0.343527,0.403486,1.192253,1.083150,-0.206686,0.021019,0.028150,-0.026128,0.112955,-0.192872
0.114307,0.013392,-0.067950,0.051242,0.084247,0.073450,0.292419,-0.017798,0.233469,0.194381,0.066620,0.304188,0.153946,-0.255648,-0.055974,0.339015,-0.313607,0.018570,-0.033773,-0.359038,0.403486,1.181665,1.051961,-0.200636,0.024791,0.018804,-0.039868,0.106330,-0.204180
0.123420,0.018542,-0.068349,0.052455,0.085396,0.072742,0.293170,-0.019031,0.229433,0.191286,0.071495,0.281417,0.128716,-0.254002,-0.056204,0.334023,-0.314891,0.017844,-0.035292,-0.376658,0.405178,1.170258,1.022573,-0.194106,0.025804,0.009383,-0.050714,0.101178,-0.213425
0.130656,0.022932,-0.072287,0.052455,0.085396,0.072742,0.293170,-0.021589,0.226139,0.191286,0.077486,0.257723,0.101858,-0.254002,-0.058036,0.330056,-0.314891,0.017844,-0.036949,-0.398498,0.407535,1.157212,0.996786,-0.186616,0.021298,-0.000189,-0.055771,0.098972,-0.218546
0.135360,0.025254,-0.076670,0.054123,0.086362,0.072049,0.291381,-0.024500,0.221977,0.192088,0.084863,0.234511,0.075698,-0.255057,-0.062102,0.327791,-0.313525,0.016537,-0.037951,-0.420670,0.413880,1.140311,0.973653,-0.176827,0.015743,-0.007694,-0.057883,0.098236,-0.220769
0.138799,0.026113,-0.081276,0.055912,0.086845,0.072062,0.289398,-0.027587,0.217380,0.193590,0.092933,0.211539,0.049887,-0.257483,-0.067287,0.327247,-0.312339,0.014286,-0.039051,-0.443009,0.422221,1.121480,0.951845,-0.165889,0.009662,-0.014167,-0.058310,0.099414,-0.221285
0.140906,0.024575,-0.085972,0.055912,0.086845,0.072062,0.286847,-0.031413,0.212211,0.193590,0.102218,0.189081,0.028209,-0.257483,-0.072744,0.327247,-0.312339,0.014286,-0.039051,-0.465446,0.434004,1.100988,0.928180,-0.152562,0.000102,-0.018728,-0.056174,0.099414,-0.219709
0.143144,0.022222,-0.090744,0.057355,0.087731,0.073122,0.284213,-0.034963,0.206433,0.192360,0.111283,0.167014,0.008830,-0.257777,-0.077981,0.328840,-0.312870,0.012861,-0.040303,-0.486748,0.445086,1.080257,0.903688,-0.139931,-0.010772,-0.023359,-0.054211,0.099901,-0.217311
0.143144,0.018241,-0.095671,0.057355,0.087731,0.075678,0.281412,-0.037959,0.199435,0.189098,0.119907,0.145727,-0.005955,-0.257777,-0.082780,0.331009,-0.314381,0.010660,-0.042107,-0.505781,0.454762,1.059048,0.877546,-0.128691,-0.024278,-0.028129,-0.052596,0.099901,-0.213270
0.143034,0.011593,-0.099871,0.058505,0.088752,0.078317,0.279635,-0.040650,0.191287,0.185316,0.129722,0.124997,-0.016348,-0.258278,-0.087753,0.332693,-0.315878,0.009086,-0.043658,-0.521380,0.460888,1.039872,0.851697,-0.119035,-0.036762,-0.031511,-0.052144,0.099858,-0.209201
0.141622,0.003613,-0.103706,0.058505,0.088752,0.080997,0.278371,-0.043188,0.182563,0.181276,0.140133,0.104546,-0.024545,-0.259496,-0.092813,0.334134,-0.315878,0.007825,-0.045081,-0.535263,0.465238,1.021712,0.825994,-0.110170,-0.048735,-0.034197,-0.052144,0.099858,-0.205118
0.139423,-0.004500,-0.106960,0.057230,0.087370,0.082962,0.277138,-0.045608,0.175637,0.178918,0.151007,0.084972,-0.026094,-0.258117,-0.099447,0.333823,-0.317779,0.006970,-0.045534,-0.542311,0.465238,1.006546,0.804738,-0.098498,-0.059138,-0.035841,-0.054891,0.101806,-0.202460
0.138090,-0.010992,-0.111071,0.055592,0.085826,0.084860,0.275727,-0.048279,0.170168,0.176667,0.160507,0.065803,-0.026101,-0.256675,-0.105348,0.332911,-0.318176,0.005106,-0.046443,-0.547680,0.462862,0.992744,0.786503,-0.087653,-0.067066,-0.037470,-0.058703,0.103994,-0.200074
0.138090,-0.014245,-0.116898,0.055592,0.084518,0.086626,0.273958,-0.051455,0.167612,0.174627,0.167258,0.047443,-0.023025,-0.256675,-0.109784,0.331103,-0.318176,0.005106,-0.046443,-0.549690,0.457932,0.981665,0.774305,-0.078460,-0.070042,-0.039065,-0.064815,0.106932,-0.200074
0.139620,-0.014375,-0.124586,0.054898,0.083774,0.088776,0.271503,-0.054704,0.168290,0.172707,0.170991,0.028140,-0.017980,-0.256152,-0.112856,0.329482,-0.317453,0.003143,-0.047209,-0.552574,0.453346,0.972849,0.767737,-0.071706,-0.070165,-0.040591,-0.070577,0.110178,-0.199459
0.141714,-0.014375,-0.133204,0.054898,0.083774,0.091119,0.268704,-0.057989,0.170585,0.170848,0.173215,0.008364,-0.011950,-0.256152,-0.115246,0.327953,-0.317453,0.003143,-0.047209,-0.555896,0.448932,0.965166,0.763983,-0.066171,-0.068861,-0.040591,-0.076162,0.113579,-0.199459
0.142973,-0.011568,-0.143142,0.055322,0.083170,0.093394,0.266085,-0.061062,0.175969,0.170848,0.174122,-0.013470,-0.002011,-0.256249,-0.117853,0.325816,-0.319396,0.001622,-0.047642,-0.561252,0.445309,0.962656,0.764215,-0.060505,-0.068588,-0.041585,-0.078403,0.117025,-0.199674
0.143400,-0.010938,-0.153302,0.056057,0.083299,0.095950,0.263343,-0.064195,0.182001,0.171922,0.176232,-0.035936,0.008918,-0.257405,-0.120658,0.323972,-0.322359,0.000120,-0.048267,-0.568071,0.442432,0.960481,0.766569,-0.055029,-0.068711,-0.041275,-0.079468,0.119832,-0.199496
0.143400,-0.010938,-0.163905,0.057425,0.083299,0.099069,0.260354,-0.067450,0.189328,0.171922,0.179837,-0.059668,0.021826,-0.260000,-0.123856,0.322712,-0.326933,0.000120,-0.049771,-0.577819,0.441050,0.960481,0.772937,-0.049933,-0.069896,-0.041275,-0.079468,0.121363,-0.199496
0.140222,-0.015568,-0.174474,0.058667,0.083723,0.102628,0.257135,-0.070286,0.196148,0.174226,0.185820,-0.083944,0.036441,-0.263597,-0.128699,0.321626,-0.332515,-0.001966,-0.051288,-0.589325,0.439938,0.959495,0.783194,-0.045152,-0.071116,-0.039350,-0.077889,0.121021,-0.198432
0.136074,-0.021606,-0.185024,0.058667,0.083723,0.106407,0.253801,-0.072914,0.202714,0.176186,0.192991,-0.108491,0.051907,-0.267695,-0.134364,0.321626,-0.338599,-0.003694,-0.052812,-0.601710,0.439938,0.959495,0.795394,-0.040528,-0.072355,-0.037087,-0.076164,0.121021,-0.198432
0.131389,-0.030917,-0.194004,0.058835,0.082849,0.109259,0.251748,-0.074397,0.209329,0.177922,0.205213,-0.131965,0.070274,-0.272200,-0.143217,0.320260,-0.344856,-0.003880,-0.053523,-0.609999,0.435586,0.957688,0.812998,-0.032464,-0.074297,-0.033381,-0.071848,0.115191,-0.196338
0.127098,-0.040094,-0.203028,0.057720,0.081255,0.111979,0.249853,-0.075370,0.216257,0.179537,0.217516,-0.154525,0.089243,-0.277280,-0.152943,0.319047,-0.350777,-0.004506,-0.054665,-0.616849,0.430894,0.956229,0.831984,-0.022149,-0.076836,-0.029513,-0.066579,0.109820,-0.194311
0.123591,-0.049003,-0.212137,0.057720,0.081255,0.114432,0.249853,-0.075370,0.223813,0.180911,0.229982,-0.175255,0.109418,-0.283513,-0.164415,0.319047,-0.356023,-0.005822,-0.055959,-0.620818,0.424218,0.954496,0.853730,-0.007333,-0.080568,-0.025322,-0.059406,0.103666,-0.191242
0.119900,-0.057439,-0.221513,0.057223,0.080534,0.117278,0.249326,-0.074546,0.232424,0.183327,0.241741,-0.194174,0.130046,-0.289115,-0.173963,0.318533,-0.360679,-0.006896,-0.057199,-0.623845,0.415904,0.952313,0.878186,0.005814,-0.084187,-0.022190,-0.051250,0.100089,-0.188033
0.116116,-0.065637,-0.231022,0.057223,0.080534,0.120319,0.249326,-0.074546,0.241563,0.186263,0.253146,-0.212186,0.150901,-0.294401,-0.182549,0.318533,-0.365040,-0.006896,-0.057199,-0.626401,0.406771,0.949905,0.903995,0.018126,-0.087750,-0.019587,-0.042603,0.097802,-0.184754
0.111913,-0.074154,-0.240363,0.056518,0.079666,0.122794,0.249541,-0.072014,0.252089,0.189754,0.264471,-0.226745,0.171159,-0.297832,-0.191007,0.318678,-0.368537,-0.007907,-0.059665,-0.626401,0.396083,0.945830,0.933396,0.022744,-0.087750,-0.019160,-0.035409,0.099176,-0.183858
0.107628,-0.082841,-0.249502,0.055880,0.079068,0.125248,0.250896,-0.070002,0.263475,0.193521,0.275881,-0.240480,0.190854,-0.301022,-0.198902,0.319676,-0.372275,-0.008944,-0.061264,-0.626698,0.386226,0.941566,0.962606,0.026256,-0.086619,-0.019568,-0.028929,0.101048,-0.182961
0.103179,-0.091871,-0.258235,0.055880,0.079068,0.127656,0.253108,-0.067409,0.276583,0.197843,0.287460,-0.252564,0.209425,-0.303733,-0.205671,0.321336,-0.376498,-0.008944,-0.062747,-0.626698,0.378029,0.936924,0.991434,0.027553,-0.082222,-0.019568,-0.023875,0.103913,-0.182961
0.098601,-0.101499,-0.266872,0.055466,0.079085,0.130176,0.255997,-0.064001,0.291390,0.202626,0.300151,-0.263464,0.226531,-0.307069,-0.212992,0.323696,-0.381991,-0.009605,-0.064008,-0.628680,0.372868,0.931150,1.018280,0.027986,-0.075441,-0.021650,-0.019358,0.106955,-0.181876
0.093961,-0.111425,-0.275461,0.055466,0.079085,0.132752,0.259223,-0.060187,0.307047,0.207638,0.313397,-0.273772,0.242905,-0.310717,-0.220589,0.326406,-0.388119,-0.009605,-0.064008,-0.631283,0.369227,0.924810,1.044134,0.027986,-0.067468,-0.023521,-0.015109,0.110086,-0.180539
0.085822,-0.126057,-0.282417,0.054627,0.078550,0.136912,0.262866,-0.056210,0.321545,0.213039,0.329195,-0.283892,0.255744,-0.315759,-0.230438,0.330434,-0.397305,-0.010657,-0.065558,-0.638942,0.374662,0.916516,1.067996,0.028834,-0.060188,-0.024754,-0.010501,0.111807,-0.176858
0.075733,-0.142078,-0.288826,0.053507,0.077178,0.141946,0.266532,-0.052395,0.334749,0.219789,0.345144,-0.293707,0.266970,-0.321162,-0.240189,0.334302,-0.407289,-0.011702,-0.066787,-0.648497,0.383511,0.908824,1.091878,0.029965,-0.053294,-0.026020,-0.006396,0.113646,-0.172545
0.061744,-0.160876,-0.294141,0.053507,0.077178,0.148731,0.270244,-0.048905,0.345360,0.229240,0.361396,-0.302909,0.274970,-0.327285,-0.249741,0.337850,-0.418871,-0.013383,-0.068125,-0.661841,0.399188,0.902337,1.115799,0.029965,-0.047170,-0.026020,-0.003297,0.113646,-0.166967
0.045253,-0.177848,-0.298995,0.055430,0.077939,0.158310,0.272263,-0.045515,0.354485,0.244763,0.374944,-0.309748,0.278687,-0.335617,-0.257638,0.339623,-0.430900,-0.015346,-0.069931,-0.675452,0.421243,0.897079,1.142218,0.032498,-0.039967,-0.026545,-0.002562,0.115157,-0.160811
0.027511,-0.193908,-0.303618,0.058921,0.080263,0.169287,0.273045,-0.042175,0.362866,0.263322,0.387142,-0.315405,0.280264,-0.345053,-0.264707,0.340212,-0.443155,-0.017449,-0.071972,-0.689196,0.446489,0.892435,1.169887,0.035193,-0.032224,-0.026831,-0.002860,0.115977,-0.154365
0.009883,-0.201857,-0.306927,0.068704,0.086954,0.183073,0.273045,-0.040790,0.369714,0.292768,0.393590,-0.313518,0.275952,-0.359619,-0.267948,0.337354,-0.453760,-0.022704,-0.075064,-0.697444,0.474787,0.889186,1.200398,0.037662,-0.023418,-0.026831,-0.006026,0.117216,-0.146545
-0.007483,-0.207611,-0.307812,0.079625,0.093943,0.196864,0.273697,-0.039120,0.375553,0.325546,0.398956,-0.308286,0.269634,-0.374281,-0.271099,0.332970,-0.464198,-0.027936,-0.077744,-0.703620,0.505763,0.885796,1.229869,0.038078,-0.014601,-0.027743,-0.009135,0.118974,-0.138730
-0.024327,-0.208976,-0.303850,0.092819,0.101526,0.210660,0.276799,-0.039120,0.379372,0.364986,0.402160,-0.296361,0.259306,-0.389138,-0.274073,0.325534,-0.474304,-0.033121,-0.079600,-0.705654,0.542095,0.882122,1.257259,0.034389,-0.005760,-0.029870,-0.012128,0.121769,-0.130925
-0.045420,-0.208458,-0.295338,0.107877,0.108230,0.221304,0.279459,-0.037620,0.382056,0.421593,0.410146,-0.277119,0.240218,-0.408016,-0.279953,0.318103,-0.482031,-0.037969,-0.082028,-0.707000,0.586744,0.877196,1.283913,0.026476,0.002551,-0.034329,-0.013126,0.128021,-0.122054
-0.068639,-0.207486,-0.284551,0.123868,0.114494,0.230986,0.281898,-0.036868,0.384173,0.486786,0.420524,-0.254218,0.216748,-0.428907,-0.287288,0.310674,-0.488947,-0.042649,-0.084743,-0.707667,0.635554,0.871646,1.310199,0.016450,0.010596,-0.039953,-0.013232,0.136001,-0.112648
-0.091988,-0.196922,-0.271042,0.139283,0.118176,0.230986,0.279215,-0.034766,0.388982,0.570576,0.434204,-0.224608,0.183602,-0.432117,-0.298526,0.308396,-0.488947,-0.050637,-0.090262,-0.714588,0.679137,0.868228,1.329190,0.010708,0.013661,-0.046093,-0.009542,0.149069,-0.103995
-0.118529,-0.183549,-0.256947,0.154635,0.121433,0.229460,0.274075,-0.031272,0.393685,0.662579,0.446907,-0.193193,0.147083,-0.421539,-0.309963,0.308308,-0.486358,-0.055962,-0.096590,-0.722743,0.718919,0.865502,1.346037,0.007287,0.016662,-0.051653,-0.005430,0.162631,-0.096628
-0.151450,-0.164558,-0.241684,0.169860,0.123840,0.223039,0.264026,-0.024994,0.398175,0.770999,0.457655,-0.158170,0.103818,-0.383386,-0.321797,0.312603,-0.477459,-0.055962,-0.104534,-0.733364,0.751098,0.864162,1.358595,0.008506,0.019536,-0.056051,-0.000475,0.177179,-0.091836
-0.190271,-0.143043,-0.224131,0.182507,0.125400,0.214243,0.249744,-0.017328,0.399672,0.878963,0.465835,-0.119042,0.054666,-0.329122,-0.333067,0.319479,-0.464231,-0.057298,-0.111555,-0.741888,0.777482,0.863715,1.365558,0.009764,0.022283,-0.059099,0.003748,0.187744,-0.089623
-0.232041,-0.120266,-0.205433,0.193863,0.125928,0.204259,0.233347,-0.008966,0.399583,0.986698,0.472730,-0.077861,0.002570,-0.266802,-0.344054,0.327645,-0.448837,-0.058168,-0.118113,-0.749364,0.800968,0.864046,1.369722,0.010415,0.024967,-0.061621,0.007605,0.196732,-0.089977
-0.273478,-0.098485,-0.186044,0.199126,0.125928,0.191020,0.218444,-0.000982,0.396393,1.055639,0.480122,-0.030826,-0.059946,-0.258677,-0.356825,0.339658,-0.427811,-0.058168,-0.125483,-0.751524,0.819035,0.866400,1.367129,0.010415,0.026266,-0.061621,0.009365,0.196732,-0.089977
-0.313748,-0.076177,-0.167536,0.205337,0.125123,0.176495,0.206999,0.006571,0.393115,1.111003,0.487631,0.017966,-0.125373,-0.254879,-0.370675,0.353343,-0.403379,-0.054727,-0.132803,-0.752067,0.833650,0.868929,1.364016,0.009159,0.026564,-0.061256,0.011030,0.195976,-0.092170
-0.351687,-0.052812,-0.150789,0.213446,0.123401,0.159396,0.202472,0.013263,0.389662,1.139212,0.495375,0.070277,-0.196622,-0.259733,-0.386684,0.370377,-0.372137,-0.046246,-0.140020,-0.749372,0.841359,0.871807,1.359861,0.007266,0.026564,-0.061256,0.011030,0.192460,-0.095837
-0.385348,-0.026525,-0.135295,0.220836,0.119793,0.141171,0.203562,0.018999,0.387052,1.140809,0.501470,0.122033,-0.269063,-0.266750,-0.402469,0.388976,-0.337050,-0.035046,-0.147049,-0.745675,0.840696,0.876862,1.353087,0.005426,0.024541,-0.059703,0.010630,0.187035,-0.102049
-0.416869,0.001223,-0.120426,0.227864,0.115242,0.122385,0.207461,0.024257,0.384865,1.129098,0.506741,0.173512,-0.342098,-0.274850,-0.418142,0.408359,-0.300041,-0.022486,-0.153984,-0.741478,0.835847,0.883005,1.345004,0.003612,0.022359,-0.058145,0.010630,0.180656,-0.109532
-0.442258,0.028077,-0.103016,0.230016,0.108192,0.104553,0.217767,0.027864,0.381031,1.081803,0.511565,0.223408,-0.416154,-0.280325,-0.433524,0.428909,-0.261396,-0.013392,-0.158744,-0.735049,0.828514,0.889038,1.336323,0.007075,0.019895,-0.052639,0.005582,0.169916,-0.121408
-0.465146,0.055236,-0.084352,0.229860,0.101239,0.088146,0.228161,0.031427,0.376899,1.025238,0.515260,0.272234,-0.488377,-0.282781,-0.448857,0.448168,-0.225846,-0.009050,-0.162540,-0.727002,0.822753,0.895278,1.325775,0.011701,0.017318,-0.046237,0.000862,0.158729,-0.133072
-0.483034,0.083005,-0.063175,0.225089,0.094477,0.074584,0.238730,0.034900,0.372171,0.950131,0.516697,0.318924,-0.556939,-0.279197,-0.464095,0.464845,-0.196482,-0.014213,-0.164407,-0.715721,0.820140,0.901933,1.311493,0.018656,0.014512,-0.038040,-0.004981,0.146648,-0.144313
-0.495324,0.112538,-0.041288,0.218811,0.089249,0.062899,0.250314,0.038519,0.367052,0.865016,0.515323,0.366482,-0.623265,-0.269276,-0.478302,0.481370,-0.170182,-0.029023,-0.165029,-0.701829,0.821610,0.905453,1.297020,0.023971,0.011017,-0.030091,-0.011000,0.135276,-0.154803
-0.504815,0.142954,-0.019045,0.211780,0.084789,0.052152,0.262405,0.042213,0.361738,0.774894,0.512544,0.414476,-0.688476,-0.256186,-0.491994,0.497821,-0.145413,-0.048659,-0.165029,-0.686630,0.825122,0.907405,1.282452,0.028468,0.007178,-0.022264,-0.017107,0.124257,-0.164917
-0.512694,0.169513,0.003066,0.207636,0.084788,0.046077,0.273619,0.046348,0.351694,0.685220,0.510950,0.463992,-0.747150,-0.243157,-0.505646,0.511179,-0.125543,-0.076665,-0.164433,-0.669191,0.830314,0.905727,1.266077,0.030740,0.002999,-0.017866,-0.021132,0.118645,-0.170482
-0.520501,0.194427,0.024082,0.205537,0.085937,0.040699,0.284994,0.050564,0.339779,0.598476,0.510325,0.515434,-0.803751,-0.228282,-0.519359,0.524597,-0.105098,-0.104490,-0.163484,-0.651002,0.834940,0.900619,1.249962,0.033338,-0.001681,-0.014030,-0.024960,0.113903,-0.175469
-0.528166,0.216054,0.042908,0.205537,0.089300,0.036714,0.296696,0.054941,0.324121,0.517585,0.510325,0.570729,-0.856209,-0.209713,-0.533192,0.538135,-0.083502,-0.131957,-0.163484,-0.631313,0.838437,0.888652,1.234367,0.036589,-0.007367,-0.011316,-0.028396,0.110901,-0.179299
-0.536298,0.234801,0.060299,0.207737,0.093617,0.033944,0.304245,0.058850,0.305465,0.447453,0.514455,0.628081,-0.903169,-0.193780,-0.549725,0.550935,-0.063389,-0.149525,-0.161029,-0.608555,0.842027,0.871906,1.217359,0.040174,-0.014594,-0.010411,-0.031653,0.108128,-0.182417
-0.544663,0.252109,0.076973,0.210042,0.098411,0.031781,0.309717,0.062524,0.285311,0.382698,0.519993,0.686464,-0.947381,-0.179163,-0.567609,0.563367,-0.044016,-0.162143,-0.158199,-0.584261,0.845665,0.852771,1.199644,0.043926,-0.022591,-0.010411,-0.034821,0.105471,-0.185180
-0.551847,0.267855,0.092970,0.210585,0.102068,0.032139,0.304319,0.067545,0.266055,0.339709,0.532718,0.737974,-0.980731,-0.172966,-0.587116,0.567756,-0.030779,-0.165442,-0.154376,-0.556910,0.847977,0.837523,1.174947,0.048074,-0.029835,-0.013715,-0.037068,0.102117,-0.186369
-0.556014,0.283614,0.108697,0.210218,0.105055,0.031533,0.296557,0.072294,0.248343,0.301131,0.548639,0.788819,-1.011013,-0.168164,-0.607551,0.572058,-0.018666,-0.169795,-0.150325,-0.527788,0.850440,0.820850,1.147743,0.053427,-0.037507,-0.017066,-0.039366,0.098466,-0.187936
-0.556014,0.299402,0.123885,0.207490,0.105055,0.031533,0.284070,0.076496,0.233715,0.271369,0.570950,0.838340,-1.035162,-0.166151,-0.629845,0.576188,-0.008804,-0.176253,-0.145816,-0.495127,0.853205,0.801328,1.115525,0.061191,-0.046034,-0.021392,-0.041768,0.094219,-0.187936
-0.555391,0.312136,0.138988,0.203490,0.102664,0.027281,0.267535,0.079924,0.222153,0.259329,0.601746,0.883463,-1.052003,-0.161438,-0.656038,0.580379,-0.003157,-0.182440,-0.138637,-0.461730,0.857189,0.780737,1.075804,0.072393,-0.055957,-0.026215,-0.044944,0.089532,-0.190328
-0.555391,0.323342,0.154047,0.198855,0.098257,0.022347,0.248977,0.082963,0.212125,0.256153,0.636785,0.926386,-1.065189,-0.155374,-0.684179,0.584600,0.000382,-0.188492,-0.130121,-0.427965,0.861783,0.759611,1.032331,0.085315,-0.066578,-0.031286,-0.048508,0.084625,-0.192756
-0.566081,0.330937,0.169126,0.191259,0.090035,0.016076,0.224655,0.086145,0.207402,0.293693,0.680608,0.951941,-1.068614,-0.142200,-0.717270,0.588358,-0.002429,-0.196271,-0.118242,-0.399936,0.871397,0.741389,0.982062,0.098817,-0.079235,-0.037474,-0.053264,0.080227,-0.197909
-0.578268,0.338512,0.184256,0.182836,0.081963,0.009234,0.198501,0.090118,0.205103,0.342250,0.727143,0.972578,-1.071276,-0.135653,-0.751851,0.593690,-0.006454,-0.204610,-0.105993,-0.373607,0.885915,0.722905,0.931504,0.110877,-0.091645,-0.044110,-0.058605,0.076637,-0.204482
-0.593949,0.346047,0.199487,0.172758,0.074195,0.001251,0.168686,0.095676,0.207653,0.412836,0.779099,0.983380,-1.071276,-0.142359,-0.789413,0.602168,-0.012906,-0.214067,-0.093005,-0.350675,0.910241,0.703898,0.880371,0.120054,-0.103559,-0.051643,-0.065114,0.074661,-0.213898
-0.635137,0.343825,0.211301,0.162344,0.064088,-0.011862,0.143817,0.096748,0.208349,0.503021,0.836483,0.985467,-1.075859,-0.107979,-0.830227,0.613549,-0.023036,-0.204725,-0.081894,-0.330331,0.948252,0.680672,0.832143,0.129649,-0.114589,-0.059653,-0.076467,0.077178,-0.229741
-0.689078,0.336725,0.221405,0.151764,0.052813,-0.027540,0.121423,0.096748,0.208349,0.603001,0.896580,0.983195,-1.082166,-0.053056,-0.872665,0.626382,-0.035005,-0.185984,-0.071721,-0.311282,0.993105,0.655338,0.785367,0.139453,-0.125176,-0.067900,-0.090242,0.081943,-0.248796
-0.749406,0.342025,0.230061,0.154189,0.052058,-0.035866,0.106477,0.098250,0.221475,0.727883,0.934099,0.960827,-1.088626,-0.022233,-0.872666,0.643570,-0.044352,-0.169769,-0.066172,-0.300112,1.039402,0.628392,0.754323,0.150850,-0.136994,-0.074421,-0.111806,0.095124,-0.273179
-0.807076,0.347461,0.239904,0.154571,0.049167,-0.044882,0.094352,0.099385,0.238899,0.849777,0.975026,0.930990,-1.093337,0.000037,-0.872670,0.662659,-0.054002,-0.148222,-0.061868,-0.290444,1.085577,0.599919,0.727819,0.162431,-0.150332,-0.081037,-0.133599,0.109980,-0.297251
-0.859427,0.353168,0.252120,0.150868,0.042757,-0.055279,0.087869,0.099385,0.264606,0.965694,1.022770,0.886216,-1.093337,0.005200,-0.872670,0.685549,-0.064258,-0.116011,-0.060054,-0.283782,1.131505,0.568395,0.710396,0.174378,-0.166706,-0.087840,-0.155847,0.128186,-0.320700
-0.901517,0.357130,0.268900,0.147299,0.030851,-0.068316,0.090092,0.098644,0.292101,1.062472,1.068800,0.833321,-1.093741,-0.003597,-0.872670,0.707836,-0.076012,-0.080500,-0.059035,-0.277632,1.181600,0.530757,0.704588,0.187402,-0.181999,-0.095603,-0.173316,0.149149,-0.342639
-0.938475,0.360218,0.287960,0.143797,0.016197,-0.082673,0.096667,0.098644,0.320490,1.149674,1.113971,0.776365,-1.093741,-0.019376,-0.872670,0.729819,-0.088516,-0.043340,-0.059035,-0.271738,1.233777,0.490062,0.704588,0.200963,-0.196749,-0.103846,-0.188393,0.171489,-0.363823
-0.978363,0.363858,0.301432,0.140475,0.011796,-0.090375,0.096667,0.099027,0.344377,1.224722,1.135414,0.711087,-1.091483,-0.046482,-0.872670,0.752336,-0.097445,-0.026203,-0.061739,-0.279628,1.276788,0.438061,0.723083,0.214358,-0.210227,-0.117122,-0.200610,0.204944,-0.380049
-1.017562,0.369106,0.310833,0.134482,0.009780,-0.097152,0.095177,0.097512,0.369148,1.293529,1.149060,0.641787,-1.088675,-0.072247,-0.872670,0.778094,-0.102805,-0.012585,-0.065173,-0.296292,1.317329,0.384309,0.743140,0.227082,-0.223648,-0.133749,-0.213499,0.243639,-0.393986
-1.055376,0.377573,0.312088,0.123146,0.012535,-0.102079,0.091328,0.090750,0.395683,1.349841,1.147109,0.564455,-1.084986,-0.095326,-0.872670,0.810328,-0.102805,-0.006004,-0.069236,-0.330501,1.352922,0.327067,0.765320,0.238461,-0.236950,-0.157077,-0.227734,0.292804,-0.403343
-1.090248,0.386494,0.310876,0.110093,0.014297,-0.105149,0.088946,0.078515,0.427180,1.397785,1.142343,0.480193,-1.082971,-0.113443,-0.872670,0.849450,-0.099786,0.001462,-0.073337,-0.380102,1.378872,0.266520,0.778734,0.256081,-0.252427,-0.187565,-0.243486,0.350086,-0.413811
-1.123649,0.395641,0.308430,0.096182,0.014297,-0.107291,0.087299,0.063541,0.461159,1.441546,1.136169,0.392462,-1.082971,-0.129079,-0.872670,0.892018,-0.096148,0.009371,-0.077457,-0.437400,1.399999,0.204319,0.787764,0.276823,-0.268990,-0.221635,-0.259997,0.411428,-0.424834
-1.156914,0.394390,0.303656,0.085428,0.018034,-0.110391,0.086936,0.049516,0.494885,1.473067,1.136996,0.307861,-1.087861,-0.135511,-0.872670,0.942561,-0.087551,0.018615,-0.080008,-0.500445,1.400000,0.135646,0.786483,0.310315,-0.290420,-0.251153,-0.274578,0.457739,-0.435661
-1.192776,0.388269,0.296920,0.075754,0.021723,-0.112458,0.085708,0.037502,0.517897,1.503180,1.140376,0.230471,-1.087945,-0.141925,-0.872670,0.992756,-0.077145,0.026719,-0.079944,-0.566082,1.400000,0.068456,0.784169,0.345890,-0.311508,-0.278578,-0.288296,0.498215,-0.446253
-1.233830,0.372410,0.286264,0.068243,0.027005,-0.112458,0.083112,0.029514,0.519474,1.530474,1.148032,0.167517,-1.076843,-0.148302,-0.872670,1.042245,-0.063119,0.032543,-0.074650,-0.636896,1.400000,0.004247,0.779793,0.385629,-0.331910,-0.301813,-0.300286,0.527015,-0.456370
-1.271361,0.354345,0.274837,0.062459,0.029584,-0.113885,0.082247,0.024212,0.520000,1.552887,1.156917,0.114345,-1.064689,-0.154512,-0.872670,1.084094,-0.049718,0.036102,-0.068848,-0.700645,1.400000,-0.049243,0.775957,0.423385,-0.350079,-0.320398,-0.309670,0.548377,-0.466039
-1.307131,0.335175,0.263025,0.057540,0.030813,-0.116025,0.082247,0.020252,0.520000,1.572861,1.166418,0.066064,-1.052008,-0.160639,-0.872670,1.122123,-0.036629,0.038529,-0.062791,-0.760862,1.400000,-0.097374,0.772390,0.460150,-0.367132,-0.336658,-0.317751,0.566021,-0.475485
-1.336837,0.317901,0.247405,0.052381,0.027246,-0.119712,0.084361,0.014603,0.520000,1.587793,1.174151,0.031166,-1.039161,-0.168717,-0.872670,1.154553,-0.024923,0.037994,-0.062168,-0.814192,1.400000,-0.130839,0.768705,0.487570,-0.377970,-0.347829,-0.322579,0.578189,-0.483501
-1.364744,0.301858,0.232746,0.047944,0.024202,-0.123062,0.084898,0.009009,0.520000,1.602336,1.181145,0.000703,-1.027779,-0.177895,-0.872670,1.185637,-0.013853,0.036498,-0.062364,-0.863301,1.400000,-0.160940,0.765348,0.513367,-0.387530,-0.357781,-0.326584,0.589823,-0.491594
-1.389050,0.288275,0.220009,0.044950,0.022202,-0.125739,0.084898,0.003527,0.520000,1.616100,1.186661,-0.020888,-1.019331,-0.189271,-0.872670,1.214027,-0.004058,0.033614,-0.064819,-0.903962,1.400000,-0.184310,0.762644,0.535916,-0.394534,-0.365296,-0.328941,0.600391,-0.499840
-1.411541,0.276234,0.207327,0.045385,0.022605,-0.128242,0.080878,0.001260,0.520000,1.631844,1.193213,-0.030884,-1.013542,-0.199737,-0.872670,1.240346,0.012090,0.032653,-0.068515,-0.936899,1.400000,-0.206022,0.752679,0.558989,-0.400571,-0.371437,-0.331609,0.613550,-0.511383
-1.433126,0.264964,0.194671,0.047534,0.024209,-0.130657,0.075993,0.001649,0.520000,1.648579,1.200282,-0.035083,-1.008650,-0.209749,-0.872670,1.265628,0.031416,0.032706,-0.072831,-0.965975,1.400000,-0.226906,0.739083,0.582323,-0.406124,-0.376891,-0.334433,0.628006,-0.524576
-1.452611,0.253411,0.185430,0.052847,0.026189,-0.138720,0.070453,0.001649,0.520000,1.663770,1.208343,-0.022466,-1.008650,-0.215420,-0.872670,1.290640,0.051915,0.034695,-0.076460,-0.975230,1.400000,-0.251151,0.718854,0.603168,-0.413131,-0.381540,-0.337283,0.651176,-0.540662
-1.471566,0.242045,0.177438,0.057637,0.028365,-0.149705,0.064854,0.002478,0.520000,1.677791,1.215583,-0.006914,-1.010189,-0.220028,-0.872670,1.319127,0.070838,0.036531,-0.079475,-0.980161,1.400000,-0.275297,0.699010,0.622353,-0.420144,-0.385852,-0.339494,0.674499,-0.555634
-1.489465,0.231051,0.171941,0.061381,0.030929,-0.166534,0.059136,0.002478,0.520000,1.689471,1.221180,0.014512,-1.016107,-0.222511,-0.872670,1.354570,0.086612,0.036531,-0.081262,-0.976441,1.400000,-0.299246,0.679933,0.638219,-0.427168,-0.389489,-0.339494,0.698130,-0.568382
-1.505026,0.221818,0.165482,0.063481,0.034249,-0.186921,0.053413,0.003316,0.520000,1.699223,1.224992,0.040608,-1.023603,-0.225554,-0.872670,1.396877,0.102295,0.035223,-0.082844,-0.967065,1.400000,-0.329898,0.662687,0.655023,-0.432668,-0.392445,-0.340109,0.722169,-0.581495
-1.519419,0.213465,0.158542,0.064759,0.037945,-0.209088,0.047688,0.003316,0.520000,1.708012,1.227912,0.069040,-1.031888,-0.228877,-0.872670,1.442617,0.117935,0.032495,-0.084323,-0.954860,1.400000,-0.363903,0.646357,0.672297,-0.437406,-0.395059,-0.340109,0.746413,-0.594791
-1.534753,0.201288,0.150085,0.065069,0.040438,-0.234958,0.043273,0.004282,0.520000,1.713354,1.232058,0.105470,-1.044978,-0.232405,-0.872670,1.501355,0.137125,0.027976,-0.086566,-0.931878,1.400000,-0.411028,0.631449,0.692504,-0.441476,-0.395933,-0.342535,0.772141,-0.609466
-1.549725,0.189136,0.142103,0.066279,0.043146,-0.259631,0.038831,0.004664,0.520000,1.717960,1.235377,0.140572,-1.058899,-0.235263,-0.872670,1.556735,0.156150,0.024100,-0.089043,-0.908799,1.400000,-0.454353,0.617278,0.711111,-0.445800,-0.396387,-0.344922,0.795933,-0.622749
-1.563974,0.177033,0.135074,0.066279,0.046287,-0.281912,0.034337,0.004664,0.520000,1.721094,1.237043,0.173017,-1.074484,-0.235263,-0.872670,1.605400,0.174847,0.021513,-0.091989,-0.885523,1.400000,-0.490081,0.604581,0.726520,-0.450633,-0.395128,-0.344922,0.815857,-0.633248
-1.569362,0.170630,0.129993,0.068720,0.049551,-0.301548,0.030546,0.006201,0.520000,1.721161,1.234981,0.203668,-1.085707,-0.237715,-0.872670,1.644181,0.192107,0.020168,-0.093839,-0.865681,1.400000,-0.516618,0.593843,0.739318,-0.455268,-0.392136,-0.345894,0.832632,-0.641395
-1.569362,0.167078,0.125887,0.071033,0.052876,-0.319860,0.027107,0.007990,0.520000,1.719694,1.231055,0.233419,-1.094748,-0.240632,-0.872670,1.678018,0.208647,0.020168,-0.093839,-0.847557,1.400000,-0.538560,0.584085,0.750811,-0.459803,-0.388279,-0.345894,0.847831,-0.648366
-1.570000,0.166938,0.122186,0.073445,0.057136,-0.330238,0.024492,0.010564,0.520000,1.719999,1.226730,0.256538,-1.098597,-0.242563,-0.872670,1.696432,0.222742,0.021841,-0.093038,-0.834743,1.400000,-0.552245,0.575642,0.758638,-0.462642,-0.383698,-0.345853,0.858408,-0.652792
-1.570000,0.167505,0.118787,0.075734,0.061571,-0.339530,0.022100,0.013476,0.520000,1.721256,1.222238,0.279429,-1.101592,-0.244707,-0.872670,1.712020,0.236713,0.024304,-0.090759,-0.821363,1.400000,-0.565046,0.567235,0.766568,-0.465710,-0.378985,-0.344061,0.868913,-0.657133
-1.570000,0.167505,0.115993,0.077777,0.066360,-0.346652,0.020150,0.017062,0.520000,1.721256,1.217413,0.301866,-1.102880,-0.244707,-0.872670,1.721958,0.250439,0.027381,-0.087259,-0.806849,1.400000,-0.576077,0.558898,0.774707,-0.469234,-0.374010,-0.344061,0.879274,-0.661306
-1.570000,0.168341,0.112927,0.079200,0.069674,-0.354046,0.019172,0.020969,0.520000,1.723114,1.214199,0.323530,-1.103309,-0.246457,-0.872670,1.728512,0.262555,0.029625,-0.083695,-0.793423,1.400000,-0.584652,0.551817,0.783224,-0.473253,-0.368585,-0.341940,0.889608,-0.665286
-1.570000,0.168341,0.109725,0.079200,0.072251,-0.361576,0.019172,0.025036,0.520000,1.723114,1.211791,0.344807,-1.103309,-0.247798,-0.872670,1.733374,0.273865,0.031453,-0.080100,-0.780543,1.400000,-0.591999,0.545364,0.791930,-0.477520,-0.362936,-0.340257,0.899927,-0.669168
-1.570000,0.166465,0.106952,0.080285,0.071657,-0.370373,0.020470,0.027292,0.520000,1.723458,1.211791,0.365647,-1.103200,-0.250569,-0.872670,1.737308,0.283882,0.031453,-0.079489,-0.769049,1.400000,-0.596188,0.540001,0.800432,-0.482359,-0.356495,-0.338551,0.910232,-0.672972
-1.570000,0.164349,0.104689,0.081471,0.069806,-0.379424,0.022321,0.029129,0.520000,1.722002,1.210819,0.385667,-1.103842,-0.253669,-0.872670,1.740525,0.293449,0.031165,-0.079606,-0.757470,1.400000,-0.599878,0.535041,0.808855,-0.487310,-0.349909,-0.336930,0.920488,-0.676766
-1.570000,0.162011,0.103445,0.081471,0.066031,-0.388984,0.024621,0.029129,0.520000,1.722002,1.209597,0.404046,-1.103842,-0.257428,-0.872670,1.742310,0.302114,0.031165,-0.081790,-0.745719,1.400000,-0.602571,0.530886,0.817121,-0.492482,-0.343033,-0.335476,0.930647,-0.680540
