Lukebird17/AI3618-SONIC/reference/reference/example/tired_one_leg_jumping_R_001__A359/joint_pos.csv
joint_0,joint_1,joint_2,joint_3,joint_4,joint_5,joint_6,joint_7,joint_8,joint_9,joint_10,joint_11,joint_12,joint_13,joint_14,joint_15,joint_16,joint_17,joint_18,joint_19,joint_20,joint_21,joint_22,joint_23,joint_24,joint_25,joint_26,joint_27,joint_28
0.198185,0.181909,0.055339,-0.013944,0.011805,-0.025321,-0.003922,-0.236684,0.216288,0.070679,0.070377,-0.061695,-0.007948,-0.181915,-0.185979,0.206228,-0.203874,0.003881,-0.023460,-0.451970,0.463996,1.258267,1.180941,-0.003302,0.143077,0.039856,0.080034,0.070967,-0.025893
0.199809,0.183989,0.055339,-0.013944,0.011805,-0.025321,-0.003922,-0.236684,0.219414,0.070679,0.068976,-0.069984,-0.016493,-0.181915,-0.185979,0.200989,-0.198551,0.003881,-0.023460,-0.453752,0.463996,1.270344,1.191155,-0.011491,0.159214,0.039856,0.081870,0.082616,-0.028729
0.201241,0.185940,0.056183,-0.013648,0.012143,-0.026328,-0.004047,-0.237397,0.222635,0.070591,0.068499,-0.076082,-0.023007,-0.182479,-0.186284,0.197131,-0.194720,0.002998,-0.023404,-0.455388,0.465550,1.278912,1.197964,-0.018480,0.172689,0.040174,0.083709,0.092372,-0.031307
0.201241,0.185940,0.056183,-0.013648,0.012143,-0.026328,-0.004047,-0.237397,0.226045,0.072243,0.069871,-0.076082,-0.023007,-0.182479,-0.186284,0.197131,-0.194720,0.002998,-0.023404,-0.456731,0.465550,1.280461,1.197964,-0.023069,0.180842,0.040174,0.083709,0.098342,-0.033370
0.200887,0.186178,0.058067,-0.013325,0.011875,-0.027351,-0.004553,-0.238195,0.228786,0.074426,0.071539,-0.077227,-0.023824,-0.183503,-0.186840,0.196765,-0.194437,0.002368,-0.023378,-0.457613,0.467573,1.281461,1.198062,-0.026529,0.186202,0.040249,0.084559,0.102456,-0.034995
0.200183,0.185254,0.059623,-0.012716,0.011888,-0.027795,-0.004553,-0.238890,0.231193,0.076876,0.073356,-0.078267,-0.024163,-0.183792,-0.188174,0.196572,-0.194176,0.002211,-0.023619,-0.458046,0.469381,1.281495,1.197499,-0.029423,0.190167,0.040015,0.084796,0.105643,-0.037214
0.198814,0.185254,0.061218,-0.012716,0.011888,-0.027795,-0.004553,-0.238890,0.233125,0.079773,0.075070,-0.078267,-0.024163,-0.185353,-0.188174,0.196572,-0.194176,0.002211,-0.023619,-0.458046,0.470912,1.281495,1.197499,-0.030759,0.192061,0.040015,0.084796,0.106913,-0.037214
0.197251,0.184370,0.063277,-0.012372,0.012026,-0.028577,-0.004079,-0.239339,0.235051,0.082288,0.077029,-0.079514,-0.024274,-0.186919,-0.189381,0.196544,-0.194050,0.001898,-0.024478,-0.458321,0.472876,1.280736,1.196613,-0.032125,0.193786,0.040257,0.085065,0.108450,-0.038026
0.197251,0.184370,0.063277,-0.012372,0.012026,-0.028577,-0.004079,-0.239339,0.236966,0.084039,0.077029,-0.079514,-0.024274,-0.186919,-0.189381,0.196544,-0.194050,0.001898,-0.024478,-0.458321,0.472876,1.280736,1.196613,-0.032125,0.195170,0.040257,0.085065,0.108450,-0.038026
0.197141,0.184548,0.065221,-0.011960,0.012232,-0.029334,-0.004781,-0.239484,0.239184,0.084146,0.077846,-0.081154,-0.025262,-0.187444,-0.189729,0.196912,-0.194021,0.001538,-0.024908,-0.458134,0.474752,1.280427,1.196665,-0.033480,0.196472,0.039921,0.085581,0.109921,-0.039058
0.198673,0.185951,0.066169,-0.011916,0.012459,-0.030189,-0.005824,-0.240161,0.241554,0.083669,0.076770,-0.082442,-0.025976,-0.186691,-0.189876,0.197413,-0.193922,0.001247,-0.024795,-0.458573,0.476152,1.279371,1.197410,-0.035090,0.198288,0.039551,0.085332,0.111286,-0.040076
0.198673,0.185951,0.066169,-0.011916,0.012459,-0.030189,-0.005824,-0.240161,0.244264,0.082338,0.076770,-0.083732,-0.027529,-0.186691,-0.189876,0.197413,-0.193922,0.001247,-0.024795,-0.460604,0.477976,1.279371,1.197410,-0.035090,0.198288,0.039551,0.085332,0.111286,-0.040076
0.200273,0.187404,0.066147,-0.011622,0.013188,-0.031021,-0.006874,-0.241060,0.247162,0.080884,0.075388,-0.085215,-0.029229,-0.185572,-0.189766,0.198254,-0.193648,0.000614,-0.025015,-0.463281,0.479786,1.279003,1.198456,-0.036437,0.199467,0.039193,0.085036,0.111872,-0.041104
0.202098,0.188949,0.066147,-0.011622,0.013188,-0.031021,-0.006874,-0.241060,0.250437,0.079185,0.075388,-0.087088,-0.031226,-0.185572,-0.189766,0.198254,-0.193648,0.000614,-0.025015,-0.467249,0.481566,1.279003,1.198456,-0.036437,0.199467,0.039193,0.085036,0.111872,-0.041104
0.203686,0.190320,0.065211,-0.011328,0.013437,-0.031869,-0.008130,-0.242093,0.253546,0.077693,0.074765,-0.088890,-0.033111,-0.185245,-0.189767,0.199117,-0.192932,0.000201,-0.025229,-0.470684,0.483057,1.279287,1.199544,-0.037648,0.200431,0.039217,0.084639,0.111410,-0.041784
0.205156,0.190320,0.065211,-0.011328,0.013437,-0.031869,-0.008130,-0.242093,0.256573,0.076306,0.074765,-0.090657,-0.034941,-0.185245,-0.189767,0.199117,-0.192932,0.000201,-0.025229,-0.473854,0.483057,1.279287,1.199544,-0.037648,0.200431,0.039217,0.084639,0.111410,-0.041784
0.205968,0.191177,0.063430,-0.011297,0.013447,-0.032615,-0.009256,-0.243163,0.259453,0.075398,0.075043,-0.092876,-0.036812,-0.183953,-0.189386,0.199952,-0.192072,-0.000252,-0.025441,-0.477787,0.484725,1.280324,1.200047,-0.038242,0.200557,0.039211,0.084650,0.110807,-0.042456
0.207327,0.191996,0.061601,-0.010944,0.013668,-0.033256,-0.009722,-0.244010,0.262263,0.074076,0.075301,-0.095340,-0.038702,-0.183121,-0.188911,0.200900,-0.191240,-0.000249,-0.025336,-0.481845,0.486122,1.281489,1.199777,-0.038445,0.200444,0.039297,0.084996,0.110534,-0.042951
0.207327,0.191996,0.061601,-0.010944,0.013668,-0.033256,-0.009722,-0.244010,0.264930,0.072829,0.075301,-0.098294,-0.040629,-0.183121,-0.188911,0.200900,-0.191240,-0.000249,-0.025336,-0.486154,0.488001,1.282810,1.199777,-0.038445,0.200444,0.039297,0.084996,0.110534,-0.042951
0.208742,0.192295,0.060220,-0.010624,0.013931,-0.033679,-0.010480,-0.244256,0.267603,0.071408,0.075280,-0.100988,-0.042305,-0.182635,-0.188619,0.201662,-0.190526,-0.000497,-0.025524,-0.489325,0.489433,1.283250,1.199066,-0.039150,0.201019,0.039071,0.085181,0.110298,-0.043068
0.210191,0.192793,0.059443,-0.010545,0.014386,-0.033717,-0.010891,-0.243932,0.270279,0.069900,0.074969,-0.103550,-0.044722,-0.182541,-0.188453,0.202266,-0.189696,-0.001050,-0.025830,-0.491928,0.490819,1.283515,1.198263,-0.039981,0.201623,0.038684,0.085131,0.110301,-0.043063
0.210191,0.192793,0.059443,-0.010545,0.014386,-0.033717,-0.010891,-0.243932,0.272414,0.068217,0.074969,-0.106342,-0.044722,-0.182541,-0.188453,0.202266,-0.189696,-0.001050,-0.025830,-0.494164,0.490819,1.283515,1.198263,-0.039981,0.201623,0.038684,0.085131,0.110301,-0.043063
0.210226,0.192246,0.058506,-0.009820,0.015056,-0.033414,-0.010601,-0.243629,0.274731,0.067469,0.074504,-0.109142,-0.046034,-0.183840,-0.188436,0.202592,-0.189230,-0.001652,-0.026321,-0.496419,0.491973,1.283176,1.197180,-0.040594,0.200892,0.038739,0.085110,0.110139,-0.043259
0.208589,0.190757,0.058506,-0.009820,0.015056,-0.033414,-0.010601,-0.243629,0.274731,0.067469,0.074504,-0.111954,-0.046034,-0.183840,-0.188436,0.202592,-0.189230,-0.001652,-0.026321,-0.498708,0.491973,1.283176,1.197180,-0.040594,0.200892,0.038739,0.085110,0.110139,-0.043259
0.205568,0.188219,0.057973,-0.009377,0.015712,-0.033157,-0.010227,-0.243127,0.275625,0.069481,0.074998,-0.114378,-0.046026,-0.185941,-0.188581,0.203031,-0.188698,-0.001961,-0.027097,-0.499472,0.492547,1.282256,1.195474,-0.040845,0.199219,0.038912,0.084675,0.109837,-0.043338
0.201854,0.185157,0.057039,-0.008791,0.015991,-0.032574,-0.010268,-0.242210,0.274699,0.071941,0.075623,-0.116607,-0.044672,-0.187695,-0.188878,0.202874,-0.189211,-0.001979,-0.028020,-0.499273,0.492416,1.281524,1.193898,-0.040480,0.198409,0.038825,0.083924,0.109648,-0.043088
0.194908,0.179526,0.057039,-0.008791,0.015991,-0.032574,-0.010268,-0.242210,0.274699,0.077523,0.078284,-0.118516,-0.044672,-0.190463,-0.190796,0.202874,-0.189211,-0.001979,-0.028020,-0.499273,0.492416,1.280230,1.190985,-0.040480,0.198409,0.038825,0.083924,0.109648,-0.043088
0.186446,0.172641,0.056018,-0.008064,0.016044,-0.032273,-0.010096,-0.241306,0.273119,0.084520,0.081870,-0.120524,-0.042993,-0.193833,-0.192747,0.202762,-0.190488,-0.002384,-0.029180,-0.499075,0.491596,1.278579,1.187598,-0.040359,0.198395,0.038464,0.082993,0.109866,-0.043392
0.174952,0.163247,0.054261,-0.008064,0.016044,-0.032273,-0.010096,-0.241306,0.270899,0.094346,0.087309,-0.122730,-0.040665,-0.198412,-0.194761,0.202762,-0.190488,-0.002384,-0.029180,-0.499075,0.489665,1.278579,1.183261,-0.040359,0.198395,0.038464,0.082993,0.109866,-0.043392
0.160816,0.151815,0.052319,-0.006731,0.016250,-0.031603,-0.009960,-0.240461,0.268278,0.107139,0.094550,-0.124372,-0.037772,-0.203750,-0.197195,0.202691,-0.192402,-0.002705,-0.030800,-0.499091,0.487765,1.276496,1.178710,-0.039685,0.198729,0.038015,0.082013,0.110363,-0.043984
0.145360,0.139365,0.050283,-0.006731,0.016250,-0.031603,-0.009960,-0.240461,0.265456,0.121414,0.102693,-0.125732,-0.034597,-0.209469,-0.199838,0.202691,-0.194101,-0.002705,-0.030800,-0.499091,0.485881,1.274555,1.174052,-0.039685,0.198729,0.038015,0.082013,0.110363,-0.043984
0.125677,0.122482,0.048367,-0.004959,0.016489,-0.031007,-0.009164,-0.239177,0.261534,0.137982,0.113484,-0.126235,-0.030746,-0.215306,-0.203530,0.203205,-0.196479,-0.003163,-0.033627,-0.498216,0.484611,1.271024,1.168737,-0.037609,0.197449,0.037450,0.080177,0.110657,-0.043252
0.105534,0.104681,0.046667,-0.003360,0.016326,-0.030690,-0.008747,-0.237934,0.257691,0.154430,0.125158,-0.126185,-0.026443,-0.220927,-0.207548,0.204210,-0.199186,-0.003783,-0.035465,-0.497115,0.482975,1.266329,1.162891,-0.035843,0.196075,0.036989,0.078892,0.111090,-0.042693
0.084472,0.085042,0.045399,-0.003360,0.016326,-0.030690,-0.008747,-0.236667,0.254006,0.170637,0.138601,-0.126185,-0.021236,-0.226120,-0.212219,0.205692,-0.202549,-0.003783,-0.037045,-0.495487,0.482975,1.259304,1.155982,-0.033538,0.194782,0.036989,0.077614,0.111090,-0.042693
0.063642,0.063929,0.044469,-0.002299,0.014992,-0.030628,-0.007337,-0.235361,0.250857,0.185000,0.153670,-0.123048,-0.014875,-0.230370,-0.217391,0.208153,-0.206460,-0.004778,-0.038390,-0.491673,0.480408,1.248008,1.147908,-0.030607,0.193503,0.036455,0.076180,0.112463,-0.041558
0.042928,0.042081,0.044502,-0.002301,0.014090,-0.031568,-0.006636,-0.234036,0.247976,0.198440,0.169552,-0.119171,-0.007939,-0.234149,-0.222813,0.211104,-0.210644,-0.005831,-0.039618,-0.486766,0.477743,1.234576,1.139250,-0.027363,0.192653,0.035264,0.075171,0.113396,-0.040899
0.022506,0.017063,0.044502,-0.002301,0.011654,-0.031568,-0.005265,-0.231439,0.246670,0.209317,0.189767,-0.111429,0.000507,-0.235911,-0.229376,0.216354,-0.215824,-0.005831,-0.041146,-0.478288,0.474704,1.212965,1.129249,-0.020742,0.190695,0.035264,0.073402,0.115590,-0.040899
0.001846,-0.008452,0.045441,-0.003712,0.009054,-0.032851,-0.003379,-0.228627,0.246493,0.220238,0.210558,-0.103351,0.009186,-0.237578,-0.236128,0.221965,-0.221060,-0.006671,-0.042759,-0.469768,0.471362,1.190452,1.119322,-0.012857,0.188669,0.033829,0.071272,0.117907,-0.040599
-0.019291,-0.034961,0.045441,-0.003712,0.006127,-0.034285,-0.003379,-0.225387,0.246493,0.231244,0.232498,-0.094598,0.018331,-0.239056,-0.243257,0.228299,-0.226408,-0.006671,-0.044544,-0.461166,0.467413,1.166137,1.109545,-0.002443,0.186505,0.033829,0.068422,0.120469,-0.040599
-0.042707,-0.062892,0.046552,-0.005588,0.003092,-0.035654,-0.001511,-0.222398,0.249531,0.245573,0.256125,-0.085944,0.027592,-0.241726,-0.250836,0.234728,-0.231768,-0.007472,-0.046387,-0.451763,0.463472,1.141269,1.099957,0.007573,0.184861,0.033234,0.065467,0.122747,-0.041472
-0.067262,-0.091536,0.047297,-0.007417,0.000003,-0.036986,-0.000615,-0.219536,0.253045,0.261561,0.280594,-0.077339,0.036912,-0.244990,-0.258640,0.241204,-0.237134,-0.007929,-0.048258,-0.441959,0.459536,1.116126,1.090465,0.017389,0.183781,0.031931,0.062460,0.124884,-0.042296
-0.095723,-0.121296,0.047297,-0.007417,-0.003483,-0.036986,-0.000615,-0.218059,0.260064,0.285286,0.308051,-0.069080,0.047689,-0.251196,-0.267652,0.247349,-0.242164,-0.007929,-0.050196,-0.431064,0.454245,1.091196,1.080069,0.025642,0.183781,0.031931,0.059969,0.126571,-0.044476
-0.126668,-0.152703,0.046468,-0.008898,-0.007044,-0.036834,-0.000881,-0.216662,0.267709,0.312441,0.337557,-0.062028,0.058576,-0.258668,-0.277402,0.253384,-0.247484,-0.008678,-0.052250,-0.421252,0.449961,1.067839,1.069278,0.033180,0.183444,0.030729,0.057412,0.128295,-0.046816
-0.162578,-0.187405,0.046468,-0.008898,-0.010756,-0.036834,-0.000881,-0.216662,0.276604,0.346454,0.371161,-0.057389,0.069682,-0.268672,-0.288627,0.259198,-0.253384,-0.008678,-0.054533,-0.413606,0.447690,1.047624,1.057699,0.039287,0.183444,0.029366,0.054723,0.130092,-0.049476
-0.203473,-0.226331,0.043744,-0.009791,-0.015088,-0.035279,-0.002314,-0.216805,0.286466,0.387554,0.411229,-0.054673,0.080681,-0.282377,-0.302575,0.264540,-0.259508,-0.010039,-0.056881,-0.406636,0.446095,1.030284,1.044705,0.043629,0.183266,0.027128,0.052346,0.132269,-0.051224
-0.246862,-0.267370,0.040952,-0.010115,-0.019731,-0.034318,-0.003722,-0.218030,0.296811,0.432197,0.454531,-0.052918,0.091628,-0.297931,-0.317884,0.269645,-0.265744,-0.010987,-0.059260,-0.400005,0.444838,1.014382,1.031003,0.046602,0.183054,0.024453,0.049380,0.134637,-0.052515
-0.294026,-0.311807,0.038090,-0.010115,-0.025106,-0.032664,-0.003722,-0.218030,0.310905,0.487490,0.508002,-0.052918,0.101173,-0.317890,-0.338324,0.274356,-0.272757,-0.012418,-0.062253,-0.393162,0.444838,1.000514,1.015833,0.046602,0.181656,0.019884,0.049380,0.137655,-0.050676
-0.341229,-0.357425,0.035357,-0.009888,-0.030841,-0.031149,-0.003664,-0.218085,0.326746,0.545109,0.565476,-0.053661,0.109939,-0.339518,-0.360034,0.279253,-0.279878,-0.013976,-0.065399,-0.386022,0.443582,0.986150,0.999754,0.043991,0.179846,0.014500,0.048430,0.140639,-0.048557
-0.388509,-0.405406,0.032882,-0.009888,-0.037297,-0.031149,-0.003664,-0.216239,0.346080,0.607379,0.630958,-0.053661,0.117148,-0.364483,-0.384287,0.284522,-0.287212,-0.015789,-0.068852,-0.378284,0.443582,0.970793,0.981854,0.037617,0.177209,0.007489,0.048430,0.143555,-0.045876
-0.438498,-0.454927,0.030230,-0.009224,-0.042625,-0.029913,-0.002070,-0.214099,0.367222,0.676104,0.699577,-0.057397,0.121690,-0.391248,-0.409957,0.290596,-0.294501,-0.018910,-0.074430,-0.372254,0.441001,0.955299,0.964959,0.025897,0.174561,-0.002233,0.047371,0.147221,-0.043719
-0.489841,-0.505220,0.027491,-0.007449,-0.047390,-0.029089,-0.000937,-0.210818,0.389267,0.748056,0.769766,-0.061778,0.124899,-0.418913,-0.436336,0.297072,-0.301766,-0.022686,-0.081069,-0.367816,0.438036,0.939736,0.948567,0.011502,0.171607,-0.013309,0.046518,0.151262,-0.041824
-0.544021,-0.554128,0.022932,-0.003124,-0.048787,-0.026273,-0.000937,-0.210818,0.411954,0.824961,0.836856,-0.073659,0.120962,-0.441954,-0.462957,0.304364,-0.308806,-0.026058,-0.087625,-0.367816,0.438036,0.930869,0.937498,-0.006738,0.171607,-0.026275,0.044287,0.158146,-0.041824
-0.597883,-0.603091,0.017778,0.001306,-0.050714,-0.023047,-0.002100,-0.210291,0.434995,0.901988,0.904957,-0.088916,0.114368,-0.465262,-0.488697,0.311453,-0.315943,-0.029066,-0.094499,-0.370150,0.438238,0.925910,0.928704,-0.023949,0.172066,-0.038771,0.041994,0.165680,-0.041343
-0.651106,-0.652167,0.011433,0.005946,-0.050714,-0.019001,-0.004741,-0.211690,0.458741,0.979261,0.975079,-0.110929,0.102459,-0.489101,-0.512678,0.318138,-0.323272,-0.031344,-0.102010,-0.374940,0.438238,0.928770,0.924462,-0.039101,0.174336,-0.050324,0.039577,0.174512,-0.041343
-0.700851,-0.698082,0.005774,0.010236,-0.051082,-0.014176,-0.009406,-0.213558,0.482456,1.053547,1.042271,-0.140536,0.084404,-0.511371,-0.534464,0.323145,-0.329658,-0.033762,-0.109963,-0.380125,0.439777,0.939058,0.928057,-0.053667,0.177856,-0.061094,0.036304,0.184467,-0.042798
-0.748858,-0.742417,-0.000156,0.014351,-0.050453,-0.008962,-0.015083,-0.215661,0.506155,1.126339,1.107998,-0.173941,0.063277,-0.532855,-0.555152,0.327314,-0.335572,-0.036249,-0.118138,-0.385508,0.441128,0.953059,0.935572,-0.067939,0.182002,-0.071471,0.032601,0.194983,-0.043720
-0.790731,-0.781193,-0.000156,0.019363,-0.044815,-0.003391,-0.022861,-0.217853,0.514462,1.187741,1.161191,-0.210352,0.035706,-0.554552,-0.576125,0.325686,-0.338430,-0.037786,-0.127382,-0.390600,0.452543,0.975792,0.963142,-0.081057,0.192261,-0.076234,0.026803,0.208017,-0.048102
-0.828603,-0.816266,0.000901,0.023818,-0.039192,0.001988,-0.031009,-0.220545,0.520000,1.244368,1.210326,-0.245317,0.004811,-0.574859,-0.596061,0.321388,-0.339497,-0.039677,-0.136363,-0.391140,0.465979,0.994384,0.996477,-0.090989,0.204430,-0.078939,0.021248,0.222707,-0.053207
-0.858472,-0.843930,0.005915,0.027161,-0.033600,0.006983,-0.039897,-0.224237,0.520000,1.291445,1.251346,-0.277393,-0.032733,-0.592388,-0.613921,0.311750,-0.336983,-0.042277,-0.144816,-0.382577,0.483455,1.004694,1.041342,-0.094552,0.220418,-0.077528,0.016180,0.240713,-0.059761
-0.878799,-0.861769,0.011932,0.028698,-0.030021,0.011718,-0.048929,-0.229318,0.520000,1.328396,1.283654,-0.299785,-0.075996,-0.606509,-0.630118,0.299936,-0.331619,-0.044725,-0.151541,-0.367821,0.498493,0.986287,1.087156,-0.085157,0.237326,-0.074295,0.012966,0.262355,-0.065845
-0.894356,-0.875496,0.019059,0.029121,-0.027448,0.016323,-0.058033,-0.235092,0.520000,1.360284,1.311607,-0.317334,-0.122118,-0.618927,-0.645483,0.287034,-0.324831,-0.047098,-0.157402,-0.349970,0.512311,0.953520,1.133444,-0.069282,0.254695,-0.071022,0.010681,0.285816,-0.071695
-0.899786,-0.875496,0.019059,0.032951,-0.024148,0.022177,-0.065306,-0.242439,0.520000,1.380576,1.325571,-0.319407,-0.179662,-0.625161,-0.656742,0.284097,-0.316417,-0.050481,-0.161170,-0.359114,0.524386,0.876773,1.174435,-0.045118,0.283218,-0.071022,0.006271,0.319301,-0.078697
-0.900980,-0.872624,0.020466,0.039682,-0.018901,0.028522,-0.071075,-0.249334,0.520000,1.396675,1.334455,-0.319532,-0.238281,-0.630024,-0.665867,0.284553,-0.309245,-0.054587,-0.164961,-0.376676,0.537474,0.799711,1.207189,-0.018528,0.312320,-0.075715,0.001125,0.352861,-0.087496
-0.893701,-0.861605,0.022862,0.052218,-0.009761,0.035850,-0.073835,-0.255321,0.520000,1.404390,1.333182,-0.315758,-0.299051,-0.632144,-0.670722,0.291795,-0.304555,-0.060141,-0.168798,-0.411076,0.552591,0.722020,1.223471,0.012917,0.342583,-0.087183,-0.005493,0.386574,-0.099889
-0.881004,-0.842521,0.030441,0.068185,0.003470,0.042540,-0.076313,-0.260215,0.520000,1.409304,1.323000,-0.301648,-0.357662,-0.625337,-0.672340,0.298607,-0.302473,-0.066835,-0.173378,-0.433148,0.565900,0.661620,1.212345,0.091336,0.360011,-0.093282,-0.014647,0.423271,-0.117823
-0.865600,-0.819404,0.040611,0.085868,0.018748,0.048912,-0.078649,-0.264561,0.520000,1.412818,1.308364,-0.282369,-0.415192,-0.614065,-0.672263,0.305205,-0.301955,-0.074100,-0.178330,-0.449057,0.578306,0.609865,1.187515,0.193242,0.371022,-0.096697,-0.025069,0.461461,-0.138528
-0.852471,-0.789231,0.054277,0.097609,0.035459,0.050693,-0.087703,-0.267499,0.520000,1.422987,1.287470,-0.248788,-0.476790,-0.579938,-0.666273,0.307740,-0.306843,-0.084231,-0.182861,-0.441863,0.596712,0.599935,1.125248,0.268554,0.361083,-0.086615,-0.038472,0.486840,-0.145417
-0.845219,-0.758928,0.066806,0.105861,0.050161,0.050031,-0.097292,-0.269987,0.515226,1.437869,1.266030,-0.209088,-0.537883,-0.531221,-0.658556,0.313954,-0.314572,-0.087888,-0.188252,-0.435077,0.620688,0.603677,1.050118,0.325462,0.347668,-0.077668,-0.052509,0.508877,-0.150010
-0.849721,-0.728364,0.077060,0.105861,0.060845,0.044482,-0.107953,-0.271576,0.500905,1.462175,1.243498,-0.157148,-0.597969,-0.453321,-0.647389,0.327525,-0.327986,-0.078596,-0.195364,-0.429108,0.655808,0.634761,0.949259,0.345559,0.327302,-0.070994,-0.067813,0.524231,-0.150010
-0.870397,-0.692322,0.086220,0.094249,0.064406,0.033306,-0.116812,-0.270040,0.480818,1.506504,1.220382,-0.090682,-0.653932,-0.331671,-0.633573,0.354726,-0.356207,-0.051556,-0.199771,-0.419933,0.697072,0.672578,0.816685,0.351395,0.291596,-0.057325,-0.081041,0.511573,-0.153766
-0.899160,-0.653540,0.094834,0.076197,0.064636,0.019315,-0.124770,-0.266941,0.457848,1.560847,1.196972,-0.016950,-0.707834,-0.188145,-0.618433,0.388742,-0.391834,-0.015640,-0.203456,-0.409157,0.741408,0.713762,0.668251,0.350101,0.248221,-0.040157,-0.094107,0.484909,-0.158953
-0.913899,-0.603756,0.100383,0.064953,0.062371,-0.002375,-0.117171,-0.259965,0.438460,1.620021,1.171475,0.076601,-0.770640,-0.162356,-0.607531,0.442826,-0.444718,-0.003529,-0.203456,-0.382085,0.784030,0.744706,0.489893,0.367658,0.203816,0.007662,-0.094107,0.389284,-0.173825
-0.929855,-0.553213,0.104965,0.058312,0.059426,-0.025326,-0.105777,-0.252920,0.418078,1.683801,1.142410,0.173799,-0.839278,-0.147066,-0.596040,0.497469,-0.498650,0.005909,-0.204458,-0.346324,0.824789,0.775459,0.317518,0.381465,0.167482,0.055584,-0.093899,0.287844,-0.191501
-0.948244,-0.501153,0.107611,0.058312,0.055121,-0.050800,-0.086793,-0.245739,0.395709,1.756791,1.106210,0.278290,-0.919578,-0.152772,-0.583369,0.553229,-0.554678,0.010000,-0.204458,-0.293187,0.861824,0.805827,0.157111,0.387770,0.147290,0.103713,-0.090646,0.174779,-0.214786
-0.973173,-0.452587,0.110949,0.054455,0.044427,-0.076130,-0.064754,-0.236228,0.369684,1.831239,1.060240,0.384995,-1.002990,-0.156444,-0.563610,0.601198,-0.604769,0.009786,-0.201578,-0.225166,0.892725,0.824465,0.029081,0.390823,0.138120,0.143776,-0.092006,0.079499,-0.240834
-1.001372,-0.405768,0.114632,0.047387,0.030539,-0.101389,-0.041188,-0.225552,0.341832,1.906415,1.009386,0.492806,-1.087958,-0.159097,-0.540308,0.645270,-0.651892,0.007419,-0.196700,-0.149702,0.920559,0.837239,-0.082760,0.391776,0.134462,0.179805,-0.095673,-0.006888,-0.268262
-1.027172,-0.357097,0.121678,0.034567,0.009049,-0.123238,-0.014661,-0.211747,0.315778,1.967035,0.932465,0.585696,-1.152761,-0.168077,-0.499238,0.674531,-0.673515,0.004143,-0.183003,-0.078327,0.934146,0.843832,-0.146568,0.407011,0.132343,0.199114,-0.101880,-0.048176,-0.291788
-1.049079,-0.303016,0.131755,0.026712,-0.010291,-0.143037,0.012093,-0.196938,0.292215,2.021037,0.839407,0.669222,-1.205890,-0.175720,-0.448356,0.700261,-0.686445,0.001386,-0.168344,-0.013116,0.943890,0.852966,-0.201712,0.421807,0.129466,0.213197,-0.106513,-0.076113,-0.314481
-1.063199,-0.238113,0.147896,0.026712,-0.025332,-0.158738,0.039300,-0.180119,0.273635,2.061805,0.714077,0.734018,-1.235676,-0.180689,-0.377854,0.718930,-0.681989,-0.000330,-0.151762,0.039768,0.945949,0.867180,-0.239524,0.435723,0.125072,0.216828,-0.108000,-0.076113,-0.335509
-1.072726,-0.169197,0.170480,0.038706,-0.039500,-0.175274,0.070120,-0.161076,0.257172,2.091878,0.561890,0.780571,-1.244413,-0.187687,-0.285943,0.733520,-0.664889,0.001074,-0.132230,0.080493,0.943314,0.881094,-0.268475,0.433132,0.120283,0.213619,-0.106011,-0.055520,-0.353426
-1.079957,-0.098275,0.196286,0.055660,-0.053232,-0.192227,0.102747,-0.140921,0.241767,2.116604,0.396275,0.818002,-1.242627,-0.195699,-0.183330,0.746071,-0.641467,0.004038,-0.111224,0.115138,0.937492,0.894858,-0.292994,0.422289,0.115298,0.206991,-0.102286,-0.024011,-0.369787
-1.082972,-0.062658,0.228709,0.075389,-0.073960,-0.205444,0.133389,-0.147777,0.228455,2.125114,0.263584,0.834219,-1.223127,-0.203491,-0.005976,0.753198,-0.611818,0.009141,-0.072755,0.145393,0.937492,0.896830,-0.308715,0.374484,0.105991,0.194900,-0.097253,0.010431,-0.379678
-1.084367,-0.040450,0.259736,0.091753,-0.096643,-0.216773,0.161554,-0.163782,0.216336,2.128103,0.152947,0.846849,-1.200396,-0.207034,0.174300,0.759945,-0.583722,0.013490,-0.026608,0.175765,0.939479,0.895266,-0.325051,0.322158,0.096197,0.182593,-0.092223,0.035494,-0.387444
-1.082522,-0.045063,0.287969,0.101387,-0.123237,-0.224327,0.184765,-0.198084,0.206601,2.120047,0.086419,0.852305,-1.171200,-0.202082,0.360413,0.765932,-0.558731,0.016330,0.034896,0.206371,0.947952,0.886629,-0.342620,0.260788,0.085427,0.169853,-0.087196,0.041798,-0.390958
-1.089096,-0.052771,0.306570,0.104754,-0.146583,-0.228380,0.199764,-0.229524,0.202188,2.123950,0.061022,0.858455,-1.144201,-0.196818,0.456379,0.774155,-0.539919,0.018776,0.056108,0.231020,0.962362,0.872789,-0.361775,0.212986,0.076824,0.160393,-0.082265,0.036090,-0.392130
-1.099880,-0.062027,0.320355,0.104909,-0.168305,-0.230684,0.210658,-0.259532,0.200437,2.133832,0.056190,0.864953,-1.118302,-0.191400,0.507269,0.783496,-0.524197,0.021024,0.056818,0.252692,0.979742,0.856348,-0.381722,0.171970,0.069304,0.152572,-0.077382,0.024376,-0.391706
-1.113144,-0.071010,0.324122,0.099846,-0.177321,-0.227316,0.208495,-0.267556,0.208725,2.153252,0.096674,0.877365,-1.094881,-0.188810,0.499087,0.797153,-0.516098,0.023420,0.035730,0.262330,1.000041,0.832064,-0.403981,0.141453,0.062316,0.146877,-0.071742,0.009507,-0.388755
-1.125376,-0.078458,0.325596,0.092960,-0.182155,-0.223521,0.204535,-0.267916,0.219835,2.172200,0.137153,0.890142,-1.069987,-0.187896,0.491036,0.811820,-0.509993,0.024790,0.020629,0.266632,1.018989,0.807175,-0.426091,0.113796,0.054917,0.141365,-0.065868,-0.003385,-0.384663
-1.135544,-0.082835,0.322485,0.082431,-0.178622,-0.218873,0.196977,-0.252950,0.236590,2.190206,0.177620,0.903650,-1.042146,-0.190332,0.483243,0.828506,-0.507875,0.024790,0.017501,0.260262,1.035234,0.781071,-0.447903,0.091855,0.046698,0.136221,-0.059522,-0.012325,-0.378287
-1.149128,-0.084294,0.315242,0.068496,-0.171648,-0.217323,0.190235,-0.234454,0.252708,2.206038,0.198006,0.917285,-1.005595,-0.192066,0.472692,0.849262,-0.507980,0.025312,0.026854,0.243967,1.046754,0.751732,-0.465493,0.077263,0.036931,0.131384,-0.053533,-0.014174,-0.371102
-1.164420,-0.084294,0.305932,0.052860,-0.162954,-0.217323,0.183901,-0.214195,0.268508,2.220784,0.208349,0.930984,-0.964689,-0.193448,0.460763,0.872052,-0.507980,0.025312,0.042446,0.222710,1.055910,0.720774,-0.480971,0.066345,0.026390,0.126699,-0.047722,-0.012478,-0.363513
-1.186573,-0.084633,0.296316,0.033575,-0.160664,-0.220824,0.183901,-0.210663,0.279300,2.232392,0.196453,0.943731,-0.903843,-0.191333,0.448631,0.899143,-0.520514,0.028149,0.069640,0.199231,1.057274,0.679362,-0.490201,0.064221,0.011796,0.121971,-0.042148,-0.003890,-0.355141
-1.211321,-0.078808,0.288053,0.014049,-0.157661,-0.221618,0.184577,-0.210883,0.290064,2.247726,0.187885,0.956593,-0.836295,-0.191968,0.383105,0.925525,-0.538455,0.030613,0.070212,0.176503,1.055225,0.633216,-0.500685,0.066059,-0.004698,0.116696,-0.036791,0.007378,-0.347089
-1.241259,-0.060534,0.282498,-0.005960,-0.153231,-0.217469,0.187216,-0.218607,0.300768,2.270515,0.185973,0.969685,-0.755347,-0.198108,0.210794,0.950488,-0.568835,0.033832,0.017541,0.155275,1.046352,0.577603,-0.513680,0.075823,-0.024992,0.110327,-0.031868,0.024004,-0.339677
-1.255265,-0.067353,0.275779,-0.022809,-0.142101,-0.204382,0.181791,-0.217620,0.315470,2.279959,0.228644,0.974049,-0.679883,-0.206098,0.061442,0.962297,-0.593520,0.036191,-0.037989,0.136836,1.032614,0.526848,-0.516883,0.084543,-0.041403,0.103769,-0.028019,0.039135,-0.335613
-1.261307,-0.086718,0.268479,-0.038080,-0.127620,-0.186825,0.172334,-0.212278,0.332169,2.282732,0.293607,0.973574,-0.607159,-0.215621,-0.076433,0.967529,-0.615356,0.038120,-0.094949,0.119789,1.016443,0.478521,-0.515191,0.092743,-0.055875,0.097116,-0.024708,0.053518,-0.333223
-1.255367,-0.149981,0.265108,-0.045679,-0.111080,-0.155258,0.156565,-0.208454,0.348289,2.268363,0.414102,0.952499,-0.525032,-0.215621,-0.165974,0.943440,-0.629297,0.033300,-0.130096,0.095891,0.978505,0.437351,-0.497377,0.098426,-0.079078,0.085619,-0.019304,0.073912,-0.330244
-1.251001,-0.220434,0.259185,-0.050106,-0.091843,-0.119452,0.138709,-0.204755,0.364434,2.255160,0.539654,0.917301,-0.438915,-0.217923,-0.251679,0.907429,-0.630967,0.030769,-0.162512,0.063171,0.930141,0.408502,-0.469345,0.104152,-0.121334,0.067797,-0.009277,0.104845,-0.322437
-1.251001,-0.305269,0.248157,-0.048189,-0.067212,-0.075167,0.116677,-0.201304,0.380628,2.244286,0.675326,0.853852,-0.344816,-0.223005,-0.329715,0.847574,-0.608097,0.030769,-0.189470,0.012808,0.860921,0.404299,-0.420876,0.109965,-0.201699,0.037327,0.009999,0.156854,-0.304975
-1.245068,-0.374039,0.224038,-0.045380,-0.040091,-0.038480,0.094698,-0.203366,0.396949,2.224436,0.763230,0.776804,-0.257874,-0.234841,-0.382188,0.771620,-0.559521,0.041959,-0.209973,-0.036010,0.786319,0.428207,-0.361213,0.106977,-0.279988,0.004239,0.023036,0.214507,-0.293114
-1.236775,-0.434777,0.193373,-0.042124,-0.011723,-0.005590,0.072746,-0.208184,0.413336,2.200097,0.827251,0.692954,-0.174508,-0.250054,-0.421882,0.687613,-0.498092,0.057721,-0.228109,-0.084057,0.709024,0.466172,-0.295951,0.099590,-0.357241,-0.030158,0.032954,0.274983,-0.284055
-1.221297,-0.489942,0.153208,-0.058783,-0.004978,0.005065,0.067910,-0.210649,0.429404,2.168861,0.877685,0.571131,-0.091914,-0.266129,-0.454816,0.598099,-0.437836,0.065745,-0.228109,-0.141736,0.636457,0.569746,-0.240254,0.049976,-0.327426,-0.074522,0.009784,0.354571,-0.317897
-1.204080,-0.542519,0.112028,-0.079970,-0.000963,0.011221,0.062998,-0.213917,0.444992,2.141303,0.927267,0.438072,-0.013885,-0.278570,-0.482779,0.509772,-0.382832,0.069977,-0.231094,-0.198509,0.569169,0.695829,-0.182916,-0.004262,-0.279691,-0.117817,-0.018941,0.423855,-0.360700
-1.183387,-0.589920,0.068819,-0.110210,-0.000963,0.008379,0.057933,-0.218790,0.459619,2.121098,0.975142,0.282539,0.055014,-0.283748,-0.500800,0.423820,-0.338331,0.066625,-0.237466,-0.253470,0.512441,0.866931,-0.122298,-0.067748,-0.196117,-0.158970,-0.058776,0.472529,-0.421424
-1.161729,-0.629442,0.027648,-0.130788,0.002248,0.000939,0.047783,-0.225843,0.473565,2.112791,1.017707,0.129065,0.101530,-0.286974,-0.513085,0.350955,-0.307131,0.070429,-0.244927,-0.300146,0.471632,1.028686,-0.053189,-0.119478,-0.160359,-0.185720,-0.083981,0.494583,-0.474718
-1.139588,-0.665026,-0.012505,-0.146535,0.007788,-0.008800,0.035090,-0.233987,0.487171,2.110431,1.057617,-0.023381,0.136855,-0.289224,-0.522502,0.284634,-0.282582,0.077810,-0.252933,-0.342680,0.438782,1.185769,0.020166,-0.165328,-0.148509,-0.205268,-0.101872,0.503327,-0.524296
-1.116967,-0.687819,-0.047812,-0.151270,0.016439,-0.019244,0.017860,-0.244552,0.504638,2.116898,1.088150,-0.175488,0.129383,-0.293407,-0.531159,0.238285,-0.284881,0.091309,-0.258253,-0.386166,0.444744,1.289844,0.089224,-0.253346,-0.123056,-0.222052,-0.137053,0.523251,-0.596117
-1.097106,-0.708999,-0.076761,-0.154934,0.025095,-0.029266,0.001077,-0.254559,0.517026,2.123447,1.117080,-0.317213,0.117520,-0.297248,-0.540192,0.198631,-0.292793,0.101649,-0.261800,-0.414652,0.452373,1.365660,0.153026,-0.335644,-0.098036,-0.239236,-0.171822,0.546288,-0.659651
-1.082766,-0.726954,-0.092994,-0.156459,0.033759,-0.038444,-0.014810,-0.263452,0.519256,2.130164,1.142805,-0.438168,0.096877,-0.300407,-0.549978,0.172368,-0.311930,0.105671,-0.261800,-0.413133,0.463332,1.384958,0.206317,-0.406499,-0.073882,-0.257224,-0.205766,0.575554,-0.706612
-1.074241,-0.741949,-0.096622,-0.154415,0.043604,-0.048751,-0.026464,-0.268725,0.520000,2.133344,1.165450,-0.553113,0.068002,-0.303672,-0.558336,0.151981,-0.334306,0.105300,-0.261800,-0.399087,0.463847,1.375980,0.246224,-0.442680,-0.070580,-0.268731,-0.230542,0.598063,-0.746189
-1.068622,-0.755466,-0.093947,-0.150588,0.054040,-0.059623,-0.036001,-0.272188,0.520000,2.134755,1.186555,-0.665052,0.035012,-0.306989,-0.565979,0.134533,-0.358301,0.102734,-0.261800,-0.378778,0.459138,1.352862,0.279438,-0.461522,-0.077704,-0.276998,-0.250735,0.617192,-0.782072
-1.071458,-0.767005,-0.092596,-0.147606,0.065225,-0.070135,-0.041488,-0.270433,0.520000,2.127782,1.202550,-0.793781,-0.014726,-0.315206,-0.569502,0.116616,-0.395969,0.098162,-0.261800,-0.400711,0.445789,1.338607,0.290891,-0.434159,-0.088648,-0.269424,-0.271832,0.622187,-0.822595
-1.076306,-0.776375,-0.093538,-0.146396,0.075570,-0.080366,-0.046922,-0.268353,0.518272,2.119459,1.216776,-0.923024,-0.065619,-0.320135,-0.572483,0.098744,-0.438806,0.092488,-0.261800,-0.431125,0.427438,1.323263,0.293544,-0.406635,-0.098730,-0.263465,-0.291342,0.620528,-0.859425
-1.085178,-0.781408,-0.099063,-0.148728,0.084232,-0.090037,-0.052251,-0.265624,0.513090,2.108438,1.227464,-1.053293,-0.118822,-0.318487,-0.574382,0.080961,-0.491980,0.084610,-0.261800,-0.478497,0.399087,1.305740,0.278598,-0.378796,-0.107086,-0.260737,-0.307680,0.605560,-0.888866
-1.097298,-0.780466,-0.109130,-0.154137,0.088734,-0.101032,-0.057937,-0.264714,0.503203,2.099922,1.234521,-1.175490,-0.172710,-0.312506,-0.578911,0.065901,-0.553777,0.077773,-0.261800,-0.525004,0.361591,1.273254,0.245141,-0.339514,-0.121128,-0.259088,-0.322584,0.588327,-0.912321
-1.111041,-0.776536,-0.121469,-0.161083,0.090632,-0.112688,-0.063802,-0.264370,0.490962,2.092659,1.240621,-1.293647,-0.226940,-0.304359,-0.584755,0.051415,-0.619886,0.071455,-0.261800,-0.571076,0.319524,1.233287,0.202428,-0.294512,-0.138013,-0.258349,-0.336770,0.569962,-0.932783
-1.129122,-0.765281,-0.135962,-0.171109,0.090632,-0.126628,-0.070325,-0.267595,0.472060,2.095141,1.240621,-1.386685,-0.287737,-0.292365,-0.590935,0.051415,-0.696874,0.065579,-0.261800,-0.603092,0.276145,1.158123,0.134080,-0.224048,-0.148878,-0.248565,-0.351989,0.561381,-0.943911
-1.147229,-0.750909,-0.148941,-0.177793,0.090642,-0.139075,-0.075479,-0.271072,0.451798,2.100641,1.239226,-1.468994,-0.352899,-0.281419,-0.596309,0.058905,-0.778821,0.060355,-0.260915,-0.634621,0.236556,1.070080,0.061257,-0.153094,-0.154313,-0.236221,-0.366274,0.550253,-0.952329
-1.165391,-0.730302,-0.158891,-0.177793,0.092246,-0.148534,-0.077898,-0.275056,0.428813,2.112179,1.232459,-1.529846,-0.426791,-0.272567,-0.600071,0.083734,-0.870685,0.056436,-0.258262,-0.665176,0.204547,0.956275,-0.020517,-0.081159,-0.148888,-0.218754,-0.378693,0.534030,-0.955329
-1.182845,-0.703839,-0.164580,-0.170788,0.095047,-0.152675,-0.075555,-0.277012,0.403002,2.126194,1.221206,-1.571614,-0.509926,-0.265927,-0.599389,0.133048,-0.971882,0.051307,-0.254213,-0.704990,0.184805,0.822194,-0.097812,-0.018619,-0.144102,-0.198751,-0.385996,0.511883,-0.954097
-1.199944,-0.674448,-0.168140,-0.161239,0.098446,-0.153663,-0.070831,-0.277640,0.375779,2.141447,1.207709,-1.603839,-0.597681,-0.260393,-0.596485,0.194603,-1.077744,0.045574,-0.249466,-0.749434,0.171198,0.677977,-0.172865,0.039223,-0.139637,-0.177481,-0.390742,0.486773,-0.950750
-1.214333,-0.639905,-0.158574,-0.152170,0.096071,-0.149555,-0.057081,-0.271656,0.344347,2.152888,1.189517,-1.633541,-0.684400,-0.264155,-0.588121,0.281536,-1.191522,0.038748,-0.247519,-0.815122,0.176803,0.537165,-0.235851,0.068749,-0.141338,-0.163511,-0.392811,0.474967,-0.943331
-1.229663,-0.603619,-0.145179,-0.143869,0.091387,-0.145319,-0.041830,-0.263601,0.312915,2.164173,1.167864,-1.662033,-0.764035,-0.266013,-0.577795,0.377970,-1.306023,0.032945,-0.245207,-0.883845,0.187409,0.399836,-0.296165,0.093717,-0.142977,-0.152397,-0.395022,0.469339,-0.936548
-1.246874,-0.563844,-0.124128,-0.137107,0.082085,-0.140826,-0.023574,-0.251404,0.281483,2.175148,1.139286,-1.688105,-0.829505,-0.264066,-0.563544,0.493410,-1.421974,0.029190,-0.242167,-0.958636,0.208013,0.269470,-0.351137,0.109569,-0.144496,-0.146994,-0.395022,0.476065,-0.931036
-1.265008,-0.519890,-0.097474,-0.135873,0.067023,-0.139127,-0.004661,-0.238255,0.254200,2.187828,1.099628,-1.704400,-0.864989,-0.261437,-0.544930,0.619228,-1.537573,0.027939,-0.236600,-1.027624,0.230043,0.162519,-0.399526,0.125140,-0.145862,-0.147719,-0.396572,0.492200,-0.928688
-1.283604,-0.473848,-0.068018,-0.137404,0.049081,-0.138924,0.014582,-0.224630,0.228992,2.201360,1.054431,-1.715806,-0.885479,-0.258466,-0.524135,0.750235,-1.652995,0.027580,-0.229770,-1.093711,0.252787,0.067276,-0.444623,0.140570,-0.146722,-0.151508,-0.397289,0.513040,-0.928177
-1.298465,-0.415728,-0.038853,-0.144842,0.026221,-0.140497,0.035695,-0.211669,0.213857,2.216933,0.974089,-1.677750,-0.851793,-0.251049,-0.483687,0.919469,-1.764525,0.024908,-0.216183,-1.121658,0.258208,-0.008763,-0.478200,0.175689,-0.150766,-0.157597,-0.398872,0.542411,-0.930100
-1.311114,-0.353240,-0.016335,-0.150795,0.004382,-0.143905,0.057260,-0.198031,0.202099,2.232901,0.877842,-1.602221,-0.805652,-0.243732,-0.434444,1.112255,-1.863276,0.023127,-0.201255,-1.112016,0.255094,-0.094928,-0.506898,0.218561,-0.157346,-0.159515,-0.399261,0.567328,-0.929602
-1.319337,-0.282022,-0.007115,-0.153779,-0.015412,-0.150987,0.079725,-0.183038,0.197098,2.249656,0.749786,-1.451751,-0.734603,-0.236615,-0.367609,1.352131,-1.936468,0.023127,-0.183645,-1.027203,0.234912,-0.201343,-0.525836,0.276935,-0.168996,-0.153093,-0.399261,0.583335,-0.924263
-1.327111,-0.211759,-0.001880,-0.147030,-0.034593,-0.173908,0.103698,-0.165873,0.194168,2.270295,0.606613,-1.273128,-0.652430,-0.231543,-0.286372,1.533715,-1.968838,0.023816,-0.163030,-0.910150,0.215393,-0.235683,-0.530485,0.311535,-0.181105,-0.135307,-0.395027,0.572843,-0.911797
-1.335568,-0.141972,0.001363,-0.135414,-0.053468,-0.204749,0.128423,-0.147621,0.192274,2.292876,0.455881,-1.080426,-0.564695,-0.227493,-0.197931,1.686838,-1.980796,0.024780,-0.140912,-0.776975,0.196205,-0.233985,-0.527989,0.334246,-0.193443,-0.111839,-0.389676,0.549100,-0.895766
-1.335568,-0.095255,0.030144,-0.110636,-0.071753,-0.224587,0.144582,-0.155897,0.190213,2.307518,0.309816,-0.942438,-0.422456,-0.228974,-0.037227,1.686838,-1.961319,0.032789,-0.109253,-0.682663,0.148537,-0.130443,-0.495791,0.327382,-0.205198,-0.062364,-0.381603,0.471859,-0.869608
-1.332140,-0.070150,0.063290,-0.083710,-0.089785,-0.237319,0.156085,-0.173585,0.191150,2.313966,0.194287,-0.820426,-0.277487,-0.230396,0.145184,1.677973,-1.936163,0.040870,-0.069185,-0.603515,0.098413,-0.030037,-0.458902,0.326325,-0.214802,-0.010682,-0.374258,0.387931,-0.844768
-1.319137,-0.088272,0.105165,-0.052488,-0.107308,-0.235835,0.156085,-0.210102,0.198082,2.304025,0.139832,-0.730368,-0.127058,-0.231701,0.371011,1.649321,-1.899650,0.049098,-0.012299,-0.554692,0.043378,0.064098,-0.412632,0.336883,-0.220106,0.045415,-0.368366,0.290628,-0.822560
-1.314338,-0.114366,0.130010,-0.028090,-0.122532,-0.226702,0.160008,-0.228006,0.210215,2.300711,0.129398,-0.629894,-0.002875,-0.233008,0.477213,1.637291,-1.862852,0.056224,0.007042,-0.517472,0.004391,0.142257,-0.372822,0.354061,-0.220974,0.076151,-0.364297,0.231257,-0.809615
-1.313872,-0.144446,0.146338,-0.007105,-0.136606,-0.213744,0.164797,-0.236603,0.224948,2.300930,0.140976,-0.524211,0.108187,-0.235272,0.523600,1.632921,-1.825911,0.062800,0.007421,-0.486054,-0.026571,0.212429,-0.336242,0.374550,-0.219624,0.094207,-0.361140,0.190851,-0.801301
-1.311778,-0.165388,0.138298,-0.000469,-0.142101,-0.199103,0.169941,-0.225033,0.248981,2.300930,0.171972,-0.392062,0.197024,-0.235272,0.523600,1.632921,-1.784920,0.065811,-0.007789,-0.447654,-0.047139,0.257588,-0.305563,0.380305,-0.217055,0.096505,-0.357218,0.176912,-0.795144
-1.308244,-0.184144,0.126228,0.002489,-0.144649,-0.186016,0.174800,-0.206805,0.274004,2.299876,0.203571,-0.255751,0.284512,-0.237285,0.519040,1.627108,-1.741757,0.068448,-0.017267,-0.404148,-0.065617,0.291064,-0.277091,0.381118,-0.215342,0.097004,-0.352629,0.164762,-0.787918
-1.301834,-0.198529,0.106098,-0.001906,-0.141303,-0.176036,0.179088,-0.175259,0.301011,2.295951,0.236381,-0.111106,0.369306,-0.240450,0.505922,1.611622,-1.694252,0.070338,-0.015281,-0.350425,-0.079913,0.301175,-0.253031,0.372046,-0.215342,0.093902,-0.346705,0.156192,-0.778554
-1.298319,-0.207602,0.084375,-0.010256,-0.131327,-0.166560,0.182400,-0.138302,0.324138,2.292099,0.255341,0.025314,0.461873,-0.242189,0.480223,1.587860,-1.639971,0.072090,0.001496,-0.299318,-0.092493,0.281406,-0.235314,0.357956,-0.217491,0.089270,-0.341509,0.144879,-0.767341
-1.296252,-0.214020,0.061856,-0.020585,-0.118035,-0.157336,0.185223,-0.098639,0.345325,2.288282,0.267376,0.157618,0.558324,-0.242874,0.448236,1.559962,-1.582304,0.074351,0.025669,-0.249518,-0.104214,0.246695,-0.220215,0.341355,-0.220820,0.083874,-0.336152,0.132193,-0.755205
-1.296252,-0.215648,0.044304,-0.033250,-0.104797,-0.144829,0.187377,-0.085010,0.357387,2.284522,0.265690,0.263279,0.663163,-0.242874,0.415741,1.518186,-1.505087,0.074351,0.087673,-0.216786,-0.115400,0.179243,-0.220215,0.322147,-0.227478,0.075857,-0.336152,0.118667,-0.742204
-1.295151,-0.218499,0.028593,-0.044923,-0.097222,-0.132835,0.190685,-0.088728,0.366877,2.280535,0.265625,0.357952,0.761231,-0.244712,0.389980,1.471084,-1.422972,0.076162,0.136893,-0.189468,-0.122018,0.110831,-0.221747,0.301679,-0.235486,0.067138,-0.336667,0.106852,-0.728928
-1.292210,-0.223791,0.016564,-0.054615,-0.100973,-0.121867,0.196303,-0.127144,0.371226,2.276093,0.268801,0.430650,0.845759,-0.249256,0.377684,1.413328,-1.331058,0.079860,0.160545,-0.172979,-0.119500,0.040499,-0.228008,0.278688,-0.246194,0.057019,-0.339790,0.098461,-0.715102
-1.290410,-0.220834,0.005132,-0.063702,-0.101117,-0.112385,0.201718,-0.159770,0.374751,2.277981,0.283883,0.487361,0.908318,-0.254563,0.255526,1.345674,-1.234834,0.083961,0.096851,-0.159422,-0.102767,-0.023879,-0.229689,0.254557,-0.259201,0.046494,-0.344738,0.094032,-0.701296
-1.289179,-0.213753,-0.006003,-0.072487,-0.099458,-0.103645,0.207030,-0.189502,0.377864,2.283033,0.304919,0.536079,0.959893,-0.260251,0.078436,1.273069,-1.136453,0.088265,-0.010517,-0.147330,-0.078926,-0.085283,-0.229283,0.229855,-0.273358,0.035766,-0.350599,0.091583,-0.687499
-1.273558,-0.252652,-0.017579,-0.082285,-0.089217,-0.090249,0.192453,-0.200369,0.392026,2.275951,0.414179,0.563690,0.968558,-0.259000,-0.073142,1.185297,-1.038909,0.085125,-0.087865,-0.132006,-0.039154,-0.128868,-0.208230,0.210281,-0.287200,0.026654,-0.357399,0.098340,-0.677313
-1.264268,-0.303895,-0.028683,-0.090277,-0.077266,-0.074537,0.172495,-0.212728,0.405723,2.268006,0.531662,0.581264,0.959792,-0.257561,-0.206402,1.090412,-0.942949,0.082222,-0.152254,-0.117718,0.002025,-0.163386,-0.176984,0.192409,-0.301159,0.017129,-0.364532,0.111811,-0.668864
-1.267641,-0.379822,-0.038843,-0.094658,-0.061896,-0.054192,0.141778,-0.228066,0.418490,2.258338,0.665590,0.581264,0.916163,-0.257561,-0.303021,0.981301,-0.850162,0.079794,-0.190725,-0.105500,0.046016,-0.179765,-0.125356,0.177941,-0.315352,0.006775,-0.372326,0.138709,-0.663886
-1.280676,-0.465752,-0.044957,-0.086794,-0.035588,-0.029538,0.107637,-0.240701,0.429284,2.248199,0.780554,0.547925,0.844638,-0.264116,-0.369286,0.856890,-0.761021,0.080981,-0.221270,-0.102557,0.085691,-0.161268,-0.058197,0.168670,-0.328048,-0.005785,-0.378423,0.187247,-0.669195
-1.298540,-0.556683,-0.049048,-0.072807,-0.003811,-0.002729,0.071784,-0.251984,0.439091,2.237824,0.886036,0.499166,0.759163,-0.274856,-0.420375,0.724828,-0.673702,0.083976,-0.247852,-0.104249,0.123208,-0.125333,0.016728,0.161998,-0.339995,-0.019450,-0.383672,0.246605,-0.679646
-1.283319,-0.611943,-0.046837,-0.063281,0.013134,0.005373,0.061169,-0.256279,0.462502,2.204925,0.939292,0.390871,0.645660,-0.291279,-0.442453,0.594280,-0.589106,0.085691,-0.253405,-0.119122,0.169966,-0.012797,0.109139,0.153927,-0.300450,-0.036526,-0.397024,0.331002,-0.728767
-1.262379,-0.658324,-0.046479,-0.061749,0.023657,0.008685,0.055271,-0.260162,0.486487,2.169694,0.984905,0.270317,0.530375,-0.305248,-0.460475,0.471980,-0.507468,0.085876,-0.257901,-0.135124,0.215638,0.124426,0.203436,0.135621,-0.246009,-0.058167,-0.409539,0.414686,-0.769026
-1.230000,-0.686948,-0.049827,-0.076205,0.021338,0.002418,0.058804,-0.263220,0.511622,2.129795,1.015234,0.125235,0.411523,-0.314308,-0.470385,0.366167,-0.431741,0.085876,-0.260285,-0.153384,0.259142,0.311031,0.301513,0.096843,-0.161775,-0.088938,-0.420386,0.496949,-0.791563
-1.211310,-0.718726,-0.058745,-0.092751,0.019790,-0.002187,0.056506,-0.268056,0.520000,2.100020,1.039215,-0.011091,0.308326,-0.323137,-0.479057,0.284315,-0.373903,0.084491,-0.261440,-0.171546,0.295066,0.488427,0.384588,0.086260,-0.119535,-0.106483,-0.421251,0.551159,-0.790341
-1.198945,-0.752082,-0.070447,-0.110343,0.018003,-0.005962,0.051294,-0.273780,0.520000,2.075308,1.060021,-0.143036,0.212958,-0.332328,-0.487109,0.214445,-0.325012,0.084064,-0.261800,-0.189657,0.327197,0.661215,0.460161,0.089775,-0.098293,-0.117415,-0.417126,0.591340,-0.777240
-1.198945,-0.787909,-0.091445,-0.123179,0.018003,-0.010399,0.042970,-0.277677,0.520000,2.065195,1.079473,-0.277020,0.120183,-0.332328,-0.492374,0.181785,-0.313610,0.091695,-0.261800,-0.257140,0.370977,0.775717,0.505673,0.084647,-0.123924,-0.130393,-0.408672,0.630682,-0.777240
-1.195544,-0.819094,-0.112910,-0.134668,0.016457,-0.014573,0.033519,-0.281826,0.520000,2.058454,1.098519,-0.408869,0.034449,-0.333654,-0.497791,0.154522,-0.312384,0.097603,-0.261800,-0.332545,0.413271,0.875058,0.539331,0.074902,-0.150366,-0.143296,-0.401870,0.664902,-0.785317
-1.186899,-0.840995,-0.135306,-0.143461,0.014862,-0.018222,0.021816,-0.286480,0.520000,2.058454,1.116747,-0.536436,-0.037197,-0.336197,-0.503507,0.138052,-0.331511,0.100064,-0.261800,-0.423789,0.452592,0.944065,0.549277,0.055926,-0.178427,-0.156047,-0.398373,0.688880,-0.808064
-1.174689,-0.852378,-0.150440,-0.151832,0.013825,-0.021723,0.008451,-0.291939,0.520000,2.064322,1.135178,-0.664993,-0.096484,-0.336681,-0.511106,0.115574,-0.361204,0.099452,-0.261800,-0.488682,0.464765,0.996434,0.544028,0.060592,-0.198267,-0.158280,-0.400160,0.692221,-0.833990
-1.160697,-0.858503,-0.161942,-0.159990,0.013319,-0.025152,-0.005744,-0.297800,0.520000,2.073166,1.153709,-0.794038,-0.149589,-0.336317,-0.519645,0.090092,-0.396177,0.096692,-0.261800,-0.540396,0.463363,1.040482,0.531182,0.077080,-0.213995,-0.155254,-0.404589,0.685244,-0.861505
-1.147135,-0.854058,-0.170142,-0.169306,0.011281,-0.033396,-0.017840,-0.303177,0.520000,2.082795,1.173430,-0.908372,-0.197215,-0.339611,-0.529871,0.073852,-0.445763,0.096692,-0.261800,-0.558729,0.424134,1.036477,0.501808,0.107599,-0.224427,-0.151381,-0.411290,0.659101,-0.889831
-1.135806,-0.845907,-0.180479,-0.177525,0.008815,-0.042526,-0.028420,-0.308411,0.520000,2.091901,1.192158,-1.018611,-0.245848,-0.340766,-0.540059,0.065323,-0.500323,0.096478,-0.261800,-0.576493,0.376164,1.020414,0.461435,0.135899,-0.234352,-0.148160,-0.418015,0.636828,-0.918487
-1.128943,-0.830346,-0.195091,-0.183547,0.005496,-0.053431,-0.035967,-0.313360,0.520000,2.099963,1.208903,-1.120659,-0.296496,-0.337643,-0.550171,0.072218,-0.564832,0.097666,-0.261800,-0.593120,0.310713,0.980231,0.399061,0.159761,-0.243262,-0.146245,-0.424789,0.622294,-0.947803
-1.127702,-0.807975,-0.210611,-0.189475,0.002092,-0.062713,-0.040111,-0.317955,0.520000,2.105840,1.221032,-1.217245,-0.354633,-0.333854,-0.560705,0.097909,-0.645594,0.097982,-0.261800,-0.620255,0.240564,0.921821,0.320405,0.184131,-0.250166,-0.143301,-0.432423,0.620200,-0.972003
-1.129272,-0.782200,-0.226584,-0.195356,-0.001356,-0.071184,-0.042553,-0.322374,0.520000,2.110626,1.230853,-1.311097,-0.416512,-0.329732,-0.571451,0.132997,-0.734482,0.097982,-0.261800,-0.652644,0.168067,0.854298,0.233607,0.208754,-0.256067,-0.139843,-0.440486,0.624327,-0.993645
-1.142651,-0.752998,-0.236419,-0.206083,-0.004961,-0.076302,-0.038611,-0.323318,0.497182,2.114708,1.236413,-1.383756,-0.483404,-0.325212,-0.580975,0.194126,-0.850112,0.091590,-0.261800,-0.705013,0.119801,0.771472,0.151355,0.234679,-0.260522,-0.133180,-0.448086,0.633663,-1.006179
-1.158482,-0.722029,-0.241893,-0.216615,-0.008286,-0.080939,-0.033171,-0.323620,0.470049,2.119887,1.239441,-1.451822,-0.552606,-0.320715,-0.588814,0.263569,-0.972691,0.084376,-0.261800,-0.762457,0.085768,0.689011,0.074025,0.261433,-0.262907,-0.124689,-0.454314,0.643537,-1.017478
-1.179218,-0.687526,-0.238647,-0.226758,-0.011049,-0.084611,-0.024737,-0.321696,0.434284,2.127259,1.237406,-1.510702,-0.626430,-0.316262,-0.593284,0.349640,-1.109161,0.075357,-0.261800,-0.830050,0.080197,0.607281,0.006540,0.289842,-0.262907,-0.112543,-0.457797,0.654486,-1.026308
-1.201231,-0.648472,-0.224191,-0.231314,-0.013830,-0.086690,-0.014430,-0.318055,0.397170,2.137351,1.227572,-1.569708,-0.701141,-0.313845,-0.592446,0.450183,-1.249358,0.068927,-0.261800,-0.912854,0.105878,0.540353,-0.053037,0.314630,-0.258315,-0.102559,-0.459657,0.668878,-1.035684
-1.223882,-0.607144,-0.204131,-0.233076,-0.016620,-0.087973,-0.003187,-0.313557,0.359382,2.148803,1.213841,-1.628774,-0.776292,-0.313845,-0.588956,0.557958,-1.391414,0.063791,-0.261800,-1.003260,0.147183,0.480829,-0.108657,0.337607,-0.252306,-0.093655,-0.459657,0.684990,-1.045332
-1.245165,-0.557820,-0.168199,-0.230255,-0.021206,-0.089532,0.011791,-0.301916,0.325101,2.165519,1.185441,-1.685318,-0.836508,-0.311221,-0.579253,0.672799,-1.525023,0.061244,-0.255633,-1.106309,0.208974,0.454925,-0.165367,0.356198,-0.247999,-0.090527,-0.462186,0.703708,-1.051060
-1.265988,-0.506497,-0.129062,-0.227782,-0.027406,-0.090571,0.027926,-0.287926,0.293432,2.183903,1.150802,-1.739825,-0.890577,-0.308828,-0.566261,0.784442,-1.657472,0.057683,-0.248128,-1.212666,0.269526,0.439211,-0.226415,0.376899,-0.246027,-0.086776,-0.464092,0.720621,-1.053237
-1.285890,-0.451181,-0.083515,-0.227782,-0.036835,-0.090571,0.046376,-0.269239,0.266991,2.205617,1.103689,-1.790258,-0.932351,-0.305030,-0.546688,0.889682,-1.787598,0.052096,-0.237652,-1.325632,0.327597,0.443879,-0.296135,0.401822,-0.248724,-0.081777,-0.466150,0.733927,-1.048309
-1.305587,-0.393863,-0.038137,-0.228814,-0.052199,-0.076245,0.067885,-0.249365,0.248192,2.230611,1.042408,-1.798607,-0.955953,-0.300078,-0.516398,0.987258,-1.929729,0.047355,-0.223180,-1.377973,0.368347,0.459822,-0.383030,0.430567,-0.255823,-0.075157,-0.466836,0.732761,-1.035907
-1.325181,-0.335544,0.007156,-0.231249,-0.070532,-0.055077,0.090924,-0.228898,0.233214,2.257245,0.974043,-1.785915,-0.970469,-0.294548,-0.480749,1.081003,-2.077863,0.042081,-0.206710,-1.400000,0.401353,0.481405,-0.478513,0.461224,-0.265123,-0.067726,-0.466892,0.724359,-1.019767
-1.346572,-0.276105,0.020076,-0.227601,-0.088467,-0.044373,0.115034,-0.208613,0.222488,2.288878,0.873860,-1.707895,-0.976100,-0.285610,-0.425606,1.233620,-2.182045,0.042081,-0.182021,-1.400000,0.401353,0.474277,-0.586078,0.489766,-0.277735,-0.062672,-0.462381,0.686300,-0.995609
-1.367137,-0.213833,-0.007155,-0.220028,-0.103368,-0.056168,0.138785,-0.187498,0.216691,2.320006,0.755248,-1.505617,-1.025507,-0.274300,-0.357059,1.505502,-2.250967,0.040423,-0.154736,-1.277937,0.417737,0.408310,-0.712908,0.504553,-0.293363,-0.059801,-0.455108,0.631317,-0.962329
-1.386051,-0.145895,-0.114691,-0.204602,-0.112204,-0.112961,0.161820,-0.164722,0.220753,2.350127,0.599776,-1.054811,-1.162469,-0.258243,-0.261707,2.015927,-2.249368,0.038319,-0.122262,-0.911740,0.464143,0.224659,-0.878274,0.491828,-0.315026,-0.061296,-0.442314,0.542481,-0.910806
-1.405547,-0.099705,-0.212282,-0.179930,-0.123126,-0.178132,0.182885,-0.147840,0.197505,2.377016,0.459299,-0.582905,-1.292132,-0.244016,-0.134839,2.193290,-2.192652,0.031382,-0.081513,-0.583104,0.551923,0.389733,-0.978916,0.414000,-0.328055,-0.058982,-0.430765,0.433985,-0.866554
-1.425335,-0.064388,-0.304904,-0.150636,-0.135092,-0.247492,0.202966,-0.133905,0.160601,2.402290,0.326316,-0.100437,-1.418149,-0.230703,0.007789,2.204128,-2.108377,0.022029,-0.036625,-0.273241,0.660393,0.729172,-1.047199,0.303618,-0.336766,-0.054764,-0.419839,0.315656,-0.825935
-1.415840,-0.087073,-0.337866,-0.118681,-0.153985,-0.288931,0.214407,-0.123679,0.137904,2.386527,0.246909,0.202070,-1.409388,-0.228733,0.294120,2.139836,-2.067315,0.020247,0.028842,-0.105454,0.670164,0.993903,-1.047200,0.247213,-0.352712,-0.038559,-0.430333,0.262081,-0.802508
-1.412974,-0.112936,-0.367335,-0.088646,-0.177199,-0.325331,0.226604,-0.127237,0.119272,2.376961,0.192920,0.483732,-1.382998,-0.228419,0.492726,2.062761,-2.041979,0.021042,0.068100,0.052073,0.670342,1.227816,-1.047200,0.200431,-0.368211,-0.026527,-0.439559,0.220267,-0.784919
-1.423367,-0.145153,-0.389821,-0.062449,-0.209056,-0.351653,0.240313,-0.158362,0.108771,2.379790,0.189765,0.723717,-1.321352,-0.231417,0.515881,1.960120,-2.048093,0.026990,0.054937,0.189086,0.651333,1.400102,-1.047200,0.172892,-0.382817,-0.022840,-0.446246,0.201976,-0.779006
-1.436127,-0.166355,-0.402701,-0.042238,-0.222570,-0.369677,0.245810,-0.184801,0.110128,2.384900,0.189317,0.919037,-1.238651,-0.231550,0.523600,1.835236,-2.065681,0.029268,0.034140,0.305603,0.635381,1.501344,-1.035797,0.150434,-0.393146,-0.023832,-0.445658,0.186654,-0.778037
-1.450072,-0.182048,-0.410779,-0.025019,-0.226911,-0.383552,0.247199,-0.208897,0.117415,2.391152,0.189922,1.092020,-1.145423,-0.230251,0.523600,1.699231,-2.089006,0.029563,0.009527,0.411869,0.620957,1.567060,-1.018692,0.130518,-0.401336,-0.027164,-0.441432,0.172818,-0.779540
-1.458013,-0.199554,-0.376881,-0.017653,-0.208415,-0.395114,0.245353,-0.189186,0.154274,2.391152,0.211261,1.126209,-0.997437,-0.227097,0.523600,1.583006,-2.078624,0.024450,0.017382,0.443727,0.598261,1.565166,-0.893747,0.114839,-0.404125,-0.029049,-0.434117,0.155208,-0.782717
-1.464121,-0.214973,-0.329773,-0.012743,-0.188439,-0.401050,0.244692,-0.164263,0.192655,2.389410,0.229109,1.149000,-0.805046,-0.225815,0.523600,1.480786,-2.050508,0.020167,0.029748,0.470783,0.546236,1.543968,-0.741653,0.097620,-0.406473,-0.029386,-0.425669,0.132638,-0.786809
-1.466564,-0.226220,-0.256245,-0.012743,-0.165503,-0.395736,0.244692,-0.128914,0.234082,2.382733,0.239976,1.149000,-0.523848,-0.228277,0.523600,1.406575,-1.986930,0.017541,0.051136,0.488235,0.435553,1.484162,-0.535265,0.077320,-0.406473,-0.029386,-0.414954,0.100150,-0.792734
-1.467133,-0.228090,-0.176889,-0.015546,-0.150268,-0.374705,0.248861,-0.113894,0.271986,2.373593,0.232199,1.142575,-0.202466,-0.230147,0.513797,1.346050,-1.889226,0.019126,0.072356,0.494649,0.279107,1.383492,-0.340016,0.060676,-0.405408,-0.028467,-0.405780,0.066537,-0.798865
-1.466888,-0.225991,-0.094618,-0.020171,-0.138884,-0.345815,0.254260,-0.109039,0.308130,2.363223,0.215100,1.132938,0.139010,-0.231971,0.499092,1.292369,-1.774459,0.022817,0.093492,0.495245,0.099777,1.262389,-0.150335,0.045858,-0.403077,-0.028064,-0.398070,0.032362,-0.805378
-1.461500,-0.225991,-0.036947,-0.026715,-0.135925,-0.300448,0.262902,-0.123534,0.334174,2.351435,0.212671,1.088026,0.411215,-0.231971,0.486694,1.230555,-1.624101,0.028225,0.111246,0.450941,-0.054034,1.124100,-0.057552,0.024117,-0.403077,-0.036402,-0.398070,0.018464,-0.805378
-1.459357,-0.222184,0.010205,-0.033651,-0.132419,-0.256136,0.271511,-0.134888,0.355341,2.345341,0.213109,1.048755,0.652207,-0.234127,0.435071,1.162092,-1.467566,0.034107,0.104121,0.407695,-0.181369,0.984826,0.006735,-0.006418,-0.404837,-0.047847,-0.401289,0.012038,-0.804080
-1.463704,-0.208607,0.036319,-0.041372,-0.127819,-0.213935,0.280055,-0.139960,0.366758,2.350634,0.219279,1.020764,0.830781,-0.239845,0.305000,1.080331,-1.298674,0.040935,0.047242,0.366567,-0.255755,0.843584,0.014035,-0.054540,-0.410135,-0.065508,-0.408869,0.020556,-0.799348
-1.457713,-0.214450,0.045345,-0.055238,-0.122661,-0.180140,0.281295,-0.132776,0.378075,2.348653,0.273192,1.006065,0.942776,-0.245473,0.137108,0.988235,-1.143568,0.045126,-0.010977,0.336861,-0.276279,0.712822,0.016469,-0.107230,-0.418194,-0.084664,-0.413372,0.039614,-0.793848
-1.446555,-0.230003,0.045345,-0.072177,-0.117224,-0.150549,0.278884,-0.119463,0.389341,2.343035,0.350977,0.998012,1.021480,-0.251055,-0.049696,0.890972,-0.995356,0.047997,-0.069866,0.312866,-0.269870,0.587300,0.016469,-0.162205,-0.427634,-0.104568,-0.416337,0.063941,-0.787965
-1.423284,-0.287788,0.037393,-0.085192,-0.110557,-0.124978,0.258524,-0.125721,0.410206,2.325233,0.497267,0.981718,1.020904,-0.255403,-0.175460,0.786118,-0.877751,0.052606,-0.104076,0.295229,-0.244980,0.497565,0.061428,-0.219229,-0.457821,-0.132830,-0.409635,0.102796,-0.778523
-1.405449,-0.350423,0.027372,-0.093026,-0.100981,-0.096130,0.233481,-0.139017,0.431030,2.308249,0.638153,0.956482,1.001157,-0.261921,-0.285436,0.679868,-0.769642,0.058774,-0.136165,0.274130,-0.222150,0.421467,0.115408,-0.267413,-0.482508,-0.159826,-0.402969,0.142368,-0.775585
-1.398482,-0.422755,0.013855,-0.090500,-0.085587,-0.060729,0.199069,-0.166392,0.451771,2.292902,0.768233,0.913361,0.943648,-0.272778,-0.363836,0.570825,-0.680525,0.068064,-0.164010,0.246102,-0.203440,0.372642,0.187404,-0.297919,-0.496196,-0.184292,-0.396375,0.183373,-0.785657
-1.393196,-0.492855,-0.000253,-0.081469,-0.068774,-0.026720,0.170722,-0.188725,0.473967,2.269058,0.868095,0.845894,0.859899,-0.287280,-0.419645,0.473027,-0.614678,0.077609,-0.182534,0.206931,-0.184124,0.347939,0.260778,-0.340507,-0.445586,-0.214993,-0.393770,0.253280,-0.820637
-1.388750,-0.561836,-0.014654,-0.069187,-0.051251,0.006593,0.146133,-0.208537,0.496888,2.240968,0.952841,0.766256,0.763033,-0.303605,-0.464155,0.380856,-0.560471,0.087280,-0.196814,0.162190,-0.164505,0.335299,0.334838,-0.389134,-0.362826,-0.248810,-0.394192,0.337636,-0.868071
-1.369019,-0.619403,-0.027998,-0.057855,-0.049703,0.019686,0.146133,-0.213976,0.510755,2.192259,1.006393,0.660234,0.644088,-0.325964,-0.485230,0.334464,-0.542206,0.088834,-0.196814,0.083170,-0.120159,0.358259,0.437526,-0.430220,-0.280356,-0.264427,-0.394192,0.410268,-0.880774
-1.349916,-0.675631,-0.042355,-0.047188,-0.051567,0.029773,0.151154,-0.216196,0.520000,2.143326,1.055803,0.545429,0.512510,-0.345287,-0.502017,0.301782,-0.532707,0.089720,-0.194942,-0.005237,-0.061478,0.394009,0.559551,-0.456789,-0.206353,-0.278013,-0.390099,0.477160,-0.881315
-1.332069,-0.729187,-0.058740,-0.037852,-0.060254,0.033848,0.164052,-0.211976,0.520000,2.093940,1.096933,0.413051,0.355659,-0.358541,-0.510228,0.296520,-0.540736,0.089720,-0.188068,-0.112423,0.025877,0.455340,0.720260,-0.456789,-0.149284,-0.287537,-0.375338,0.532576,-0.857530
-1.320787,-0.774534,-0.072621,-0.026700,-0.066972,0.042776,0.172731,-0.208110,0.520000,2.057186,1.127503,0.276298,0.201896,-0.366541,-0.516490,0.300758,-0.550842,0.090579,-0.184227,-0.212769,0.124972,0.509833,0.867229,-0.393209,-0.087725,-0.295078,-0.364764,0.562399,-0.804453
-1.312787,-0.815778,-0.085252,-0.014640,-0.072705,0.054131,0.179302,-0.204419,0.520000,2.026748,1.152792,0.137356,0.049674,-0.371914,-0.521778,0.309747,-0.561987,0.092452,-0.181903,-0.309696,0.229938,0.560908,1.007330,-0.299069,-0.023919,-0.301627,-0.355885,0.579425,-0.736729
-1.307955,-0.842044,-0.080150,-0.003611,-0.076715,0.071697,0.180587,-0.198608,0.520000,2.016320,1.175607,0.020009,-0.081611,-0.381030,-0.528900,0.315885,-0.567365,0.092452,-0.183517,-0.359975,0.335933,0.560908,1.109752,-0.208894,0.029758,-0.300141,-0.355885,0.593879,-0.693973
-1.303438,-0.863724,-0.075326,0.006159,-0.082115,0.087167,0.181870,-0.192007,0.520000,2.009792,1.199344,-0.089488,-0.207801,-0.390209,-0.536584,0.322016,-0.565954,0.094116,-0.185237,-0.396685,0.424706,0.552097,1.190516,-0.131581,0.081125,-0.298618,-0.355053,0.608509,-0.657974
-1.299551,-0.876231,-0.071059,0.013413,-0.090295,0.098446,0.183149,-0.183829,0.520000,2.011065,1.224928,-0.183288,-0.323805,-0.399514,-0.545395,0.328135,-0.550963,0.098021,-0.187170,-0.406256,0.479039,0.524053,1.227964,-0.079988,0.127872,-0.297020,-0.353755,0.623489,-0.635489
-1.301300,-0.879639,-0.069636,0.015598,-0.102915,0.108013,0.183286,-0.178921,0.520000,2.016606,1.248855,-0.260621,-0.421266,-0.405994,-0.558027,0.342987,-0.538816,0.100205,-0.190225,-0.402625,0.509208,0.466865,1.197523,-0.044538,0.166454,-0.297452,-0.360204,0.641081,-0.623283
-1.305867,-0.879639,-0.069636,0.015598,-0.117757,0.116723,0.183286,-0.175648,0.520000,2.024281,1.271954,-0.329720,-0.509456,-0.411062,-0.572570,0.362205,-0.528092,0.100205,-0.193841,-0.392394,0.527295,0.395104,1.133137,-0.017159,0.200955,-0.298899,-0.370525,0.659978,-0.616215
-1.318148,-0.864530,-0.068587,0.007953,-0.133919,0.123139,0.179775,-0.175905,0.520000,2.033371,1.290611,-0.373826,-0.604349,-0.413268,-0.587579,0.407910,-0.538783,0.099634,-0.197910,-0.376481,0.560349,0.275923,1.028728,-0.005510,0.178575,-0.295080,-0.389813,0.683670,-0.620160
-1.330971,-0.845802,-0.068393,0.000190,-0.150990,0.128988,0.177627,-0.177066,0.520000,2.041285,1.307321,-0.411392,-0.706441,-0.414269,-0.602319,0.465028,-0.550008,0.097348,-0.201892,-0.355775,0.593612,0.146421,0.922757,-0.000321,0.137706,-0.289159,-0.410765,0.708437,-0.628928
-1.344878,-0.818310,-0.070524,-0.008275,-0.169878,0.133704,0.177627,-0.179778,0.520000,2.046846,1.320140,-0.435879,-0.822937,-0.412859,-0.616519,0.544974,-0.562300,0.093398,-0.205700,-0.325482,0.627292,-0.003731,0.813655,-0.008055,0.059856,-0.279034,-0.435044,0.735355,-0.647342
-1.357051,-0.781860,-0.071801,-0.013016,-0.190169,0.141218,0.180779,-0.182215,0.520000,2.049352,1.326387,-0.466905,-0.940218,-0.411033,-0.628115,0.637614,-0.570378,0.089089,-0.205510,-0.283468,0.640714,-0.139410,0.693088,-0.023026,-0.012149,-0.269086,-0.452797,0.754752,-0.671813
-1.368357,-0.740931,-0.072367,-0.015894,-0.211161,0.150131,0.185529,-0.184514,0.520000,2.050004,1.329346,-0.501201,-1.057892,-0.408999,-0.638408,0.736603,-0.576350,0.084601,-0.203322,-0.235593,0.644005,-0.267850,0.566789,-0.041616,-0.081231,-0.259226,-0.467960,0.770388,-0.699311
-1.379712,-0.692034,-0.062569,-0.013316,-0.232927,0.162900,0.188978,-0.189092,0.520000,2.046016,1.320294,-0.562298,-1.176769,-0.412399,-0.641967,0.854241,-0.594840,0.075801,-0.194065,-0.192486,0.642718,-0.339531,0.424991,-0.053991,-0.127223,-0.252329,-0.467960,0.784016,-0.715296
-1.394206,-0.643066,-0.049583,-0.009577,-0.254413,0.174667,0.191277,-0.193673,0.512457,2.043579,1.306481,-0.630009,-1.295234,-0.415342,-0.644339,0.976739,-0.618992,0.065747,-0.182576,-0.166139,0.649160,-0.387864,0.291219,-0.061415,-0.168760,-0.247510,-0.466039,0.800414,-0.730175
-1.414974,-0.593959,-0.030221,-0.003515,-0.275338,0.184427,0.191277,-0.198259,0.489831,2.043579,1.283149,-0.710946,-1.412871,-0.417374,-0.644339,1.108951,-0.654467,0.053186,-0.166624,-0.173312,0.671058,-0.387864,0.173503,-0.058937,-0.201384,-0.247510,-0.458258,0.822350,-0.742844
-1.436443,-0.542196,-0.013729,0.001587,-0.296986,0.188143,0.190242,-0.205638,0.465087,2.049425,1.249716,-0.791919,-1.531192,-0.420450,-0.638282,1.248658,-0.700410,0.037160,-0.148548,-0.212985,0.717619,-0.349688,0.112811,-0.041115,-0.229431,-0.246859,-0.450647,0.842242,-0.765084
-1.458262,-0.489107,0.001330,0.006211,-0.318994,0.188604,0.188169,-0.214412,0.439285,2.057862,1.211235,-0.872908,-1.649850,-0.424049,-0.628708,1.392107,-0.751586,0.019403,-0.129411,-0.268908,0.776511,-0.291606,0.080632,-0.015622,-0.255188,-0.246427,-0.443122,0.861112,-0.792108
-1.474977,-0.426846,0.002614,0.013553,-0.337237,0.174417,0.184257,-0.232922,0.418341,2.079340,1.150406,-0.935779,-1.750974,-0.428010,-0.605468,1.538710,-0.807348,0.006253,-0.111966,-0.348652,0.880184,-0.206604,0.154202,0.067030,-0.269924,-0.222154,-0.430166,0.856292,-0.838235
-1.490801,-0.363206,-0.006568,0.022961,-0.353260,0.151738,0.181104,-0.253317,0.396417,2.105923,1.082037,-0.966374,-1.848805,-0.430650,-0.578344,1.687175,-0.863005,-0.005508,-0.096133,-0.413991,1.001447,-0.123654,0.239052,0.160028,-0.280413,-0.188159,-0.409837,0.839305,-0.867127
-1.504845,-0.296803,-0.036681,0.036500,-0.364844,0.112074,0.181104,-0.277485,0.372535,2.142715,0.998580,-0.932420,-1.940060,-0.430650,-0.543454,1.839375,-0.918457,-0.014494,-0.083527,-0.450522,1.157898,-0.044804,0.346466,0.273725,-0.280413,-0.134716,-0.374763,0.797984,-0.861552
-1.517190,-0.231828,-0.085959,0.049572,-0.370728,0.044944,0.182050,-0.300894,0.343866,2.182823,0.896921,-0.839014,-2.003722,-0.428033,-0.494864,1.976172,-0.939577,-0.025378,-0.070652,-0.443278,1.286030,0.058256,0.451572,0.339137,-0.285425,-0.091144,-0.335257,0.739326,-0.816035
-1.528686,-0.167567,-0.144818,0.062408,-0.373762,-0.035917,0.184284,-0.323923,0.312806,2.224587,0.786163,-0.715888,-2.053587,-0.424686,-0.439425,2.105265,-0.943532,-0.037211,-0.057642,-0.414147,1.400000,0.173416,0.555521,0.380408,-0.291944,-0.052507,-0.293538,0.672002,-0.750550
-1.547251,-0.117658,-0.176167,0.076044,-0.369498,-0.115672,0.190271,-0.338023,0.275314,2.267998,0.652680,-0.577631,-1.986413,-0.410555,-0.349624,2.168744,-0.985346,-0.048640,-0.029960,-0.352583,1.400000,0.324250,0.604159,0.356574,-0.310013,-0.039099,-0.266667,0.597815,-0.685469
-1.561703,-0.078579,-0.192721,0.088400,-0.366655,-0.170601,0.199091,-0.349895,0.245135,2.307897,0.526735,-0.447289,-1.909204,-0.397237,-0.227835,2.199341,-1.036274,-0.055381,0.010523,-0.295140,1.400000,0.474310,0.648407,0.335710,-0.320051,-0.027611,-0.244991,0.533214,-0.635770
-1.567926,-0.061167,-0.179685,0.098197,-0.366655,-0.175869,0.213575,-0.357308,0.229583,2.340771,0.415875,-0.332786,-1.811928,-0.385546,-0.042075,2.164171,-1.105426,-0.055381,0.076609,-0.245945,1.400000,0.622814,0.683871,0.320786,-0.314024,-0.019961,-0.233706,0.487790,-0.616837
-1.570000,-0.074615,-0.172128,0.100566,-0.363703,-0.170690,0.227147,-0.324330,0.228148,2.363218,0.339785,-0.179749,-1.667510,-0.370287,0.177836,2.100679,-1.197265,-0.054868,0.133820,-0.172539,1.293557,0.781316,0.689317,0.315017,-0.289957,-0.011520,-0.224249,0.450824,-0.608540
-1.570000,-0.103495,-0.167310,0.100458,-0.358757,-0.160288,0.240262,-0.271155,0.233771,2.380453,0.281078,-0.007438,-1.499515,-0.353244,0.414830,2.023025,-1.300452,-0.055618,0.186595,-0.087023,1.133888,0.944823,0.679754,0.313825,-0.256870,-0.001908,-0.215707,0.418085,-0.605561
-1.570000,-0.130612,-0.146214,0.100458,-0.353350,-0.147863,0.247453,-0.229046,0.267828,2.415831,0.295417,0.154000,-1.252066,-0.341635,0.460295,1.921052,-1.428388,-0.055618,0.175831,0.004392,0.910568,1.052103,0.662349,0.297731,-0.221270,-0.001908,-0.208930,0.384720,-0.588216
-1.570000,-0.166988,-0.122285,0.105099,-0.349123,-0.137604,0.251395,-0.196732,0.305014,2.451819,0.339776,0.308190,-1.009426,-0.328116,0.473089,1.814071,-1.519082,-0.055195,0.158290,0.092100,0.710335,1.146161,0.679085,0.279296,-0.181673,-0.001598,-0.201338,0.346949,-0.561984
-1.570000,-0.221880,-0.092690,0.116661,-0.347257,-0.131681,0.248842,-0.184010,0.348455,2.489025,0.444179,0.447872,-0.776420,-0.310777,0.420537,1.697081,-1.535281,-0.055195,0.127195,0.172387,0.556287,1.213769,0.764110,0.256179,-0.134083,-0.001598,-0.192116,0.300371,-0.517980
-1.570000,-0.276744,-0.055617,0.128098,-0.344294,-0.122941,0.247082,-0.178771,0.389862,2.517115,0.536479,0.543169,-0.545395,-0.294335,0.366048,1.578965,-1.524820,-0.050311,0.102053,0.209572,0.444022,1.256007,0.850929,0.233306,-0.079046,-0.002064,-0.181699,0.247874,-0.462156
-1.570000,-0.331595,-0.014804,0.139474,-0.340782,-0.112793,0.245720,-0.178771,0.430251,2.540648,0.622729,0.616273,-0.315359,-0.278340,0.310588,1.460285,-1.501029,-0.044197,0.079887,0.225208,0.352647,1.285559,0.938644,0.210555,-0.020284,-0.002064,-0.170684,0.192418,-0.400423
-1.570000,-0.353619,0.017375,0.128953,-0.331179,-0.083788,0.252723,-0.182036,0.450991,2.543626,0.608599,0.632195,-0.105537,-0.271936,0.273867,1.347354,-1.437379,-0.037624,0.070588,0.192891,0.288448,1.273340,0.987639,0.184242,0.021031,-0.001435,-0.156889,0.138191,-0.350262
-1.570000,-0.369408,0.044309,0.113518,-0.324776,-0.055160,0.263266,-0.192481,0.462979,2.540329,0.571821,0.644696,0.085514,-0.265986,0.240669,1.235309,-1.360908,-0.034071,0.069433,0.168478,0.224743,1.252294,1.019822,0.159798,0.054524,-0.000241,-0.143997,0.086992,-0.307168
-1.570000,-0.372729,0.060750,0.088258,-0.324776,-0.027286,0.280885,-0.215292,0.457465,2.524485,0.489756,0.650356,0.239018,-0.260942,0.214519,1.125040,-1.258802,-0.034071,0.084565,0.159874,0.162026,1.213597,1.018382,0.139091,0.072372,0.001006,-0.132912,0.041852,-0.278208
-1.564301,-0.378884,0.070986,0.064045,-0.326226,-0.010479,0.297323,-0.240243,0.444884,2.499938,0.409075,0.671613,0.355282,-0.258909,0.220327,1.013696,-1.142971,-0.035854,0.120120,0.170680,0.109298,1.161819,0.995250,0.116830,0.088589,-0.002049,-0.127838,0.014591,-0.258187
-1.555753,-0.386456,0.078120,0.040355,-0.327974,0.000795,0.313169,-0.266843,0.428770,2.471039,0.329086,0.700668,0.452924,-0.258556,0.242116,0.901816,-1.020279,-0.037285,0.165887,0.191191,0.061566,1.103500,0.961273,0.093793,0.103992,-0.007256,-0.125772,-0.003730,-0.242635
-1.525982,-0.391485,0.076607,0.017506,-0.324970,0.004292,0.321928,-0.266843,0.419847,2.435808,0.282065,0.752832,0.516201,-0.266357,0.298331,0.787588,-0.896982,-0.032706,0.184256,0.221072,0.032280,1.017497,0.924811,0.041960,0.109532,-0.021248,-0.131744,0.013632,-0.240103
-1.496436,-0.397112,0.072520,-0.004535,-0.318663,0.009042,0.324802,-0.260092,0.417269,2.406706,0.269589,0.803608,0.571548,-0.274468,0.274663,0.675611,-0.777697,-0.027831,0.165309,0.246467,0.008308,0.931631,0.891036,-0.010931,0.109224,-0.036753,-0.138379,0.033582,-0.241274
-1.467341,-0.403935,0.063284,-0.024961,-0.305750,0.016299,0.315905,-0.238108,0.427378,2.389861,0.326197,0.851606,0.611036,-0.283200,0.091241,0.568140,-0.666442,-0.022365,0.071738,0.262888,-0.005037,0.846040,0.862632,-0.065937,0.097220,-0.055282,-0.146339,0.058706,-0.249852
-1.433319,-0.450071,0.054812,-0.044047,-0.291731,0.032518,0.292173,-0.227984,0.452297,2.369467,0.460626,0.884621,0.636489,-0.290742,-0.071382,0.464497,-0.567618,-0.018079,-0.013676,0.266822,-0.018223,0.766577,0.832649,-0.126221,0.084559,-0.077979,-0.154841,0.085942,-0.264609
-1.396834,-0.515861,0.046722,-0.062462,-0.277160,0.053216,0.261024,-0.223791,0.484621,2.347299,0.633959,0.910144,0.654925,-0.297689,-0.223599,0.362771,-0.475013,-0.014383,-0.095007,0.264512,-0.031328,0.690181,0.801876,-0.189142,0.071570,-0.102759,-0.163615,0.114231,-0.282455
-1.387059,-0.609830,0.035935,-0.070187,-0.242250,0.072809,0.215514,-0.220418,0.505848,2.332795,0.793142,0.899096,0.630299,-0.304101,-0.310472,0.286728,-0.410729,-0.004571,-0.134152,0.214925,-0.021103,0.659593,0.796675,-0.280259,0.076613,-0.123306,-0.178226,0.153022,-0.320322
-1.375979,-0.699185,0.021300,-0.080856,-0.207937,0.083166,0.174791,-0.215132,0.520000,2.312742,0.931343,0.870823,0.599148,-0.311129,-0.381628,0.230663,-0.354521,0.006150,-0.163379,0.142210,0.000193,0.653086,0.796450,-0.358502,0.085014,-0.139248,-0.191907,0.188827,-0.354040
-1.362288,-0.779310,-0.001029,-0.097409,-0.174816,0.075053,0.143638,-0.206023,0.520000,2.281594,1.027581,0.808106,0.554949,-0.319386,-0.421349,0.214551,-0.314467,0.018688,-0.172768,0.023243,0.043628,0.694737,0.806178,-0.410998,0.100129,-0.145980,-0.203727,0.218659,-0.379458
-1.335747,-0.835604,-0.027291,-0.121748,-0.155487,0.062854,0.123601,-0.203888,0.520000,2.244455,1.097404,0.704531,0.496961,-0.331463,-0.453556,0.216783,-0.291040,0.029212,-0.179226,-0.113870,0.112835,0.773502,0.833850,-0.448120,0.120984,-0.160920,-0.221260,0.255000,-0.411204
-1.302780,-0.879983,-0.055519,-0.149980,-0.143055,0.048613,0.109121,-0.205241,0.520000,2.204320,1.154021,0.580524,0.432077,-0.345451,-0.482006,0.228186,-0.275927,0.038729,-0.184220,-0.260060,0.194931,0.870826,0.870494,-0.477554,0.144709,-0.179963,-0.241649,0.294598,-0.446114
-1.278688,-0.917292,-0.079936,-0.173344,-0.137114,0.046419,0.099446,-0.209952,0.520000,2.168790,1.189390,0.442559,0.348009,-0.358261,-0.498897,0.236320,-0.275927,0.045512,-0.185438,-0.365987,0.266472,0.937712,0.918672,-0.410792,0.117010,-0.190838,-0.253406,0.319235,-0.470927
-1.259691,-0.955915,-0.100148,-0.190182,-0.129509,0.047206,0.090913,-0.214092,0.520000,2.137410,1.220221,0.305366,0.262895,-0.368998,-0.512228,0.245401,-0.280088,0.052759,-0.185569,-0.454614,0.327845,0.993936,0.959312,-0.336929,0.085946,-0.196960,-0.262508,0.347199,-0.492624
-1.250882,-0.997164,-0.111949,-0.193968,-0.118575,0.053953,0.084668,-0.217088,0.520000,2.114331,1.241971,0.169730,0.175694,-0.375592,-0.518438,0.256375,-0.291763,0.060935,-0.185569,-0.508635,0.368877,1.028832,0.984869,-0.248870,0.048157,-0.193573,-0.266299,0.381817,-0.508087
-1.237273,-1.028826,-0.115048,-0.190798,-0.106184,0.062259,0.081628,-0.219421,0.520000,2.099829,1.258996,0.034277,0.088998,-0.381384,-0.524502,0.265909,-0.309788,0.064659,-0.185574,-0.549165,0.404778,1.075697,1.008118,-0.189331,0.037138,-0.191223,-0.273158,0.416966,-0.515529
-1.221265,-1.055690,-0.113795,-0.184151,-0.093065,0.071342,0.080670,-0.221422,0.520000,2.090552,1.273658,-0.101075,0.002562,-0.386776,-0.530492,0.274722,-0.330987,0.066158,-0.186260,-0.582946,0.438111,1.128545,1.030212,-0.144056,0.039504,-0.189392,-0.281551,0.452378,-0.518959
-1.199370,-1.064800,-0.098443,-0.181298,-0.084043,0.083013,0.079103,-0.227629,0.520000,2.090552,1.285940,-0.224618,-0.094584,-0.392215,-0.537015,0.278072,-0.361043,0.066158,-0.193256,-0.610356,0.492569,1.175402,1.076876,-0.140215,0.059256,-0.185436,-0.292576,0.470157,-0.516120
-1.180212,-1.070874,-0.085257,-0.181092,-0.075675,0.092583,0.075960,-0.234187,0.520000,2.094834,1.297640,-0.345016,-0.197414,-0.396173,-0.543204,0.280305,-0.389585,0.065997,-0.200191,-0.636468,0.546172,1.217694,1.125075,-0.145100,0.077841,-0.183205,-0.302837,0.481022,-0.511227
-1.166531,-1.070874,-0.076405,-0.186177,-0.068618,0.097951,0.069664,-0.241447,0.520000,2.104876,1.308176,-0.459117,-0.311605,-0.396173,-0.548729,0.280305,-0.415097,0.065997,-0.207002,-0.659982,0.598061,1.250850,1.176340,-0.167436,0.094090,-0.183205,-0.311571,0.481022,-0.502225
-1.158647,-1.065398,-0.079527,-0.193027,-0.062640,0.099740,0.062150,-0.249057,0.520000,2.116398,1.315984,-0.568813,-0.420206,-0.394351,-0.553171,0.277227,-0.428510,0.068091,-0.211538,-0.667820,0.605641,1.267716,1.188104,-0.193448,0.114775,-0.190354,-0.324664,0.478245,-0.495861
-1.154175,-1.057648,-0.088636,-0.200758,-0.057203,0.099080,0.054027,-0.256843,0.520000,2.128659,1.322429,-0.676298,-0.526004,-0.391121,-0.557771,0.272256,-0.435871,0.071726,-0.214935,-0.668233,0.591065,1.276436,1.180116,-0.221294,0.137676,-0.200468,-0.339937,0.475562,-0.490815
-1.154175,-1.044815,-0.099229,-0.210406,-0.055550,0.096103,0.046661,-0.264092,0.520000,2.136119,1.325683,-0.747385,-0.605783,-0.389541,-0.557771,0.273924,-0.451510,0.074382,-0.217087,-0.618531,0.526613,1.181093,1.080313,-0.212984,0.161907,-0.214595,-0.371098,0.504667,-0.512665
-1.155821,-1.030010,-0.111149,-0.220367,-0.055015,0.092060,0.039309,-0.271564,0.520000,2.141756,1.326961,-0.806631,-0.686328,-0.388488,-0.559092,0.280870,-0.467177,0.075558,-0.218522,-0.565574,0.463880,1.049944,0.966242,-0.187214,0.167122,-0.227311,-0.404224,0.547757,-0.540512
-1.159216,-1.011263,-0.125723,-0.230952,-0.056716,0.085885,0.031986,-0.279485,0.520000,2.143743,1.324284,-0.842189,-0.768399,-0.388488,-0.559092,0.298371,-0.482899,0.073774,-0.218522,-0.506109,0.404589,0.847191,0.823643,-0.126527,0.134302,-0.237202,-0.441275,0.618815,-0.580354
-1.159484,-0.986983,-0.141607,-0.238523,-0.059970,0.079308,0.026765,-0.286746,0.520000,2.143887,1.317209,-0.881596,-0.860373,-0.398242,-0.559948,0.319418,-0.499103,0.069020,-0.218104,-0.459832,0.360719,0.624080,0.668269,-0.045452,0.065027,-0.231573,-0.458448,0.669489,-0.619538
-1.158620,-0.959934,-0.158146,-0.244587,-0.064001,0.072531,0.022594,-0.293678,0.520000,2.143368,1.307934,-0.922927,-0.957299,-0.413415,-0.560185,0.342240,-0.515549,0.062781,-0.218240,-0.420151,0.324562,0.390786,0.506504,0.045819,-0.022479,-0.218185,-0.465680,0.709970,-0.658394
-1.156110,-0.926055,-0.170320,-0.249178,-0.069253,0.067645,0.022594,-0.295824,0.520000,2.150178,1.294044,-0.994266,-1.075563,-0.429677,-0.558176,0.385470,-0.546491,0.047032,-0.214837,-0.406456,0.322171,0.176563,0.344273,0.098933,-0.077864,-0.195940,-0.456283,0.720963,-0.684397
-1.154871,-0.889688,-0.179214,-0.255572,-0.074920,0.063080,0.024538,-0.296805,0.520000,2.162685,1.278077,-1.076150,-1.201569,-0.441124,-0.555499,0.437298,-0.585318,0.026842,-0.209944,-0.395049,0.331483,-0.018636,0.190288,0.140647,-0.121345,-0.173009,-0.445440,0.732229,-0.709327
-1.156177,-0.848346,-0.181547,-0.265575,-0.081416,0.059160,0.028499,-0.295458,0.520000,2.186581,1.257961,-1.179116,-1.343049,-0.441124,-0.551486,0.506319,-0.639911,-0.002230,-0.202074,-0.388217,0.364196,-0.175776,0.052806,0.159561,-0.141017,-0.148706,-0.431708,0.744042,-0.732110
-1.164735,-0.805326,-0.178261,-0.274848,-0.089461,0.053316,0.036644,-0.292013,0.507097,2.223800,1.234107,-1.285414,-1.483935,-0.438813,-0.546923,0.587658,-0.703080,-0.029079,-0.193173,-0.388559,0.413158,-0.280024,-0.052685,0.169682,-0.150020,-0.129268,-0.419444,0.761610,-0.751025
-1.176919,-0.761465,-0.172163,-0.283755,-0.098279,0.046511,0.046880,-0.287518,0.487743,2.267683,1.208384,-1.393381,-1.624528,-0.434438,-0.542085,0.675158,-0.770539,-0.054818,-0.183755,-0.392486,0.470246,-0.357829,-0.142182,0.175405,-0.153688,-0.112263,-0.407916,0.782056,-0.768006
-1.202595,-0.716649,-0.160731,-0.288245,-0.112517,0.036196,0.062278,-0.282206,0.445220,2.321494,1.173985,-1.477422,-1.740078,-0.425649,-0.533324,0.770949,-0.837160,-0.065432,-0.177312,-0.426326,0.548020,-0.342047,-0.161450,0.178915,-0.159908,-0.096097,-0.400258,0.823423,-0.789001
-1.229338,-0.668994,-0.148337,-0.291730,-0.127911,0.024077,0.078551,-0.277395,0.401637,2.374190,1.134313,-1.548785,-1.843821,-0.414773,-0.522078,0.869952,-0.904596,-0.074448,-0.171770,-0.475119,0.637787,-0.298333,-0.154116,0.182365,-0.164495,-0.079892,-0.396673,0.863805,-0.813753
-1.258215,-0.615664,-0.134019,-0.293203,-0.145619,0.008346,0.096571,-0.273583,0.355936,2.424655,1.084098,-1.594794,-1.923948,-0.399725,-0.505860,0.975379,-0.973664,-0.080267,-0.168030,-0.553817,0.751535,-0.198761,-0.093585,0.185696,-0.165818,-0.063612,-0.401230,0.902216,-0.846018
-1.281049,-0.552863,-0.120479,-0.292761,-0.164670,-0.005121,0.117932,-0.268828,0.312265,2.465141,1.017932,-1.626924,-1.992545,-0.383364,-0.482674,1.106706,-1.044867,-0.087898,-0.161715,-0.677163,0.892461,-0.077608,-0.004344,0.195370,-0.160559,-0.044830,-0.404247,0.909215,-0.863726
-1.300861,-0.485325,-0.107327,-0.291359,-0.184394,-0.016759,0.140964,-0.263601,0.269608,2.500638,0.943790,-1.652116,-2.055378,-0.366345,-0.456003,1.250987,-1.117140,-0.095899,-0.154112,-0.822838,1.046981,0.054337,0.099256,0.208215,-0.152007,-0.024796,-0.406494,0.900508,-0.874156
-1.297465,-0.395056,-0.135485,-0.288287,-0.204090,-0.016759,0.167727,-0.257055,0.237554,2.506349,0.819664,-1.588198,-2.166582,-0.359182,-0.397404,1.551772,-1.083943,-0.095899,-0.134880,-0.957958,1.258789,0.049401,0.249276,0.255970,-0.152007,0.004902,-0.365939,0.801791,-0.794781
-1.295962,-0.304275,-0.216390,-0.284936,-0.223863,-0.037656,0.197919,-0.249625,0.200283,2.507067,0.682115,-1.357483,-2.262532,-0.353858,-0.328157,1.852148,-1.012673,-0.093651,-0.111394,-0.950873,1.400000,0.091586,0.386382,0.298601,-0.164033,0.028145,-0.322462,0.686830,-0.690952
-1.295962,-0.212483,-0.402776,-0.281025,-0.243789,-0.102436,0.234965,-0.240426,0.152584,2.497803,0.517745,-0.793221,-2.327962,-0.353858,-0.237628,2.151662,-0.865271,-0.088509,-0.079404,-0.659390,1.400000,0.228008,0.497643,0.330978,-0.198770,0.038472,-0.273149,0.539401,-0.538233
-1.304175,-0.149980,-0.583549,-0.272988,-0.264595,-0.171875,0.269246,-0.244623,0.077430,2.478946,0.364069,-0.237209,-2.396301,-0.351360,-0.071564,2.251500,-0.691200,-0.086023,-0.035465,-0.413785,1.400000,0.544749,0.627863,0.339470,-0.230112,0.046336,-0.249351,0.432507,-0.420777
-1.315354,-0.102121,-0.761520,-0.262887,-0.285841,-0.243644,0.302147,-0.255518,-0.011454,2.455291,0.215736,0.314693,-2.466095,-0.349100,0.132274,2.251500,-0.503791,-0.085250,0.014449,-0.191113,1.400000,0.951660,0.767567,0.336019,-0.259759,0.052968,-0.237542,0.345880,-0.320949
-1.311763,-0.122415,-0.762911,-0.253146,-0.305978,-0.288377,0.310438,-0.272346,-0.061803,2.427419,0.188023,0.421441,-2.410295,-0.349100,0.324555,2.238760,-0.469655,-0.090391,0.059601,-0.113707,1.400000,1.056030,0.836024,0.326990,-0.267964,0.054472,-0.237542,0.328855,-0.299663
-1.312921,-0.141676,-0.746809,-0.244001,-0.325440,-0.324186,0.320579,-0.284475,-0.097048,2.408202,0.172571,0.491261,-2.340184,-0.349328,0.466918,2.215112,-0.452091,-0.095376,0.094304,-0.041715,1.400000,1.139115,0.893183,0.318580,-0.274170,0.055474,-0.236775,0.317008,-0.284143
-1.323574,-0.158870,-0.695724,-0.236048,-0.343551,-0.342147,0.334423,-0.287201,-0.102081,2.408202,0.181641,0.487218,-2.241456,-0.348026,0.509429,2.169652,-0.467675,-0.100050,0.108106,0.019442,1.400000,1.179620,0.927742,0.311408,-0.276378,0.055474,-0.236775,0.315516,-0.280155
-1.335826,-0.176973,-0.629037,-0.222655,-0.348305,-0.362841,0.345176,-0.274894,-0.079898,2.417705,0.202191,0.511923,-2.124506,-0.343075,0.523600,2.120870,-0.509306,-0.102975,0.098205,0.067051,1.400000,1.235470,0.960752,0.304699,-0.280420,0.055369,-0.235849,0.311307,-0.278526
-1.348878,-0.195529,-0.554549,-0.206542,-0.346378,-0.384903,0.354384,-0.255070,-0.044106,2.432911,0.228481,0.551002,-1.998446,-0.336298,0.523600,2.070428,-0.563961,-0.105025,0.076450,0.107885,1.400000,1.298992,0.992987,0.298221,-0.285379,0.055614,-0.235129,0.305739,-0.278227
-1.359770,-0.229883,-0.514246,-0.184997,-0.326538,-0.436618,0.344897,-0.216894,-0.000387,2.450152,0.277864,0.779021,-1.847956,-0.326370,0.523600,1.998328,-0.725497,-0.100211,0.050731,0.228155,1.400000,1.440114,0.940242,0.280047,-0.301511,0.054268,-0.232940,0.275496,-0.289217
-1.374655,-0.257465,-0.477472,-0.172282,-0.307628,-0.480877,0.333098,-0.191918,0.048228,2.464498,0.306405,0.974630,-1.700244,-0.316173,0.523600,1.911937,-0.885182,-0.093746,0.031908,0.329722,1.400000,1.545871,0.886721,0.263047,-0.314462,0.052258,-0.230959,0.245505,-0.301047
-1.397527,-0.271501,-0.447758,-0.177228,-0.290577,-0.510219,0.316675,-0.191918,0.106633,2.473053,0.293259,1.105408,-1.558098,-0.305438,0.523600,1.796970,-1.041156,-0.083983,0.026879,0.393872,1.400000,1.580888,0.831648,0.248397,-0.321052,0.048919,-0.229394,0.216019,-0.314554
-1.418703,-0.273547,-0.332814,-0.191189,-0.285840,-0.494410,0.306253,-0.220093,0.207570,2.476551,0.259906,1.149000,-1.117092,-0.294457,0.514038,1.715888,-1.416851,-0.076750,0.026616,0.404382,1.106258,1.506067,0.634418,0.231656,-0.315523,0.040331,-0.231001,0.168594,-0.340285
-1.439031,-0.269598,-0.175259,-0.209658,-0.286825,-0.456025,0.298831,-0.261643,0.329771,2.477197,0.216452,1.149000,-0.526667,-0.283353,0.499695,1.651749,-1.902388,-0.070782,0.028735,0.388074,0.665656,1.376329,0.366121,0.213871,-0.303934,0.029119,-0.234194,0.112202,-0.371431
-1.463080,-0.283896,-0.114107,-0.223462,-0.286825,-0.414667,0.295680,-0.295362,0.363616,2.475652,0.194519,1.146082,-0.167833,-0.282073,0.452717,1.567965,-1.827181,-0.061755,0.044534,0.361546,0.444954,1.257784,0.473867,0.205162,-0.275968,0.020090,-0.238744,0.087351,-0.371431
-1.484915,-0.300449,-0.054883,-0.235723,-0.284668,-0.370247,0.293031,-0.320384,0.396952,2.473110,0.176992,1.118409,0.159115,-0.281909,0.414695,1.485974,-1.730792,-0.052813,0.069975,0.328113,0.242505,1.144640,0.565851,0.194529,-0.247713,0.010413,-0.244907,0.065175,-0.369447
-1.502323,-0.321511,0.000488,-0.244899,-0.278081,-0.319704,0.291388,-0.328010,0.429271,2.468570,0.168275,1.041223,0.422294,-0.283978,0.394586,1.407572,-1.592037,-0.044041,0.114699,0.280870,0.076558,1.042294,0.626315,0.180047,-0.218877,-0.000562,-0.254294,0.048349,-0.365575
-1.514781,-0.343838,0.038531,-0.254324,-0.267082,-0.268513,0.291645,-0.305254,0.459392,2.464193,0.174506,0.947661,0.613428,-0.284254,0.403132,1.313150,-1.441922,-0.036262,0.147091,0.235619,-0.039566,0.963733,0.644655,0.157645,-0.186151,-0.013497,-0.267370,0.034605,-0.361348
-1.524765,-0.366798,0.067911,-0.263874,-0.253876,-0.216995,0.292450,-0.267306,0.488416,2.459898,0.188215,0.845906,0.768547,-0.283841,0.426000,1.210712,-1.286118,-0.028979,0.173313,0.191361,-0.130783,0.897060,0.641932,0.131281,-0.151477,-0.027413,-0.282290,0.022401,-0.356944
-1.535180,-0.377638,0.065631,-0.270819,-0.237741,-0.180947,0.286825,-0.240898,0.507367,2.471000,0.269001,0.800127,0.818823,-0.286517,0.207508,1.095904,-1.136539,-0.023871,0.064820,0.180020,-0.134352,0.850350,0.630051,0.095749,-0.117261,-0.039829,-0.296183,0.027842,-0.355235
-1.544081,-0.411541,0.058125,-0.277374,-0.224325,-0.147594,0.275479,-0.224018,0.520000,2.478402,0.387978,0.764560,0.850639,-0.288824,0.004826,0.983720,-0.993237,-0.019282,-0.034577,0.165019,-0.129569,0.807374,0.625872,0.055750,-0.082070,-0.052478,-0.309631,0.042151,-0.354406
-1.549953,-0.491574,0.040168,-0.283151,-0.216346,-0.119634,0.252691,-0.226197,0.520000,2.478402,0.583345,0.749416,0.845533,-0.290390,-0.166239,0.876781,-0.862488,-0.015735,-0.115783,0.142698,-0.108084,0.771861,0.637096,0.006814,-0.044928,-0.065591,-0.322189,0.074195,-0.354406
-1.558616,-0.575025,0.019185,-0.289049,-0.203542,-0.083043,0.219185,-0.240590,0.520000,2.473595,0.757761,0.703051,0.807268,-0.294538,-0.287258,0.774988,-0.748966,-0.008335,-0.169764,0.101917,-0.067468,0.759593,0.664455,-0.043479,0.034462,-0.081095,-0.334994,0.122817,-0.367025
-1.568675,-0.660189,-0.003311,-0.295008,-0.188325,-0.042134,0.180318,-0.261090,0.520000,2.466928,0.921710,0.641073,0.752422,-0.299977,-0.383259,0.675765,-0.644054,0.000993,-0.210136,0.051905,-0.017284,0.759163,0.699882,-0.094451,0.134977,-0.097795,-0.347924,0.179730,-0.386345
-1.550171,-0.715988,-0.021142,-0.297021,-0.169422,-0.002146,0.138130,-0.280692,0.520000,2.428546,1.003650,0.526053,0.650692,-0.317090,-0.421726,0.578579,-0.570717,0.016270,-0.220189,-0.011704,0.067877,0.816601,0.762947,-0.126449,0.298441,-0.109310,-0.340301,0.216685,-0.386345
-1.523095,-0.764186,-0.035163,-0.297664,-0.157744,0.028646,0.103196,-0.297588,0.520000,2.379811,1.070206,0.406672,0.533161,-0.336477,-0.452157,0.485154,-0.500163,0.030193,-0.226272,-0.078313,0.159229,0.874643,0.846460,-0.164466,0.421241,-0.120190,-0.329601,0.250561,-0.381437
-1.478872,-0.797187,-0.041565,-0.295568,-0.160516,0.041048,0.082766,-0.309073,0.520000,2.310366,1.106000,0.278558,0.384017,-0.360414,-0.466517,0.399248,-0.435167,0.041409,-0.226272,-0.150926,0.262971,0.933898,0.970876,-0.214521,0.462722,-0.129804,-0.312745,0.278280,-0.364145
-1.439486,-0.833305,-0.049388,-0.294059,-0.166905,0.047937,0.064206,-0.315936,0.520000,2.230123,1.126452,0.154940,0.237699,-0.383592,-0.470643,0.325300,-0.375973,0.053028,-0.221130,-0.226462,0.337639,0.943600,1.058260,-0.257318,0.437959,-0.143224,-0.302220,0.315839,-0.362546
-1.402517,-0.870983,-0.057922,-0.293247,-0.175102,0.052071,0.046580,-0.320488,0.520000,2.144479,1.139235,0.033567,0.092787,-0.406391,-0.469982,0.257329,-0.319676,0.064847,-0.214346,-0.303462,0.397773,0.928525,1.127129,-0.296487,0.380073,-0.158548,-0.294860,0.358318,-0.368794
-1.361719,-0.908288,-0.060955,-0.297491,-0.188322,0.056490,0.028203,-0.316131,0.520000,2.051848,1.146602,-0.048368,-0.021064,-0.418601,-0.464124,0.210212,-0.293340,0.066731,-0.202247,-0.352646,0.416196,0.839146,1.113638,-0.128523,0.298724,-0.155886,-0.291786,0.423111,-0.402817
-1.316253,-0.940886,-0.059635,-0.292746,-0.198920,0.058401,0.012007,-0.309985,0.520000,1.960114,1.150837,-0.111888,-0.136843,-0.431051,-0.458634,0.173376,-0.274025,0.072385,-0.190786,-0.396604,0.439588,0.736274,1.104288,0.060532,0.233115,-0.141742,-0.288706,0.487799,-0.430123
-1.261443,-0.964068,-0.049610,-0.270022,-0.204275,0.055295,0.000173,-0.300260,0.520000,1.870172,1.148805,-0.138575,-0.256487,-0.443981,-0.453878,0.157100,-0.268754,0.085581,-0.180601,-0.430111,0.472918,0.606403,1.104288,0.291784,0.198985,-0.104631,-0.285614,0.552278,-0.443993
-1.206271,-0.980253,-0.036019,-0.237674,-0.204499,0.049829,-0.004709,-0.289069,0.520000,1.785836,1.143660,-0.146572,-0.381012,-0.459084,-0.452293,0.160396,-0.273130,0.098715,-0.173352,-0.461158,0.520008,0.490057,1.118340,0.416774,0.181415,-0.088639,-0.277548,0.593701,-0.446251
-1.150915,-0.992940,-0.020645,-0.200513,-0.202157,0.043182,-0.005646,-0.277146,0.520000,1.704298,1.136959,-0.145225,-0.507982,-0.475273,-0.452241,0.173477,-0.282330,0.111819,-0.168342,-0.490977,0.573980,0.380467,1.139953,0.488641,0.172123,-0.083205,-0.266996,0.623598,-0.442704
-1.102487,-0.996932,-0.011733,-0.183854,-0.200839,0.040028,-0.013378,-0.268340,0.520000,1.630008,1.131602,-0.114881,-0.619668,-0.479138,-0.450794,0.209043,-0.290342,0.107934,-0.168342,-0.494313,0.605874,0.287025,1.155132,0.490684,0.169910,-0.107037,-0.242556,0.625758,-0.421839
-1.056244,-0.998053,-0.004947,-0.174153,-0.201122,0.038518,-0.023939,-0.260392,0.520000,1.557578,1.126850,-0.082347,-0.720514,-0.481258,-0.448851,0.245902,-0.299259,0.099889,-0.170490,-0.492689,0.629330,0.205701,1.161473,0.484344,0.165921,-0.131560,-0.216942,0.618285,-0.401118
-1.014367,-0.993432,-0.002416,-0.178372,-0.204607,0.040294,-0.040158,-0.254158,0.520000,1.488867,1.123306,-0.045432,-0.799681,-0.481258,-0.448851,0.285352,-0.309987,0.083518,-0.174618,-0.481142,0.635906,0.148613,1.150133,0.461238,0.158378,-0.157468,-0.188980,0.591542,-0.380685
-0.975994,-0.983106,-0.003188,-0.183809,-0.210829,0.042214,-0.052906,-0.248783,0.520000,1.423186,1.118104,-0.011521,-0.864025,-0.480145,-0.447952,0.323683,-0.320023,0.070766,-0.177323,-0.467620,0.643192,0.119329,1.128271,0.430892,0.156737,-0.174263,-0.170076,0.557878,-0.373219
-0.939371,-0.969926,-0.005612,-0.188962,-0.218419,0.044208,-0.063920,-0.243838,0.520000,1.359016,1.112071,0.020888,-0.920962,-0.479488,-0.448032,0.361456,-0.329713,0.059824,-0.179316,-0.453109,0.650835,0.103944,1.101148,0.396925,0.157611,-0.186502,-0.156304,0.520753,-0.372564
-0.910167,-0.950438,-0.011483,-0.188962,-0.225989,0.047606,-0.066457,-0.242489,0.520000,1.302185,1.099700,0.044315,-0.963260,-0.480880,-0.445891,0.388536,-0.337361,0.055379,-0.176912,-0.436696,0.657497,0.130584,1.070125,0.358660,0.168324,-0.183470,-0.156304,0.487011,-0.383823
-0.884247,-0.929558,-0.017240,-0.185337,-0.232963,0.051475,-0.066323,-0.243187,0.520000,1.249188,1.084329,0.064085,-1.000828,-0.481235,-0.442397,0.410390,-0.344169,0.051238,-0.174320,-0.420322,0.660675,0.168374,1.037428,0.318816,0.172885,-0.175059,-0.157359,0.455019,-0.394052
-0.864894,-0.905897,-0.022766,-0.177144,-0.238745,0.056285,-0.060848,-0.247979,0.520000,1.203860,1.062956,0.076543,-1.028934,-0.479515,-0.436199,0.421792,-0.349295,0.047705,-0.171350,-0.404029,0.656885,0.228465,1.001379,0.275813,0.165142,-0.155890,-0.158720,0.426527,-0.402222
-0.848011,-0.879669,-0.024608,-0.167086,-0.241513,0.060837,-0.054113,-0.254644,0.520000,1.163256,1.036816,0.084416,-1.049542,-0.476920,-0.427803,0.427234,-0.353261,0.043961,-0.169265,-0.390394,0.653597,0.299839,0.966581,0.241552,0.149819,-0.131262,-0.155580,0.407370,-0.405802
-0.832362,-0.852157,-0.024927,-0.156096,-0.242354,0.065259,-0.046747,-0.262246,0.520000,1.125012,1.008289,0.090235,-1.066402,-0.473887,-0.418307,0.429697,-0.356647,0.040111,-0.167623,-0.378087,0.651236,0.376860,0.932406,0.211660,0.130706,-0.103902,-0.150191,0.392880,-0.407332
-0.814104,-0.819409,-0.020118,-0.148858,-0.238395,0.066872,-0.042432,-0.267076,0.520000,1.086665,0.971258,0.090235,-1.072787,-0.469509,-0.406825,0.426812,-0.356647,0.034233,-0.165201,-0.372213,0.651236,0.464484,0.904641,0.194365,0.117405,-0.074734,-0.146342,0.386606,-0.407332
-0.795601,-0.785906,-0.015177,-0.143315,-0.234739,0.067161,-0.039555,-0.271764,0.520000,1.049330,0.933501,0.090887,-1.076281,-0.464161,-0.395175,0.423396,-0.356008,0.027924,-0.162906,-0.369098,0.653264,0.551084,0.879785,0.180062,0.106072,-0.049097,-0.143205,0.381777,-0.407820
-0.776604,-0.750891,-0.009975,-0.143315,-0.231687,0.067161,-0.039555,-0.276166,0.520000,1.014016,0.894288,0.092129,-1.076281,-0.456872,-0.383187,0.418921,-0.353421,0.020752,-0.160865,-0.369098,0.657325,0.635642,0.860748,0.171745,0.098674,-0.030520,-0.143205,0.379836,-0.407820
-0.755563,-0.714601,-0.004580,-0.143034,-0.228750,0.064780,-0.043048,-0.282187,0.520000,0.979910,0.855030,0.095293,-1.070591,-0.450882,-0.370007,0.415050,-0.349280,0.014579,-0.157540,-0.376977,0.664319,0.712369,0.846018,0.161799,0.092774,-0.019771,-0.142634,0.376766,-0.408064
-0.733499,-0.677672,0.000912,-0.142778,-0.225872,0.062388,-0.047365,-0.289018,0.520000,0.946406,0.815748,0.099417,-1.063200,-0.445541,-0.356231,0.410512,-0.344362,0.008906,-0.153572,-0.387593,0.672780,0.785182,0.833442,0.151039,0.087624,-0.012935,-0.141711,0.373130,-0.407514
-0.708446,-0.637589,0.007432,-0.142778,-0.220615,0.060571,-0.054346,-0.297984,0.520000,0.916739,0.775324,0.109501,-1.048712,-0.438790,-0.343101,0.410512,-0.338593,0.004398,-0.148423,-0.405411,0.684546,0.836367,0.826881,0.131996,0.081806,-0.009967,-0.141711,0.361808,-0.407514
-0.682129,-0.597290,0.014618,-0.141161,-0.214057,0.058339,-0.062651,-0.306965,0.520000,0.886593,0.735098,0.121563,-1.032828,-0.431235,-0.330156,0.410562,-0.332835,-0.000465,-0.143418,-0.423805,0.697622,0.879350,0.822842,0.112789,0.075756,-0.006747,-0.140542,0.346689,-0.406227
-0.653283,-0.556555,0.023133,-0.138390,-0.204894,0.058339,-0.073603,-0.315975,0.520000,0.855483,0.695264,0.137584,-1.014153,-0.422069,-0.317581,0.413622,-0.327099,-0.006037,-0.138699,-0.443353,0.713318,0.905932,0.822842,0.093250,0.069244,-0.003022,-0.140542,0.323974,-0.404138
-0.619862,-0.516562,0.033296,-0.133416,-0.193679,0.057318,-0.085408,-0.323864,0.520000,0.817853,0.657047,0.156545,-0.992650,-0.408951,-0.304420,0.418022,-0.320251,-0.016381,-0.133101,-0.461219,0.727690,0.919764,0.828118,0.081292,0.061826,0.001262,-0.138158,0.295809,-0.400447
-0.584154,-0.476938,0.044282,-0.127339,-0.181438,0.057318,-0.097638,-0.331194,0.520000,0.776962,0.619638,0.176977,-0.969733,-0.393858,-0.290966,0.423091,-0.312847,-0.029111,-0.127063,-0.478243,0.741398,0.927222,0.835529,0.073124,0.053954,0.005826,-0.135686,0.264917,-0.395957
-0.542973,-0.437847,0.055188,-0.118824,-0.167367,0.059143,-0.111620,-0.337167,0.520000,0.728251,0.582686,0.199825,-0.942886,-0.376466,-0.277821,0.428561,-0.302563,-0.043094,-0.120766,-0.493684,0.750566,0.920094,0.848115,0.077433,0.043068,0.007119,-0.131169,0.234773,-0.387767
-0.500168,-0.399379,0.066749,-0.107727,-0.151954,0.061289,-0.124521,-0.341834,0.520000,0.677780,0.546458,0.222586,-0.915508,-0.357902,-0.264800,0.433907,-0.291831,-0.056011,-0.114653,-0.508044,0.759490,0.909928,0.862416,0.082847,0.032144,0.007143,-0.126016,0.207300,-0.378592
-0.454109,-0.362155,0.079621,-0.091467,-0.133853,0.064515,-0.135262,-0.343892,0.520000,0.623780,0.511676,0.245175,-0.887066,-0.336989,-0.252024,0.439004,-0.280199,-0.066796,-0.108904,-0.520242,0.767925,0.893683,0.880152,0.090469,0.021143,0.004628,-0.119591,0.185168,-0.367449
-0.406784,-0.328385,0.093847,-0.068148,-0.112417,0.069231,-0.140262,-0.341962,0.520000,0.567053,0.480165,0.266130,-0.858504,-0.318723,-0.240270,0.442274,-0.268163,-0.068240,-0.103301,-0.527226,0.774973,0.876104,0.900609,0.096020,0.012019,0.000837,-0.112715,0.168837,-0.355110
-0.358824,-0.296340,0.108749,-0.041300,-0.089314,0.074691,-0.142392,-0.338038,0.520000,0.508961,0.450290,0.286268,-0.829880,-0.301780,-0.229028,0.444630,-0.255924,-0.065014,-0.097770,-0.531604,0.781327,0.857857,0.922428,0.100534,0.003833,-0.003593,-0.105615,0.155405,-0.342173
-0.317176,-0.275379,0.126968,-0.014061,-0.065750,0.078742,-0.138495,-0.326512,0.505421,0.458362,0.427849,0.310241,-0.793929,-0.297995,-0.220739,0.441590,-0.242287,-0.075276,-0.091586,-0.528210,0.789573,0.847784,0.947496,0.099743,-0.001232,-0.010139,-0.098707,0.147503,-0.328055
-0.284059,-0.260975,0.145218,0.006625,-0.048216,0.078082,-0.129036,-0.312572,0.490229,0.421296,0.413422,0.332711,-0.759116,-0.297071,-0.213874,0.436608,-0.229373,-0.078199,-0.084127,-0.522044,0.798677,0.840422,0.973328,0.097481,-0.005229,-0.016956,-0.091799,0.140391,-0.313718
-0.268008,-0.259688,0.163530,0.014207,-0.042745,0.067998,-0.108449,-0.293805,0.473811,0.411301,0.413422,0.352173,-0.726578,-0.301870,-0.209854,0.427746,-0.217907,-0.066439,-0.074113,-0.510336,0.809496,0.838481,1.000689,0.093071,-0.007087,-0.024315,-0.084892,0.134861,-0.298943
-0.263395,-0.263749,0.178185,0.011748,-0.045592,0.053514,-0.090622,-0.275746,0.462998,0.418537,0.422254,0.362208,-0.696781,-0.301149,-0.209061,0.418221,-0.207230,-0.050706,-0.064330,-0.499098,0.813479,0.843738,1.029748,0.088172,-0.009304,-0.030103,-0.077545,0.130669,-0.284200
-0.263395,-0.270485,0.191011,0.004271,-0.052598,0.036830,-0.074173,-0.258042,0.454987,0.434388,0.434698,0.367529,-0.668354,-0.297666,-0.209061,0.408365,-0.196947,-0.032985,-0.054661,-0.488096,0.813479,0.852595,1.059657,0.083028,-0.011701,-0.035105,-0.069979,0.127145,-0.269473
-0.259621,-0.263435,0.187050,-0.000495,-0.059187,0.027178,-0.065053,-0.255209,0.451576,0.441213,0.433717,0.356838,-0.631801,-0.293291,-0.209609,0.401262,-0.187267,-0.026532,-0.049164,-0.491861,0.797125,0.877679,1.085076,0.077230,-0.016626,-0.036405,-0.062370,0.127145,-0.258989
-0.253484,-0.253523,0.180478,-0.004882,-0.064735,0.019532,-0.057683,-0.253851,0.446853,0.444441,0.427427,0.341128,-0.591584,-0.289213,-0.208029,0.393255,-0.178679,-0.019596,-0.042664,-0.499230,0.778477,0.908028,1.110240,0.071269,-0.020974,-0.036391,-0.055093,0.127609,-0.250045
-0.244094,-0.237887,0.168682,-0.008515,-0.068201,0.015896,-0.053810,-0.255443,0.439503,0.440478,0.411496,0.315380,-0.544035,-0.285731,-0.203705,0.383442,-0.172274,-0.011693,-0.034158,-0.513808,0.755992,0.948912,1.134899,0.064982,-0.024165,-0.033749,-0.048475,0.129472,-0.244180
-0.232298,-0.222464,0.158041,-0.013888,-0.071803,0.012098,-0.050987,-0.254531,0.428286,0.427241,0.390014,0.281791,-0.494453,-0.280193,-0.197071,0.368706,-0.168847,-0.003271,-0.023384,-0.527384,0.736664,0.995824,1.161177,0.058453,-0.021115,-0.026739,-0.042229,0.131654,-0.238358
-0.219298,-0.207149,0.147977,-0.020130,-0.075473,0.008218,-0.048689,-0.252368,0.415137,0.409368,0.365757,0.244282,-0.443857,-0.273626,-0.189282,0.351511,-0.166907,0.005410,-0.011476,-0.540457,0.718914,1.045749,1.188264,0.051803,-0.014943,-0.017545,-0.036170,0.133996,-0.232557
-0.204755,-0.192594,0.140707,-0.026671,-0.079977,0.002429,-0.045211,-0.248211,0.401254,0.388150,0.342784,0.212197,-0.397007,-0.265476,-0.184380,0.337707,-0.168168,0.011867,0.001367,-0.540457,0.706918,1.081502,1.217036,0.044633,0.000743,-0.007581,-0.030457,0.137902,-0.224177
-0.189456,-0.176811,0.134021,-0.032488,-0.083917,-0.003075,-0.041718,-0.244557,0.388300,0.368186,0.320212,0.181574,-0.351485,-0.257748,-0.179765,0.325044,-0.170479,0.017802,0.013574,-0.539129,0.697202,1.113324,1.244033,0.033829,0.015018,-0.000096,-0.023362,0.143506,-0.214632
-0.172643,-0.158574,0.128504,-0.036858,-0.086730,-0.008010,-0.038195,-0.241908,0.377200,0.350726,0.298439,0.153871,-0.308614,-0.250866,-0.175723,0.314664,-0.174890,0.022695,0.024510,-0.534764,0.692046,1.137283,1.267483,0.015757,0.026475,0.002433,-0.013502,0.152504,-0.202761
-0.158048,-0.143137,0.124593,-0.039997,-0.088795,-0.012205,-0.034821,-0.240554,0.366346,0.336712,0.280705,0.128890,-0.267949,-0.245896,-0.171500,0.305894,-0.181908,0.027847,0.032906,-0.527978,0.687383,1.150872,1.284690,-0.012663,0.031922,-0.001238,-0.000397,0.165114,-0.189331
-0.144562,-0.129102,0.121484,-0.042521,-0.090484,-0.016030,-0.031522,-0.239496,0.355618,0.324422,0.264992,0.105271,-0.228390,-0.241882,-0.167188,0.297929,-0.190229,0.033129,0.040029,-0.519984,0.682966,1.159273,1.298773,-0.046255,0.034364,-0.008008,0.014330,0.179530,-0.175124
-0.133955,-0.120733,0.121484,-0.043692,-0.092057,-0.020290,-0.025887,-0.239496,0.345647,0.316335,0.257200,0.087360,-0.192104,-0.239101,-0.163738,0.292227,-0.200775,0.038111,0.045188,-0.507837,0.676788,1.151339,1.303559,-0.083827,0.031966,-0.021287,0.029116,0.196955,-0.160734
-0.121718,-0.112328,0.122164,-0.044964,-0.094011,-0.024818,-0.019122,-0.237769,0.336843,0.307479,0.251095,0.071245,-0.156829,-0.236507,-0.160910,0.286999,-0.211541,0.042636,0.050660,-0.495059,0.669928,1.139968,1.305845,-0.117801,0.029301,-0.035396,0.042709,0.213790,-0.147381
-0.106219,-0.103853,0.124792,-0.046438,-0.096728,-0.029883,-0.010096,-0.234354,0.330371,0.297083,0.248365,0.058721,-0.123575,-0.234288,-0.160910,0.282720,-0.222747,0.046246,0.056756,-0.481017,0.661707,1.121722,1.303133,-0.144584,0.026102,-0.051166,0.053918,0.229443,-0.136104
-0.088885,-0.094520,0.125667,-0.047556,-0.099088,-0.034921,-0.001063,-0.230729,0.325836,0.286555,0.247709,0.047396,-0.094280,-0.232869,-0.160382,0.278709,-0.232088,0.049108,0.062761,-0.470436,0.652591,1.104152,1.297962,-0.159496,0.024602,-0.063411,0.060760,0.239927,-0.129144
-0.070634,-0.084757,0.125160,-0.049048,-0.102298,-0.039945,0.007975,-0.227000,0.322270,0.275961,0.248601,0.036670,-0.066966,-0.231619,-0.159462,0.274833,-0.240495,0.051594,0.068718,-0.461584,0.643030,1.086919,1.291562,-0.168473,0.024938,-0.073892,0.065419,0.247826,-0.124343
-0.052735,-0.076155,0.122398,-0.049048,-0.102298,-0.044624,0.015700,-0.220694,0.317726,0.265020,0.248601,0.026745,-0.043609,-0.231619,-0.159462,0.271232,-0.248785,0.054230,0.073042,-0.460087,0.635478,1.072886,1.280308,-0.171315,0.024938,-0.082020,0.067176,0.253826,-0.122485
-0.035956,-0.067989,0.118336,-0.050530,-0.103789,-0.049094,0.022635,-0.215146,0.312830,0.255197,0.250134,0.016176,-0.022217,-0.231048,-0.158191,0.267916,-0.256287,0.056799,0.076680,-0.461399,0.627553,1.061049,1.268529,-0.172088,0.026124,-0.088327,0.067613,0.258987,-0.121702
-0.021415,-0.060691,0.111675,-0.050530,-0.103789,-0.053145,0.027988,-0.211113,0.307229,0.247607,0.250134,0.004320,-0.004756,-0.231048,-0.158191,0.265173,-0.262213,0.059236,0.078948,-0.468327,0.618882,1.053603,1.255698,-0.168723,0.027369,-0.090990,0.067613,0.262471,-0.121702
-0.009049,-0.054013,0.103701,-0.052064,-0.105176,-0.056826,0.032415,-0.208224,0.301902,0.242525,0.252014,-0.009169,0.009012,-0.231950,-0.158289,0.262334,-0.266608,0.061452,0.080578,-0.478750,0.610318,1.050262,1.243069,-0.161856,0.029418,-0.091005,0.064554,0.264178,-0.123299
