Lukebird17/AI3618-SONIC/reference/reference/example/macarena_001__A545_M/joint_pos.csv
joint_0,joint_1,joint_2,joint_3,joint_4,joint_5,joint_6,joint_7,joint_8,joint_9,joint_10,joint_11,joint_12,joint_13,joint_14,joint_15,joint_16,joint_17,joint_18,joint_19,joint_20,joint_21,joint_22,joint_23,joint_24,joint_25,joint_26,joint_27,joint_28
-0.126272,-0.108143,0.046148,-0.036993,-0.179276,0.008396,0.177368,-0.338031,0.155711,0.258694,0.351131,0.072505,0.092045,-0.150952,-0.212698,0.280039,-0.245771,0.054941,0.030606,-0.388759,0.464957,1.311463,1.293016,0.163236,-0.021957,0.063468,0.040991,-0.139576,0.005325
-0.126272,-0.120539,0.042225,-0.041438,-0.187371,0.002171,0.180914,-0.331282,0.158011,0.258694,0.374928,0.059377,0.077020,-0.152867,-0.219053,0.277367,-0.245771,0.057113,0.033177,-0.396017,0.464957,1.315430,1.293016,0.181058,-0.019120,0.063468,0.040991,-0.135901,-0.006080
-0.124976,-0.134420,0.037301,-0.046415,-0.196219,-0.004638,0.184951,-0.323336,0.159946,0.258863,0.401449,0.046768,0.063137,-0.154832,-0.226335,0.276326,-0.248080,0.059595,0.036112,-0.403163,0.461142,1.315353,1.286787,0.196065,-0.017739,0.062546,0.039562,-0.132854,-0.016527
-0.124976,-0.151270,0.030374,-0.052456,-0.206572,-0.012617,0.189972,-0.312995,0.161149,0.258863,0.433414,0.035202,0.051538,-0.156896,-0.235471,0.276326,-0.253709,0.062697,0.039772,-0.410086,0.451781,1.307185,1.270996,0.205441,-0.017739,0.062546,0.038108,-0.131060,-0.025056
-0.122579,-0.166789,0.023296,-0.058096,-0.216041,-0.019698,0.195451,-0.302686,0.163120,0.258465,0.463423,0.022477,0.040266,-0.158971,-0.242989,0.278453,-0.259176,0.065957,0.043164,-0.416395,0.439487,1.294138,1.252109,0.211244,-0.020216,0.059794,0.036303,-0.128127,-0.034703
-0.120438,-0.181644,0.016141,-0.063535,-0.225068,-0.026331,0.201159,-0.292393,0.165476,0.258215,0.492452,0.009173,0.029159,-0.161053,-0.249697,0.280535,-0.264563,0.069297,0.046422,-0.422398,0.425726,1.278651,1.231674,0.215728,-0.023166,0.056823,0.034322,-0.124625,-0.044909
-0.115945,-0.191008,0.011075,-0.066580,-0.230183,-0.030100,0.206571,-0.283742,0.167213,0.256198,0.512729,-0.003364,0.019825,-0.162804,-0.253028,0.283287,-0.268524,0.071433,0.048662,-0.422398,0.412615,1.255641,1.209587,0.215728,-0.026548,0.052439,0.031295,-0.117905,-0.057937
-0.111041,-0.199239,0.006936,-0.069226,-0.234391,-0.033110,0.212026,-0.274898,0.169290,0.253800,0.530861,-0.015925,0.011088,-0.164771,-0.255760,0.285990,-0.272296,0.073353,0.050965,-0.421006,0.400263,1.231344,1.187352,0.216676,-0.030132,0.047771,0.027854,-0.110385,-0.071298
-0.105314,-0.205202,0.004650,-0.071073,-0.236784,-0.034600,0.217568,-0.265665,0.169290,0.250640,0.544703,-0.028533,0.003542,-0.164771,-0.257296,0.288594,-0.275689,0.074841,0.053390,-0.417122,0.389429,1.204470,1.164819,0.218113,-0.034123,0.042537,0.023585,-0.101267,-0.085323
-0.099468,-0.208819,0.003888,-0.072009,-0.237582,-0.035097,0.222887,-0.257329,0.170207,0.247192,0.553895,-0.041681,-0.003042,-0.166131,-0.258670,0.290521,-0.278324,0.075659,0.055680,-0.411737,0.380919,1.178026,1.143609,0.217609,-0.039358,0.036314,0.018609,-0.091123,-0.098913
-0.093560,-0.210731,0.003932,-0.072329,-0.237284,-0.034166,0.228093,-0.249441,0.170287,0.243600,0.560761,-0.055098,-0.009145,-0.167095,-0.259533,0.292386,-0.280579,0.075393,0.058867,-0.405601,0.373570,1.151798,1.123060,0.216134,-0.045216,0.029597,0.013281,-0.080466,-0.112285
-0.086661,-0.210731,0.006603,-0.072329,-0.235733,-0.034166,0.233970,-0.242653,0.170287,0.239227,0.561951,-0.068761,-0.014748,-0.167095,-0.259533,0.292386,-0.282251,0.075393,0.058867,-0.397830,0.369623,1.126493,1.105997,0.209161,-0.052696,0.022316,0.008411,-0.069941,-0.122603
-0.080526,-0.209422,0.009375,-0.071303,-0.233699,-0.032863,0.239323,-0.236939,0.169482,0.234990,0.561238,-0.082045,-0.020310,-0.167497,-0.260109,0.292663,-0.283366,0.074110,0.059563,-0.389745,0.366300,1.101581,1.090664,0.201156,-0.060391,0.015322,0.004246,-0.060089,-0.131150
-0.075923,-0.207092,0.012351,-0.069779,-0.230696,-0.031378,0.243631,-0.233374,0.167318,0.231025,0.556719,-0.094572,-0.025792,-0.167497,-0.260109,0.292663,-0.283366,0.074110,0.059563,-0.381035,0.364224,1.077456,1.078790,0.191086,-0.068515,0.008900,0.001491,-0.051579,-0.136155
-0.072228,-0.203036,0.014550,-0.067445,-0.227033,-0.029569,0.246810,-0.232363,0.164916,0.227955,0.549038,-0.106370,-0.031262,-0.167456,-0.259080,0.291269,-0.282644,0.071986,0.058434,-0.373105,0.363532,1.055502,1.070509,0.182368,-0.075768,0.003412,-0.000369,-0.044814,-0.138231
-0.068987,-0.198118,0.016361,-0.064705,-0.223039,-0.027599,0.249426,-0.232363,0.162395,0.225333,0.539776,-0.117803,-0.036725,-0.167456,-0.259080,0.291269,-0.282644,0.069845,0.057145,-0.365565,0.363532,1.034633,1.064023,0.174325,-0.082585,-0.001608,-0.000369,-0.038921,-0.138231
-0.067988,-0.191848,0.017705,-0.060973,-0.217793,-0.025363,0.251854,-0.234071,0.158468,0.223802,0.525320,-0.126835,-0.041598,-0.167604,-0.256981,0.288725,-0.279486,0.067885,0.055045,-0.360096,0.364577,1.016235,1.063251,0.169201,-0.087993,-0.005589,-0.001843,-0.033747,-0.137813
-0.066155,-0.184399,0.018601,-0.056843,-0.211980,-0.023027,0.253960,-0.235935,0.154879,0.223312,0.509146,-0.135244,-0.046124,-0.167981,-0.255463,0.287082,-0.276936,0.065641,0.052714,-0.355816,0.366072,0.999431,1.063447,0.164320,-0.093066,-0.009547,-0.002376,-0.028653,-0.135997
-0.066155,-0.174590,0.018601,-0.051920,-0.205033,-0.020489,0.255421,-0.238468,0.151965,0.223312,0.489539,-0.142406,-0.049956,-0.167981,-0.253661,0.285461,-0.273766,0.062828,0.049919,-0.353911,0.367911,0.985814,1.066354,0.159925,-0.097471,-0.013461,-0.002376,-0.023719,-0.135997
-0.064205,-0.163912,0.017839,-0.046088,-0.196849,-0.017528,0.256874,-0.240297,0.149431,0.224759,0.469021,-0.148183,-0.052625,-0.169205,-0.250606,0.283853,-0.270207,0.059851,0.046741,-0.354646,0.369411,0.975517,1.071755,0.155697,-0.099961,-0.016989,-0.002567,-0.019730,-0.134025
-0.062528,-0.152801,0.017278,-0.039801,-0.188045,-0.014357,0.259047,-0.241774,0.147089,0.225674,0.448050,-0.153268,-0.055417,-0.170152,-0.246925,0.282251,-0.266454,0.056793,0.043373,-0.356700,0.370742,0.966880,1.078404,0.151554,-0.101494,-0.020324,-0.002529,-0.016212,-0.132551
-0.060595,-0.142472,0.015855,-0.032926,-0.178905,-0.010499,0.259047,-0.241774,0.145853,0.228464,0.430351,-0.155852,-0.055417,-0.171992,-0.242238,0.280953,-0.263082,0.053617,0.040109,-0.362836,0.373557,0.962823,1.088951,0.148452,-0.099169,-0.022562,-0.002529,-0.014861,-0.130699
-0.059955,-0.133271,0.014047,-0.025782,-0.169796,-0.006452,0.259771,-0.242168,0.144489,0.232330,0.414282,-0.157966,-0.056123,-0.174215,-0.237615,0.279440,-0.259856,0.050266,0.036909,-0.369794,0.376770,0.961107,1.100643,0.145850,-0.095859,-0.024821,-0.002809,-0.014469,-0.128745
-0.059955,-0.126328,0.011468,-0.018096,-0.160749,-0.002026,0.259771,-0.242168,0.142868,0.238348,0.401475,-0.157966,-0.056123,-0.177204,-0.233118,0.277496,-0.256920,0.046566,0.033836,-0.378394,0.380780,0.961107,1.114623,0.144245,-0.090580,-0.024821,-0.002809,-0.014469,-0.126583
-0.061693,-0.120920,0.008764,-0.010580,-0.152615,0.001453,0.259340,-0.242648,0.141898,0.246194,0.392408,-0.157227,-0.054879,-0.181187,-0.229997,0.275045,-0.254107,0.043080,0.030916,-0.387093,0.385497,0.966972,1.130233,0.144035,-0.083837,-0.025313,-0.002208,-0.016592,-0.123558
-0.063327,-0.116280,0.005998,-0.003151,-0.144938,0.004459,0.259191,-0.242137,0.141469,0.254954,0.385213,-0.155530,-0.053595,-0.185667,-0.226782,0.272340,-0.251355,0.039701,0.028073,-0.395842,0.390568,0.974287,1.146658,0.144359,-0.076363,-0.024125,-0.001095,-0.019014,-0.120099
-0.064745,-0.112424,0.003541,0.003560,-0.138835,0.006522,0.259191,-0.242137,0.143456,0.265850,0.382319,-0.153312,-0.051544,-0.190640,-0.226782,0.270129,-0.249757,0.036538,0.025007,-0.407698,0.398662,0.985907,1.163950,0.147190,-0.067607,-0.024125,-0.001095,-0.023361,-0.114977
-0.066543,-0.108486,0.001174,0.010394,-0.132843,0.008525,0.258521,-0.242174,0.145989,0.277890,0.379913,-0.151020,-0.049325,-0.196048,-0.226001,0.267799,-0.247765,0.033334,0.021857,-0.419416,0.407179,0.998863,1.181549,0.150908,-0.058065,-0.022633,0.000447,-0.028679,-0.109610
-0.069102,-0.104385,-0.001016,0.017473,-0.127074,0.010408,0.258521,-0.242174,0.149614,0.292219,0.378479,-0.148579,-0.046772,-0.202326,-0.226001,0.265230,-0.247765,0.030047,0.018539,-0.430858,0.416540,1.014494,1.199760,0.156401,-0.046947,-0.020895,0.000447,-0.035937,-0.103752
-0.071930,-0.099208,-0.003503,0.025253,-0.120799,0.012624,0.256834,-0.243505,0.154663,0.308230,0.376461,-0.146085,-0.043586,-0.209161,-0.225367,0.262865,-0.246839,0.026660,0.014973,-0.442181,0.426265,1.031823,1.216790,0.163845,-0.035252,-0.018660,0.002513,-0.045158,-0.097390
-0.074892,-0.093493,-0.006137,0.033384,-0.114272,0.015008,0.255357,-0.244917,0.160422,0.325083,0.374151,-0.143564,-0.040083,-0.216274,-0.225367,0.260602,-0.246839,0.023221,0.011282,-0.453444,0.436172,1.050001,1.233229,0.172264,-0.023269,-0.016178,0.004346,-0.055360,-0.090776
-0.077217,-0.085599,-0.009183,0.042150,-0.106830,0.018053,0.252863,-0.247394,0.166596,0.341939,0.369592,-0.139322,-0.034490,-0.224116,-0.224600,0.258202,-0.247008,0.019478,0.007767,-0.461933,0.443621,1.069649,1.247444,0.180719,-0.015826,-0.013115,0.006618,-0.062787,-0.085630
-0.079683,-0.077356,-0.012017,0.051292,-0.098812,0.021544,0.250002,-0.249929,0.172645,0.359080,0.364179,-0.134908,-0.028456,-0.233842,-0.223070,0.255640,-0.247836,0.015426,0.004208,-0.470143,0.450660,1.089745,1.260953,0.188612,-0.008665,-0.009805,0.008809,-0.069498,-0.080666
-0.082431,-0.068415,-0.014429,0.061185,-0.089639,0.025930,0.246409,-0.252581,0.178447,0.376791,0.357059,-0.130152,-0.021540,-0.247336,-0.223070,0.252750,-0.247836,0.010756,0.000562,-0.477798,0.456879,1.110740,1.273053,0.195381,-0.002069,-0.005999,0.010834,-0.074778,-0.076068
-0.086707,-0.059926,-0.016332,0.071208,-0.080074,0.030905,0.242105,-0.255777,0.182787,0.394577,0.348274,-0.124278,-0.013511,-0.260620,-0.220981,0.249636,-0.249274,0.006588,-0.002936,-0.483399,0.461728,1.130785,1.282951,0.200620,0.004313,-0.001882,0.012687,-0.078929,-0.071469
-0.091746,-0.051663,-0.017979,0.081296,-0.070313,0.036176,0.237446,-0.259246,0.186395,0.412399,0.338658,-0.117846,-0.004926,-0.273799,-0.219264,0.246408,-0.250622,0.002672,-0.006360,-0.487974,0.465892,1.150354,1.291747,0.205094,0.010589,0.002390,0.014454,-0.082515,-0.066870
-0.095117,-0.042837,-0.017979,0.090879,-0.060622,0.041549,0.234469,-0.261790,0.189569,0.426446,0.326643,-0.109967,0.004169,-0.283328,-0.215717,0.244084,-0.252685,-0.000155,-0.009457,-0.491201,0.469464,1.166018,1.297962,0.208158,0.015669,0.006461,0.015789,-0.084728,-0.062264
-0.098020,-0.034458,-0.017223,0.099518,-0.051571,0.046352,0.232059,-0.264033,0.192058,0.437908,0.313764,-0.101690,0.013061,-0.290995,-0.211549,0.242021,-0.254708,-0.002750,-0.012299,-0.493870,0.472958,1.180599,1.303853,0.210675,0.020799,0.010388,0.017215,-0.086825,-0.057856
-0.099986,-0.026974,-0.017223,0.106271,-0.043802,0.050012,0.230781,-0.265675,0.192058,0.444198,0.299158,-0.092620,0.021548,-0.294941,-0.206140,0.240482,-0.256651,-0.004880,-0.014632,-0.495422,0.476296,1.193013,1.309099,0.212096,0.026027,0.014024,0.017215,-0.088686,-0.053845
-0.101003,-0.020883,-0.014607,0.110813,-0.037774,0.052173,0.231336,-0.266401,0.190527,0.444907,0.283410,-0.082610,0.028979,-0.295250,-0.199927,0.239426,-0.258110,-0.007506,-0.016493,-0.495939,0.478191,1.202494,1.314317,0.213413,0.031024,0.016988,0.018255,-0.090346,-0.050414
-0.101154,-0.015489,-0.012196,0.114519,-0.032617,0.052694,0.232316,-0.266447,0.187673,0.442826,0.267092,-0.072129,0.035883,-0.293742,-0.193310,0.239179,-0.258922,-0.010379,-0.018811,-0.495964,0.479467,1.210509,1.319521,0.215069,0.035906,0.019616,0.019770,-0.091905,-0.047273
-0.101154,-0.012244,-0.008648,0.114519,-0.030275,0.052694,0.235101,-0.266447,0.182290,0.434972,0.250691,-0.061436,0.040617,-0.288445,-0.186438,0.239179,-0.258922,-0.012181,-0.018811,-0.494035,0.479467,1.215380,1.324957,0.215069,0.040923,0.021674,0.019770,-0.093680,-0.044188
-0.100643,-0.009392,-0.005548,0.113916,-0.027905,0.051182,0.237820,-0.266640,0.176513,0.426454,0.234882,-0.051038,0.044715,-0.282892,-0.179909,0.240484,-0.258089,-0.013983,-0.019503,-0.491924,0.479429,1.219551,1.330108,0.216779,0.045708,0.023594,0.021349,-0.095633,-0.041202
-0.100643,-0.007326,-0.003346,0.113916,-0.027905,0.049316,0.240406,-0.266640,0.169945,0.416609,0.220261,-0.041231,0.047541,-0.276827,-0.174069,0.240484,-0.256614,-0.015781,-0.019503,-0.489445,0.477834,1.222322,1.334687,0.216779,0.050031,0.025238,0.023058,-0.097941,-0.038415
-0.099884,-0.005185,-0.001799,0.111737,-0.027139,0.047689,0.241745,-0.268036,0.164318,0.407545,0.208077,-0.032865,0.049277,-0.270804,-0.169789,0.242682,-0.254868,-0.016981,-0.019592,-0.487518,0.475607,1.223246,1.337788,0.217850,0.053989,0.026577,0.024657,-0.100557,-0.036163
-0.099426,-0.003006,-0.000328,0.109779,-0.027952,0.045888,0.241481,-0.269642,0.159162,0.398870,0.197112,-0.025221,0.049122,-0.264801,-0.165732,0.244465,-0.252987,-0.018044,-0.019168,-0.485866,0.473064,1.222935,1.339736,0.218025,0.057765,0.027785,0.027021,-0.103328,-0.033452
-0.098107,-0.001470,-0.000328,0.107389,-0.027952,0.045888,0.241481,-0.271088,0.156193,0.392059,0.192323,-0.020797,0.049122,-0.259979,-0.165732,0.246652,-0.251262,-0.018044,-0.019168,-0.484555,0.471699,1.221331,1.339736,0.216532,0.060358,0.027785,0.027021,-0.106017,-0.033452
-0.096441,0.000168,-0.000075,0.105067,-0.029230,0.044772,0.240059,-0.272492,0.153786,0.386086,0.189949,-0.017095,0.047181,-0.255667,-0.165941,0.248684,-0.249697,-0.018507,-0.019758,-0.483078,0.470302,1.219760,1.338149,0.215069,0.062541,0.028393,0.027847,-0.108836,-0.032726
-0.094085,0.000168,-0.000075,0.102881,-0.030754,0.044772,0.238014,-0.273814,0.153786,0.381791,0.192408,-0.017095,0.044204,-0.252376,-0.168237,0.250406,-0.248452,-0.018507,-0.019758,-0.481268,0.470302,1.218254,1.334626,0.213668,0.062541,0.028393,0.027847,-0.108836,-0.032726
-0.091532,0.000781,0.000820,0.100987,-0.032587,0.044718,0.235254,-0.275195,0.154072,0.379815,0.198781,-0.017879,0.040374,-0.250104,-0.172314,0.251197,-0.247242,-0.018054,-0.020710,-0.477584,0.468956,1.217752,1.329901,0.213077,0.062612,0.028585,0.027200,-0.109494,-0.033113
-0.088879,0.000563,0.001869,0.099240,-0.034574,0.045251,0.232135,-0.276605,0.154786,0.379271,0.207111,-0.020185,0.036116,-0.248342,-0.177282,0.251413,-0.245656,-0.016885,-0.021679,-0.472963,0.467671,1.216144,1.324576,0.212953,0.062228,0.028509,0.025913,-0.109126,-0.033471
-0.086707,0.000563,0.001869,0.097721,-0.037400,0.045251,0.228405,-0.278867,0.156147,0.381737,0.220430,-0.024552,0.030646,-0.248342,-0.184127,0.251413,-0.245656,-0.016885,-0.021679,-0.469229,0.465801,1.216144,1.317405,0.212953,0.060026,0.028509,0.025913,-0.107587,-0.035056
-0.084402,-0.000944,0.002171,0.096208,-0.040525,0.045516,0.224626,-0.281233,0.157529,0.385148,0.235177,-0.029272,0.024910,-0.248419,-0.191666,0.251073,-0.244234,-0.015708,-0.022268,-0.465590,0.463396,1.213871,1.309598,0.212841,0.057383,0.028154,0.024706,-0.105905,-0.037202
-0.084402,-0.003412,0.002171,0.094708,-0.044245,0.045516,0.220748,-0.283806,0.158951,0.390453,0.252777,-0.034698,0.018642,-0.249767,-0.200593,0.251073,-0.244234,-0.015708,-0.022268,-0.462141,0.459920,1.210060,1.300519,0.211497,0.053855,0.028154,0.024706,-0.103937,-0.040472
-0.082347,-0.005743,0.002463,0.093081,-0.048440,0.045184,0.217038,-0.285866,0.161423,0.396981,0.272136,-0.040234,0.011697,-0.251913,-0.210163,0.250902,-0.243603,-0.014595,-0.022525,-0.459917,0.457717,1.203856,1.290646,0.209647,0.049899,0.027363,0.023413,-0.101825,-0.044441
-0.080549,-0.008004,0.002884,0.091390,-0.052873,0.044036,0.213412,-0.288533,0.164418,0.404122,0.292374,-0.045825,0.004412,-0.254457,-0.220054,0.251901,-0.243324,-0.013598,-0.022373,-0.457295,0.455360,1.196456,1.280375,0.207545,0.045729,0.026783,0.022692,-0.099642,-0.048759
-0.077886,-0.009877,0.002884,0.089492,-0.057702,0.044036,0.210533,-0.288533,0.168142,0.411445,0.313058,-0.050572,-0.003879,-0.257451,-0.229733,0.251901,-0.243324,-0.013598,-0.022373,-0.457295,0.455360,1.185760,1.270156,0.206102,0.041631,0.025098,0.021354,-0.097203,-0.053781
-0.075023,-0.011713,0.003181,0.087387,-0.062647,0.042683,0.207755,-0.290085,0.172046,0.418196,0.333437,-0.055033,-0.012434,-0.260449,-0.239195,0.252919,-0.243259,-0.012678,-0.021600,-0.456283,0.454158,1.174225,1.259760,0.204608,0.037064,0.023237,0.019463,-0.094674,-0.058911
-0.071758,-0.013475,0.003181,0.084869,-0.067822,0.041022,0.205177,-0.290085,0.176309,0.423804,0.353204,-0.058923,-0.021518,-0.263456,-0.248224,0.254162,-0.243259,-0.012678,-0.021600,-0.456283,0.452927,1.161015,1.249011,0.203014,0.031556,0.021021,0.019463,-0.091968,-0.064256
-0.067854,-0.014448,0.002428,0.081921,-0.073251,0.039208,0.202940,-0.291463,0.180789,0.428450,0.371331,-0.062000,-0.030254,-0.266031,-0.256582,0.255214,-0.243246,-0.011244,-0.020210,-0.456718,0.451613,1.147630,1.238127,0.201117,0.025651,0.018483,0.017703,-0.088939,-0.069645
-0.063631,-0.014833,0.001049,0.078758,-0.078808,0.037316,0.200874,-0.293091,0.185379,0.432615,0.388638,-0.064671,-0.038816,-0.268392,-0.264605,0.256136,-0.243593,-0.009901,-0.019421,-0.457608,0.450259,1.134157,1.227174,0.199068,0.019546,0.015783,0.016054,-0.085749,-0.075056
-0.059852,-0.014833,0.001049,0.075655,-0.084027,0.035401,0.199316,-0.293091,0.189581,0.435485,0.402131,-0.066682,-0.046812,-0.269581,-0.270817,0.256136,-0.243593,-0.009901,-0.018200,-0.457608,0.448753,1.121995,1.216979,0.197529,0.013427,0.012531,0.016054,-0.082751,-0.080743
-0.056164,-0.014102,-0.000690,0.072612,-0.088986,0.033595,0.197473,-0.294455,0.193650,0.437835,0.414123,-0.068674,-0.054634,-0.270656,-0.276323,0.256809,-0.243539,-0.009114,-0.016639,-0.459674,0.446836,1.110595,1.207044,0.195688,0.007279,0.009409,0.014154,-0.079842,-0.086297
-0.052654,-0.014102,-0.002944,0.069690,-0.093423,0.032008,0.197473,-0.295731,0.197453,0.437835,0.423110,-0.070628,-0.062109,-0.270656,-0.280416,0.256809,-0.243539,-0.009114,-0.016639,-0.463851,0.446836,1.100719,1.197629,0.195688,0.001074,0.006545,0.014154,-0.077111,-0.091587
-0.050089,-0.012804,-0.005257,0.067192,-0.096775,0.030682,0.195945,-0.296974,0.200330,0.437339,0.428451,-0.072865,-0.068497,-0.270272,-0.282918,0.257200,-0.243373,-0.008239,-0.015336,-0.468548,0.445921,1.093621,1.188836,0.193985,-0.004326,0.004254,0.012268,-0.075020,-0.096073
-0.048128,-0.012059,-0.007601,0.064907,-0.100476,0.029880,0.194523,-0.298200,0.202744,0.436406,0.431968,-0.075245,-0.074341,-0.269606,-0.283896,0.257256,-0.242447,-0.007765,-0.014254,-0.473507,0.445206,1.087911,1.180353,0.192144,-0.009323,0.002250,0.010957,-0.073249,-0.100157
-0.048128,-0.012059,-0.009673,0.063530,-0.100476,0.029880,0.194523,-0.299610,0.202744,0.433953,0.430496,-0.077789,-0.078434,-0.267779,-0.283896,0.255848,-0.242447,-0.007765,-0.014254,-0.476766,0.443842,1.087911,1.175311,0.192144,-0.013579,0.000906,0.009715,-0.073249,-0.103488
-0.048830,-0.011722,-0.011663,0.062204,-0.100948,0.030317,0.193335,-0.301020,0.202186,0.431035,0.427644,-0.080384,-0.082037,-0.265644,-0.282128,0.254139,-0.240779,-0.007011,-0.013727,-0.479680,0.442251,1.088621,1.171101,0.192306,-0.017641,-0.000592,0.008069,-0.073641,-0.106567
-0.050538,-0.011722,-0.013488,0.062204,-0.100948,0.030317,0.193335,-0.302428,0.200842,0.427188,0.422033,-0.083083,-0.084661,-0.262894,-0.279010,0.251827,-0.240779,-0.007011,-0.013727,-0.481903,0.442251,1.092389,1.168556,0.192306,-0.021319,-0.000592,0.008069,-0.073641,-0.109143
-0.052827,-0.012135,-0.015022,0.061795,-0.099436,0.031559,0.192246,-0.303935,0.199141,0.422677,0.413974,-0.085065,-0.086404,-0.259394,-0.274680,0.249438,-0.238874,-0.006279,-0.014063,-0.483409,0.440825,1.096958,1.167707,0.193726,-0.024134,-0.001193,0.006831,-0.074669,-0.110860
-0.055407,-0.012310,-0.016574,0.062078,-0.097796,0.032357,0.191784,-0.306239,0.197261,0.417835,0.404692,-0.087386,-0.087075,-0.255520,-0.269745,0.247009,-0.237541,-0.005874,-0.015202,-0.483756,0.440079,1.101927,1.168102,0.195054,-0.026517,-0.000197,0.006411,-0.075146,-0.112156
-0.057804,-0.012310,-0.016574,0.062078,-0.095327,0.033622,0.191784,-0.306239,0.195498,0.411648,0.393157,-0.087386,-0.087075,-0.251067,-0.263503,0.244700,-0.236209,-0.005874,-0.015202,-0.483756,0.440079,1.107836,1.171123,0.195054,-0.026517,-0.000197,0.006411,-0.075146,-0.112156
-0.060353,-0.013067,-0.016145,0.062963,-0.092757,0.035385,0.192771,-0.307253,0.193549,0.405072,0.381265,-0.088762,-0.086477,-0.246468,-0.257036,0.242409,-0.234900,-0.006279,-0.016713,-0.483338,0.440064,1.114372,1.175184,0.195280,-0.025976,0.000988,0.006163,-0.075823,-0.111292
-0.063208,-0.013067,-0.016145,0.062963,-0.089983,0.035385,0.192771,-0.307253,0.191231,0.397717,0.368661,-0.088762,-0.085280,-0.241578,-0.250120,0.240156,-0.233640,-0.006279,-0.016713,-0.483338,0.441482,1.122160,1.181328,0.195280,-0.024008,0.002177,0.006163,-0.075823,-0.111292
-0.065471,-0.013840,-0.014741,0.063962,-0.087157,0.037029,0.194494,-0.307808,0.189424,0.389913,0.355512,-0.089784,-0.083774,-0.236494,-0.243100,0.238450,-0.232236,-0.006415,-0.018421,-0.484122,0.444050,1.129848,1.189742,0.194234,-0.021964,0.003477,0.006424,-0.076431,-0.109090
-0.067438,-0.013814,-0.013931,0.064450,-0.084306,0.038188,0.195803,-0.308435,0.187872,0.381884,0.342091,-0.089679,-0.082112,-0.231313,-0.236026,0.236426,-0.230284,-0.006652,-0.020108,-0.485827,0.447191,1.137486,1.199290,0.193540,-0.019882,0.005323,0.007120,-0.077340,-0.107091
-0.069275,-0.013814,-0.012526,0.064450,-0.081584,0.038188,0.197406,-0.308435,0.185716,0.373241,0.328023,-0.089679,-0.079264,-0.226029,-0.228760,0.236426,-0.230284,-0.006652,-0.020108,-0.485827,0.451177,1.144198,1.210464,0.193540,-0.016290,0.005323,0.007120,-0.077340,-0.104357
-0.071087,-0.013115,-0.011590,0.065108,-0.078897,0.039034,0.199161,-0.309232,0.183608,0.364646,0.313874,-0.088398,-0.076080,-0.220685,-0.221464,0.236052,-0.228929,-0.006944,-0.021537,-0.487846,0.455192,1.150552,1.221986,0.193170,-0.011992,0.006708,0.008241,-0.078878,-0.101471
-0.072850,-0.013115,-0.011590,0.065108,-0.076277,0.039034,0.199161,-0.310605,0.181596,0.356147,0.299565,-0.088398,-0.072225,-0.215219,-0.214111,0.236052,-0.227769,-0.006944,-0.021537,-0.491022,0.459268,1.156186,1.234203,0.193170,-0.006280,0.008034,0.008241,-0.078878,-0.098278
-0.073620,-0.010899,-0.012066,0.065579,-0.073892,0.039445,0.200386,-0.312121,0.179899,0.347483,0.285329,-0.086560,-0.067778,-0.209831,-0.206855,0.236562,-0.226505,-0.007250,-0.022574,-0.493790,0.462413,1.161502,1.247019,0.193717,-0.000232,0.009420,0.009727,-0.080563,-0.094646
-0.073803,-0.008558,-0.012434,0.065371,-0.071624,0.039945,0.201407,-0.313709,0.177787,0.338736,0.271130,-0.085053,-0.063036,-0.204483,-0.199648,0.237237,-0.224463,-0.008051,-0.022997,-0.496353,0.465092,1.166660,1.260136,0.194321,0.005986,0.010835,0.011554,-0.082394,-0.090793
-0.072445,-0.004663,-0.012434,0.065371,-0.069613,0.039945,0.201407,-0.315519,0.177787,0.329778,0.257054,-0.083158,-0.056944,-0.199645,-0.192856,0.237237,-0.224463,-0.008051,-0.022997,-0.498017,0.468324,1.170286,1.271406,0.194321,0.012737,0.012192,0.011554,-0.082394,-0.086503
-0.070884,-0.000575,-0.013097,0.064298,-0.067630,0.040556,0.202362,-0.317297,0.176284,0.320878,0.243107,-0.080909,-0.050341,-0.194905,-0.186207,0.238153,-0.223384,-0.008889,-0.023408,-0.500113,0.471060,1.173366,1.281851,0.194596,0.019366,0.014058,0.013032,-0.083775,-0.082277
-0.068916,0.003903,-0.013097,0.064298,-0.065706,0.040556,0.202362,-0.319010,0.176284,0.312096,0.229418,-0.077950,-0.042714,-0.190360,-0.179842,0.238153,-0.223384,-0.008889,-0.023408,-0.500113,0.472806,1.175350,1.290645,0.194596,0.025750,0.014058,0.014498,-0.084953,-0.078179
-0.066592,0.008549,-0.014011,0.063067,-0.064177,0.041006,0.203221,-0.320731,0.174448,0.303508,0.216386,-0.075019,-0.034448,-0.186328,-0.174009,0.238948,-0.223032,-0.009773,-0.023400,-0.501099,0.474298,1.177472,1.298129,0.194581,0.031433,0.015687,0.015940,-0.086030,-0.073931
-0.064090,0.013279,-0.014772,0.061537,-0.062846,0.041355,0.203607,-0.322455,0.172153,0.295019,0.203683,-0.072101,-0.025861,-0.182552,-0.168443,0.239103,-0.222766,-0.010727,-0.022891,-0.501380,0.475544,1.179661,1.304956,0.194182,0.036766,0.016356,0.018144,-0.086714,-0.069607
-0.061933,0.017772,-0.014772,0.061537,-0.061623,0.041355,0.203607,-0.323696,0.172153,0.288424,0.192499,-0.069684,-0.017269,-0.179636,-0.163674,0.239103,-0.222766,-0.010727,-0.022891,-0.501380,0.475544,1.181194,1.309876,0.194182,0.041326,0.016356,0.018144,-0.086714,-0.065790
-0.059627,0.022501,-0.015265,0.060165,-0.060019,0.041806,0.203986,-0.325436,0.170719,0.282600,0.181845,-0.067036,-0.008710,-0.177108,-0.159197,0.238583,-0.223212,-0.011644,-0.022485,-0.501115,0.475062,1.181695,1.314246,0.193864,0.045677,0.017425,0.019429,-0.086768,-0.062029
-0.057023,0.027704,-0.015265,0.060165,-0.060019,0.041806,0.203986,-0.325436,0.170719,0.278317,0.172248,-0.063926,-0.000219,-0.175358,-0.155303,0.238583,-0.223212,-0.011644,-0.022485,-0.499334,0.475062,1.181695,1.317519,0.193864,0.049611,0.017425,0.019429,-0.086768,-0.058381
-0.055009,0.032636,-0.015389,0.059317,-0.058290,0.042469,0.203937,-0.327033,0.170222,0.275744,0.163694,-0.061241,0.007527,-0.174139,-0.151938,0.237516,-0.223407,-0.012164,-0.022107,-0.497024,0.473436,1.180842,1.320166,0.194453,0.052446,0.017875,0.020516,-0.086451,-0.055110
-0.053292,0.037432,-0.015389,0.059317,-0.058290,0.042469,0.203937,-0.327033,0.170222,0.274027,0.155660,-0.058770,0.014900,-0.174139,-0.148836,0.237516,-0.223407,-0.012164,-0.022107,-0.494449,0.473436,1.180842,1.322500,0.194453,0.054731,0.017875,0.020516,-0.086451,-0.052027
-0.052505,0.040651,-0.015054,0.059335,-0.056633,0.043506,0.203188,-0.328080,0.169626,0.274476,0.151613,-0.057005,0.020097,-0.173697,-0.147314,0.236025,-0.223793,-0.012308,-0.021590,-0.492804,0.471851,1.179219,1.324439,0.194311,0.056503,0.018367,0.021516,-0.086075,-0.049988
-0.051210,0.043388,-0.014600,0.059842,-0.055541,0.044620,0.202889,-0.328443,0.170501,0.275427,0.148227,-0.055294,0.024625,-0.174449,-0.146391,0.234756,-0.224052,-0.012570,-0.021660,-0.491077,0.470543,1.177689,1.326282,0.193836,0.058302,0.017589,0.021939,-0.085751,-0.048055
-0.051210,0.045163,-0.014600,0.059842,-0.055541,0.044620,0.202889,-0.328443,0.170501,0.276937,0.148227,-0.053691,0.027816,-0.174449,-0.146391,0.233474,-0.224052,-0.012570,-0.021660,-0.489186,0.470543,1.175681,1.327932,0.193836,0.060154,0.017589,0.021939,-0.085751,-0.046337
-0.050023,0.046909,-0.013851,0.060473,-0.054883,0.045502,0.202265,-0.328497,0.171899,0.278713,0.147539,-0.052418,0.029452,-0.175673,-0.146832,0.232208,-0.224009,-0.013014,-0.021965,-0.488873,0.470860,1.173194,1.329254,0.193804,0.061733,0.017061,0.022463,-0.085435,-0.044748
-0.049346,0.049681,-0.013343,0.061197,-0.054284,0.045858,0.201616,-0.328246,0.173594,0.280623,0.147329,-0.051246,0.030025,-0.176665,-0.147182,0.230731,-0.224249,-0.012963,-0.022555,-0.489190,0.471711,1.170467,1.330025,0.193677,0.063971,0.016492,0.022883,-0.084922,-0.042323
-0.049346,0.049681,-0.013343,0.061197,-0.054284,0.045858,0.201616,-0.328246,0.173594,0.282401,0.147329,-0.051246,0.028617,-0.176665,-0.147182,0.230731,-0.224249,-0.012963,-0.022555,-0.490450,0.473313,1.167464,1.330025,0.193677,0.063971,0.016492,0.022883,-0.084922,-0.042323
-0.048777,0.051181,-0.013350,0.061902,-0.053589,0.045870,0.201277,-0.328258,0.174271,0.284367,0.146917,-0.050812,0.026828,-0.177471,-0.147267,0.229431,-0.224119,-0.012979,-0.023427,-0.491798,0.474380,1.164707,1.329705,0.193679,0.065265,0.015865,0.023230,-0.085011,-0.041421
-0.048777,0.051181,-0.013350,0.061902,-0.053589,0.045870,0.201277,-0.328258,0.174271,0.284367,0.146917,-0.050812,0.024279,-0.177471,-0.147267,0.229431,-0.224119,-0.012979,-0.023427,-0.493318,0.474380,1.162445,1.327845,0.193679,0.065265,0.015865,0.023230,-0.085011,-0.041421
-0.049327,0.051640,-0.014502,0.062548,-0.052929,0.045378,0.200608,-0.328161,0.173420,0.286105,0.147403,-0.049996,0.021067,-0.178278,-0.148041,0.227952,-0.223929,-0.013322,-0.024251,-0.494239,0.473185,1.160420,1.325261,0.194117,0.065765,0.015214,0.023426,-0.085220,-0.041511
-0.049795,0.051139,-0.016230,0.063488,-0.052557,0.045193,0.199659,-0.327615,0.171798,0.287061,0.148149,-0.049741,0.017523,-0.179186,-0.148610,0.226566,-0.223554,-0.013359,-0.025192,-0.495177,0.470936,1.158514,1.322316,0.194161,0.065116,0.014901,0.023350,-0.085728,-0.041894
-0.051826,0.048005,-0.016230,0.063488,-0.052557,0.045193,0.199659,-0.327615,0.171798,0.289043,0.152696,-0.049741,0.012746,-0.179186,-0.150822,0.226566,-0.223554,-0.013359,-0.025192,-0.495177,0.467394,1.156141,1.317443,0.194161,0.065116,0.014901,0.023350,-0.085728,-0.043203
-0.053970,0.044031,-0.017069,0.064882,-0.052808,0.045297,0.199160,-0.326552,0.169943,0.291261,0.158752,-0.050227,0.007762,-0.180203,-0.153602,0.225424,-0.223273,-0.013872,-0.026185,-0.495174,0.463944,1.153864,1.311971,0.194318,0.063208,0.014700,0.022811,-0.086022,-0.044930
-0.056342,0.038376,-0.017069,0.064882,-0.052808,0.045297,0.199160,-0.324860,0.169943,0.293951,0.167823,-0.050227,0.002366,-0.181510,-0.157516,0.225424,-0.223273,-0.013872,-0.027418,-0.493592,0.460677,1.151777,1.305299,0.194318,0.060430,0.014700,0.022811,-0.086022,-0.047496
-0.059104,0.031454,-0.016824,0.066511,-0.053932,0.045785,0.199705,-0.322775,0.169089,0.297338,0.179117,-0.051530,-0.003648,-0.183026,-0.162205,0.224566,-0.223738,-0.014204,-0.028717,-0.493064,0.458347,1.149773,1.297514,0.195724,0.057638,0.014370,0.022032,-0.086731,-0.050292
-0.062062,0.023898,-0.016824,0.066511,-0.053932,0.045785,0.199705,-0.320494,0.169089,0.301074,0.191524,-0.051530,-0.009970,-0.184647,-0.167281,0.224566,-0.223738,-0.014204,-0.030049,-0.493064,0.456484,1.147810,1.289174,0.195724,0.054840,0.014370,0.022032,-0.086731,-0.053202
-0.064311,0.016129,-0.015575,0.068317,-0.055990,0.046055,0.201527,-0.317344,0.168985,0.305927,0.206000,-0.054665,-0.016417,-0.186424,-0.172971,0.223640,-0.224585,-0.014786,-0.031352,-0.491247,0.454271,1.148244,1.280562,0.196583,0.051438,0.014385,0.020867,-0.086883,-0.056318
-0.066453,0.008067,-0.013868,0.069784,-0.057483,0.046521,0.203084,-0.314006,0.170080,0.310550,0.220913,-0.057027,-0.022873,-0.188344,-0.178870,0.222055,-0.225973,-0.014969,-0.032875,-0.489392,0.452451,1.149330,1.271703,0.196029,0.047736,0.014393,0.019232,-0.085814,-0.059603
-0.068384,-0.000583,-0.011660,0.069784,-0.059412,0.046521,0.205005,-0.310289,0.170080,0.314716,0.236701,-0.059777,-0.029346,-0.190551,-0.185189,0.222055,-0.225973,-0.014969,-0.032875,-0.489392,0.452451,1.149330,1.262346,0.196029,0.043434,0.014393,0.019232,-0.085814,-0.063226
-0.070320,-0.008484,-0.010467,0.070287,-0.061746,0.045708,0.206042,-0.307474,0.171694,0.319509,0.252748,-0.061965,-0.035929,-0.192536,-0.191827,0.221110,-0.227825,-0.014776,-0.034115,-0.488086,0.451391,1.149358,1.253768,0.194882,0.038591,0.014099,0.017440,-0.084889,-0.067037
-0.072258,-0.016011,-0.010467,0.070287,-0.064282,0.045708,0.206042,-0.305111,0.173218,0.324615,0.268922,-0.063872,-0.042568,-0.194412,-0.198623,0.221110,-0.227825,-0.014776,-0.034115,-0.488086,0.451391,1.149358,1.245579,0.194882,0.033477,0.014099,0.017440,-0.084889,-0.070941
-0.074078,-0.022219,-0.010703,0.069972,-0.066894,0.044399,0.205807,-0.304116,0.175147,0.329866,0.284083,-0.065320,-0.049462,-0.196586,-0.205094,0.221068,-0.229639,-0.014095,-0.035042,-0.488448,0.450238,1.146585,1.238916,0.194418,0.028521,0.013781,0.015705,-0.083990,-0.074711
-0.075747,-0.028038,-0.011991,0.068960,-0.069561,0.043301,0.204446,-0.302451,0.177013,0.334943,0.298657,-0.066663,-0.055930,-0.198788,-0.211456,0.222486,-0.231387,-0.013695,-0.035382,-0.489767,0.449401,1.144098,1.232257,0.194825,0.023717,0.013179,0.014403,-0.083457,-0.078544
-0.077115,-0.033076,-0.013768,0.068960,-0.072335,0.041896,0.204446,-0.302451,0.178752,0.339674,0.312059,-0.066663,-0.061547,-0.201046,-0.217600,0.222486,-0.231387,-0.013695,-0.035382,-0.491130,0.449401,1.140933,1.225609,0.194825,0.019216,0.013179,0.014403,-0.083457,-0.082502
-0.078411,-0.036426,-0.016371,0.067706,-0.074610,0.040497,0.202136,-0.302214,0.180863,0.344724,0.323387,-0.066909,-0.066173,-0.203251,-0.222912,0.224684,-0.232593,-0.013478,-0.035852,-0.492574,0.447826,1.137448,1.219602,0.195997,0.014967,0.012379,0.013962,-0.083323,-0.086313
-0.079672,-0.038931,-0.019387,0.067706,-0.076635,0.040497,0.199764,-0.302214,0.183160,0.349935,0.333678,-0.066909,-0.070303,-0.205430,-0.227808,0.226453,-0.232593,-0.013478,-0.035852,-0.494057,0.446064,1.133802,1.213916,0.197422,0.010844,0.012379,0.013962,-0.083323,-0.090052
-0.081465,-0.040421,-0.021397,0.066808,-0.077906,0.039088,0.197432,-0.303235,0.184492,0.354868,0.340231,-0.066348,-0.072623,-0.207423,-0.231152,0.227863,-0.233270,-0.013121,-0.036185,-0.494616,0.444515,1.130488,1.209044,0.198281,0.007442,0.011951,0.013623,-0.082746,-0.093032
-0.083265,-0.041414,-0.023525,0.066453,-0.079171,0.038609,0.195139,-0.304321,0.186054,0.359557,0.345467,-0.065920,-0.074169,-0.209320,-0.233962,0.229640,-0.234112,-0.012877,-0.036523,-0.495176,0.443006,1.127695,1.204626,0.199557,0.004111,0.011315,0.013267,-0.082533,-0.095654
-0.085075,-0.041414,-0.023525,0.066453,-0.079171,0.038609,0.192925,-0.305820,0.186054,0.363756,0.348073,-0.065920,-0.074169,-0.211024,-0.235702,0.229640,-0.234112,-0.012877,-0.036523,-0.495176,0.443006,1.125941,1.201117,0.199557,0.000923,0.011315,0.013267,-0.082533,-0.097563
-0.086784,-0.040425,-0.024622,0.066512,-0.079529,0.039628,0.190966,-0.307701,0.187091,0.366909,0.348017,-0.066609,-0.074087,-0.212099,-0.236282,0.230967,-0.235092,-0.012960,-0.036620,-0.496570,0.443371,1.125302,1.199039,0.200759,-0.001826,0.010548,0.013159,-0.082457,-0.099067
-0.088441,-0.038632,-0.024441,0.066631,-0.079081,0.041236,0.189134,-0.309773,0.186946,0.369906,0.347092,-0.068162,-0.073458,-0.212605,-0.235605,0.231457,-0.235550,-0.013052,-0.036686,-0.497540,0.444212,1.126089,1.198131,0.201601,-0.005160,0.010286,0.012689,-0.082258,-0.100818
-0.090212,-0.038632,-0.024441,0.066631,-0.079081,0.041236,0.187730,-0.312016,0.186946,0.369906,0.343641,-0.068162,-0.071910,-0.212605,-0.235605,0.231457,-0.235550,-0.013052,-0.036686,-0.497540,0.445763,1.126089,1.200836,0.201601,-0.005160,0.010286,0.012689,-0.082258,-0.100818
-0.092007,-0.036906,-0.023448,0.066494,-0.078410,0.043087,0.185967,-0.314079,0.185796,0.369555,0.339847,-0.069842,-0.070276,-0.211157,-0.234230,0.230697,-0.235621,-0.013143,-0.036510,-0.497202,0.447700,1.127558,1.204568,0.201072,-0.005121,0.010145,0.012259,-0.082086,-0.100498
-0.092007,-0.036906,-0.021941,0.066494,-0.078410,0.043087,0.185967,-0.315783,0.185796,0.367408,0.335368,-0.069842,-0.068471,-0.211157,-0.232638,0.230697,-0.235621,-0.013143,-0.036510,-0.497202,0.450408,1.129441,1.210351,0.201072,-0.005121,0.010145,0.012259,-0.082086,-0.100498
-0.093215,-0.035611,-0.020118,0.065426,-0.078126,0.044898,0.184378,-0.317271,0.184209,0.364577,0.330898,-0.071341,-0.066813,-0.208892,-0.230754,0.229498,-0.234604,-0.013209,-0.036199,-0.496869,0.454174,1.131485,1.218057,0.199906,-0.002388,0.010080,0.012222,-0.082359,-0.098366
-0.094395,-0.034529,-0.017266,0.064086,-0.077956,0.046274,0.182731,-0.318652,0.182829,0.361404,0.326433,-0.072155,-0.065228,-0.206974,-0.228724,0.228803,-0.234203,-0.013125,-0.035928,-0.497098,0.458470,1.133608,1.226725,0.199290,0.000449,0.009904,0.012863,-0.082750,-0.096321
-0.094395,-0.034529,-0.017266,0.064086,-0.077956,0.046274,0.182731,-0.320064,0.182829,0.358542,0.321753,-0.072155,-0.063889,-0.205177,-0.226765,0.228803,-0.232992,-0.013125,-0.035928,-0.498348,0.463644,1.134849,1.236993,0.199290,0.003821,0.009904,0.012863,-0.082750,-0.093715
-0.095224,-0.033212,-0.016087,0.063020,-0.077093,0.047256,0.181375,-0.321597,0.182607,0.355833,0.316818,-0.071909,-0.062490,-0.203519,-0.224748,0.228827,-0.231697,-0.012821,-0.035678,-0.499890,0.468672,1.135963,1.247184,0.198871,0.007299,0.009823,0.014095,-0.082730,-0.090922
-0.095224,-0.031289,-0.016087,0.063020,-0.077093,0.047256,0.179961,-0.323371,0.182607,0.353431,0.311370,-0.071909,-0.060968,-0.202138,-0.222617,0.228827,-0.230235,-0.012821,-0.035678,-0.502014,0.473410,1.135963,1.257218,0.198871,0.010987,0.009823,0.014095,-0.082730,-0.087753
-0.096274,-0.029266,-0.015779,0.062582,-0.076083,0.048472,0.178409,-0.325570,0.183033,0.351689,0.305653,-0.071513,-0.058921,-0.200822,-0.220312,0.229610,-0.228821,-0.012904,-0.035369,-0.504389,0.477453,1.136958,1.266350,0.198079,0.014877,0.009972,0.015720,-0.082665,-0.084479
-0.097082,-0.027192,-0.016331,0.061979,-0.074902,0.049803,0.176787,-0.327981,0.183498,0.350277,0.299801,-0.071019,-0.056611,-0.199329,-0.217919,0.230519,-0.226520,-0.012884,-0.035168,-0.506888,0.481148,1.137667,1.275030,0.197500,0.018868,0.010198,0.017160,-0.082917,-0.081153
-0.098574,-0.025133,-0.016331,0.061979,-0.074902,0.049803,0.174844,-0.330283,0.183498,0.350277,0.294306,-0.071019,-0.053506,-0.199329,-0.215715,0.230519,-0.226520,-0.012884,-0.035168,-0.508435,0.484054,1.137667,1.281541,0.197500,0.022712,0.010198,0.017160,-0.082917,-0.078172
-0.100469,-0.023179,-0.016576,0.061659,-0.073816,0.050984,0.173113,-0.332443,0.184147,0.350086,0.289233,-0.069680,-0.050218,-0.198692,-0.213706,0.231682,-0.225317,-0.012738,-0.034903,-0.510405,0.486579,1.138350,1.287264,0.197331,0.026471,0.010302,0.018118,-0.083787,-0.075061
-0.100469,-0.021436,-0.016576,0.061659,-0.073816,0.050984,0.171808,-0.334316,0.184147,0.350086,0.285006,-0.069680,-0.046564,-0.198692,-0.212087,0.231682,-0.225317,-0.012738,-0.034903,-0.510405,0.488340,1.138350,1.291412,0.197331,0.030062,0.010302,0.018118,-0.083787,-0.071689
-0.102038,-0.020072,-0.017014,0.061417,-0.073359,0.052045,0.170547,-0.335781,0.184545,0.350128,0.281730,-0.068061,-0.043036,-0.198406,-0.210603,0.233161,-0.225024,-0.012509,-0.034522,-0.511679,0.489735,1.138093,1.294678,0.196626,0.033554,0.010693,0.018504,-0.084392,-0.068318
-0.103270,-0.019289,-0.016260,0.060841,-0.073081,0.052755,0.169687,-0.337040,0.184556,0.349148,0.278931,-0.067140,-0.039573,-0.197633,-0.208952,0.233910,-0.226045,-0.012363,-0.034078,-0.512014,0.490947,1.137109,1.297503,0.195369,0.036996,0.010364,0.019389,-0.084990,-0.064947
-0.103270,-0.019289,-0.016260,0.060841,-0.073081,0.052755,0.169687,-0.337040,0.184556,0.349148,0.277379,-0.065837,-0.036764,-0.197633,-0.208952,0.235245,-0.226045,-0.012363,-0.034078,-0.512014,0.492274,1.137109,1.299715,0.195369,0.039311,0.010364,0.019389,-0.084990,-0.062553
-0.103834,-0.020308,-0.015157,0.059828,-0.073140,0.052689,0.170014,-0.337176,0.183836,0.347695,0.275879,-0.064298,-0.034224,-0.196720,-0.208246,0.236745,-0.227207,-0.011937,-0.033541,-0.512260,0.493158,1.136039,1.301690,0.194954,0.041278,0.010005,0.020056,-0.085281,-0.060295
-0.103834,-0.020308,-0.015157,0.059828,-0.073140,0.052689,0.170014,-0.337176,0.183836,0.345806,0.275879,-0.062291,-0.032222,-0.196720,-0.208246,0.238576,-0.227207,-0.011937,-0.033541,-0.512260,0.493158,1.134734,1.303190,0.194954,0.042554,0.010005,0.020056,-0.085281,-0.058307
-0.102961,-0.021692,-0.013675,0.058786,-0.074364,0.052078,0.171180,-0.336332,0.182754,0.343288,0.275855,-0.060498,-0.030845,-0.195378,-0.208138,0.240593,-0.228704,-0.011604,-0.032951,-0.511785,0.494739,1.133333,1.304661,0.195315,0.043890,0.009725,0.020758,-0.085537,-0.056394
-0.101752,-0.023039,-0.012218,0.057506,-0.075847,0.051216,0.171986,-0.335331,0.181427,0.340458,0.276297,-0.058814,-0.030247,-0.193215,-0.208767,0.242701,-0.229548,-0.011387,-0.032284,-0.512727,0.496616,1.132367,1.305765,0.195644,0.045336,0.009327,0.021316,-0.085864,-0.053575
-0.101752,-0.024766,-0.012218,0.057506,-0.075847,0.051216,0.173159,-0.335331,0.181427,0.337158,0.277815,-0.057015,-0.030247,-0.193215,-0.208767,0.245525,-0.230886,-0.011387,-0.032284,-0.512727,0.496616,1.130081,1.305765,0.195644,0.045336,0.009327,0.021316,-0.085864,-0.053575
-0.100388,-0.026660,-0.011247,0.055839,-0.077233,0.049980,0.174809,-0.334541,0.180368,0.333830,0.279684,-0.055102,-0.030818,-0.191351,-0.210308,0.248385,-0.232237,-0.011203,-0.031429,-0.513310,0.497501,1.127739,1.305328,0.196650,0.045765,0.009042,0.021518,-0.085927,-0.052630
-0.100388,-0.028890,-0.011247,0.055839,-0.078735,0.049980,0.174809,-0.334541,0.179203,0.330447,0.282252,-0.052959,-0.030818,-0.191351,-0.210308,0.251317,-0.233614,-0.011203,-0.031429,-0.513310,0.497501,1.125282,1.303615,0.196650,0.045765,0.009042,0.021518,-0.085927,-0.052630
-0.098757,-0.031025,-0.010299,0.054010,-0.080414,0.048246,0.176418,-0.333796,0.177857,0.327110,0.285473,-0.051087,-0.032054,-0.189441,-0.212525,0.253928,-0.235060,-0.010648,-0.030518,-0.511737,0.497107,1.123513,1.301138,0.197294,0.044871,0.009271,0.022268,-0.085637,-0.053289
-0.097766,-0.033111,-0.009779,0.052697,-0.082182,0.047262,0.177158,-0.333410,0.176197,0.323797,0.289019,-0.049349,-0.032832,-0.187640,-0.214360,0.256379,-0.237484,-0.010249,-0.029488,-0.509109,0.496675,1.121863,1.298278,0.196609,0.044083,0.009368,0.022500,-0.085039,-0.054012
-0.096309,-0.034582,-0.009779,0.051158,-0.084196,0.045811,0.177158,-0.333410,0.176197,0.320820,0.292858,-0.048058,-0.034062,-0.187640,-0.216728,0.258665,-0.237484,-0.010249,-0.029488,-0.509109,0.495375,1.121863,1.294043,0.196609,0.041798,0.009368,0.022500,-0.085039,-0.055695
-0.094577,-0.036062,-0.009943,0.049610,-0.086218,0.044299,0.177362,-0.333800,0.174703,0.318164,0.296901,-0.046738,-0.035454,-0.186435,-0.219199,0.260812,-0.239169,-0.010054,-0.028496,-0.507668,0.493863,1.120744,1.289614,0.195442,0.039738,0.009444,0.022739,-0.083946,-0.057522
-0.094577,-0.037563,-0.009943,0.048045,-0.088256,0.042667,0.177362,-0.333800,0.174703,0.316152,0.301354,-0.045359,-0.037168,-0.186435,-0.221874,0.262680,-0.239169,-0.010054,-0.028496,-0.507668,0.493863,1.119485,1.284797,0.195442,0.038131,0.009444,0.022739,-0.083946,-0.059636
-0.093831,-0.039118,-0.010885,0.046466,-0.090426,0.040783,0.175938,-0.334954,0.173046,0.315481,0.306566,-0.043706,-0.039004,-0.186086,-0.225177,0.264080,-0.239911,-0.009834,-0.027599,-0.506382,0.492168,1.118235,1.280184,0.193822,0.036632,0.009911,0.022382,-0.082415,-0.061883
-0.094410,-0.040700,-0.011793,0.044880,-0.092663,0.038771,0.174406,-0.336459,0.171745,0.315579,0.312157,-0.041917,-0.040902,-0.186574,-0.228795,0.264557,-0.239280,-0.009565,-0.026637,-0.505493,0.490594,1.116990,1.275673,0.192443,0.035188,0.010544,0.021568,-0.080766,-0.064195
-0.094410,-0.042877,-0.011793,0.043295,-0.095243,0.036167,0.172499,-0.336459,0.170141,0.317549,0.319786,-0.039555,-0.042787,-0.188145,-0.233516,0.264557,-0.239280,-0.009565,-0.026637,-0.505493,0.488401,1.115308,1.271395,0.189622,0.032723,0.010544,0.021568,-0.080766,-0.066346
-0.095485,-0.045570,-0.011995,0.041651,-0.098075,0.033319,0.170627,-0.337134,0.168383,0.320214,0.328548,-0.036953,-0.044595,-0.190142,-0.238894,0.263512,-0.237945,-0.008933,-0.026181,-0.505164,0.486222,1.113614,1.267241,0.186430,0.030175,0.010873,0.020969,-0.079316,-0.068385
-0.097016,-0.049296,-0.011995,0.039887,-0.101410,0.029984,0.168826,-0.337134,0.166318,0.324267,0.339574,-0.033870,-0.046246,-0.192991,-0.245588,0.261281,-0.236147,-0.008933,-0.026181,-0.505164,0.484073,1.111893,1.263335,0.182497,0.027458,0.010873,0.020969,-0.077489,-0.070202
-0.099221,-0.053826,-0.010119,0.038279,-0.105181,0.026338,0.166630,-0.337411,0.164269,0.331152,0.353827,-0.029534,-0.047632,-0.197633,-0.253561,0.257485,-0.233423,-0.008506,-0.024825,-0.501499,0.481170,1.108964,1.260277,0.178828,0.025683,0.010907,0.020821,-0.075644,-0.071728
-0.101765,-0.058759,-0.007812,0.036080,-0.109169,0.022537,0.164236,-0.336246,0.161308,0.339453,0.369694,-0.024571,-0.049266,-0.203172,-0.262172,0.252906,-0.230235,-0.008310,-0.023801,-0.496587,0.477889,1.105432,1.257644,0.175290,0.023527,0.010520,0.020135,-0.073120,-0.074016
-0.106724,-0.064721,-0.004382,0.036080,-0.113267,0.018508,0.161092,-0.336246,0.161308,0.355391,0.389973,-0.018960,-0.049266,-0.212226,-0.273094,0.247276,-0.226198,-0.008310,-0.023801,-0.492249,0.476580,1.101821,1.255070,0.169229,0.023527,0.009220,0.020135,-0.073120,-0.074016
-0.112049,-0.070336,-0.000591,0.035412,-0.117428,0.014383,0.157623,-0.334412,0.160886,0.374049,0.411675,-0.013188,-0.050064,-0.222486,-0.284737,0.241351,-0.221986,-0.008299,-0.023135,-0.487250,0.475294,1.098086,1.251992,0.161518,0.022168,0.007765,0.019829,-0.072891,-0.075336
-0.118104,-0.075259,0.003923,0.035412,-0.121713,0.010065,0.153508,-0.334412,0.162381,0.398147,0.436224,-0.007096,-0.050064,-0.235161,-0.297826,0.234836,-0.217425,-0.008299,-0.023135,-0.480928,0.474050,1.094106,1.247906,0.150508,0.020645,0.006002,0.019829,-0.072891,-0.076578
-0.125140,-0.079998,0.009599,0.035472,-0.126150,0.006314,0.148591,-0.332912,0.164791,0.427087,0.464062,-0.000334,-0.047790,-0.250291,-0.312757,0.227833,-0.212879,-0.007938,-0.022821,-0.469230,0.471440,1.091746,1.242841,0.129667,0.017965,0.003945,0.019488,-0.074989,-0.078098
-0.132665,-0.084645,0.015857,0.035845,-0.130663,0.002846,0.143273,-0.332360,0.167659,0.458448,0.493543,0.006764,-0.045106,-0.266647,-0.328608,0.220585,-0.208342,-0.007717,-0.022461,-0.454846,0.468146,1.089363,1.237287,0.103912,0.014707,0.001741,0.018336,-0.077472,-0.079756
-0.139911,-0.088200,0.023560,0.037085,-0.134816,0.000630,0.138214,-0.332360,0.171405,0.492088,0.524099,0.014592,-0.039913,-0.283083,-0.344128,0.213604,-0.204430,-0.007717,-0.022461,-0.434836,0.463888,1.089363,1.229324,0.050300,0.009350,-0.000864,0.018336,-0.079908,-0.082369
-0.146931,-0.091520,0.031409,0.039073,-0.138119,-0.000106,0.133147,-0.332492,0.175290,0.526285,0.553874,0.023005,-0.033811,-0.299724,-0.359349,0.207426,-0.200766,-0.008215,-0.022591,-0.413016,0.458671,1.086154,1.220754,-0.002230,0.003951,-0.002601,0.017232,-0.081977,-0.085058
-0.153498,-0.091520,0.039548,0.042556,-0.139723,-0.000106,0.128062,-0.332492,0.179454,0.561593,0.582089,0.032590,-0.025891,-0.316773,-0.373973,0.202857,-0.197599,-0.008215,-0.022591,-0.387577,0.451535,1.079026,1.210970,-0.052594,-0.001527,-0.002601,0.015930,-0.083314,-0.087900
-0.161679,-0.093664,0.051369,0.047991,-0.139054,0.004049,0.122909,-0.333837,0.181053,0.597144,0.607677,0.049477,-0.015260,-0.333834,-0.387176,0.198615,-0.194498,-0.009853,-0.023471,-0.344563,0.439278,1.047929,1.201922,-0.078324,-0.005941,0.003036,0.014469,-0.084756,-0.090518
-0.170668,-0.095454,0.065031,0.054401,-0.137248,0.009168,0.117723,-0.334823,0.181264,0.632820,0.631952,0.070015,-0.003273,-0.350902,-0.399668,0.194537,-0.191430,-0.011188,-0.024370,-0.292760,0.424460,1.004846,1.193241,-0.091738,-0.009823,0.010759,0.012928,-0.086252,-0.093024
-0.186819,-0.104315,0.078029,0.062913,-0.134237,0.015260,0.114699,-0.334823,0.177387,0.670781,0.656395,0.119583,0.007634,-0.367677,-0.412020,0.191631,-0.189100,-0.012750,-0.026278,-0.233840,0.408300,0.872366,1.188565,-0.129750,-0.007069,0.025874,0.010736,-0.027021,-0.096803
-0.202221,-0.114547,0.091717,0.070982,-0.131610,0.021167,0.113917,-0.333547,0.171759,0.703168,0.678039,0.166234,0.018528,-0.381984,-0.422359,0.186258,-0.187747,-0.014437,-0.028312,-0.172978,0.391392,0.724268,1.184786,-0.180044,-0.004209,0.034407,0.009719,0.052149,-0.100495
-0.216121,-0.127517,0.106784,0.078166,-0.129753,0.026703,0.117619,-0.330300,0.162629,0.724404,0.694082,0.207050,0.029396,-0.391352,-0.428671,0.175951,-0.187747,-0.014437,-0.028312,-0.108234,0.372990,0.544940,1.182801,-0.254900,-0.001136,0.029777,0.011054,0.171191,-0.104016
-0.223982,-0.140483,0.125775,0.083799,-0.128077,0.031922,0.127396,-0.322530,0.150607,0.730691,0.701480,0.225873,0.041614,-0.394991,-0.429575,0.165086,-0.190337,-0.015500,-0.029176,-0.035623,0.355654,0.366661,1.180884,-0.276305,-0.000574,0.021277,0.014106,0.272782,-0.106263
-0.228822,-0.153447,0.146728,0.088655,-0.126492,0.036982,0.140210,-0.312498,0.137138,0.730691,0.704556,0.233701,0.054506,-0.394991,-0.427774,0.153942,-0.193923,-0.015500,-0.029176,0.040924,0.338851,0.188904,1.179001,-0.270986,-0.000574,0.010841,0.018017,0.365649,-0.107874
-0.223861,-0.161279,0.166549,0.089406,-0.124278,0.042280,0.156862,-0.299137,0.123097,0.707786,0.691325,0.191946,0.065296,-0.386649,-0.417267,0.159776,-0.199001,-0.015916,-0.028898,0.119799,0.327005,0.038508,1.178582,-0.224724,-0.002266,-0.000567,0.021532,0.439133,-0.107143
-0.217831,-0.167640,0.184788,0.089443,-0.121207,0.048130,0.172861,-0.286275,0.108145,0.681609,0.673416,0.133981,0.075304,-0.375829,-0.404548,0.175496,-0.203942,-0.015271,-0.028519,0.198436,0.315997,-0.095332,1.178163,-0.178085,-0.003979,-0.011799,0.024618,0.508362,-0.106412
-0.209662,-0.171058,0.199861,0.089443,-0.116423,0.055083,0.187556,-0.274409,0.091370,0.647303,0.646153,0.043588,0.083751,-0.361085,-0.387401,0.210990,-0.208608,-0.015271,-0.028519,0.276605,0.306663,-0.196070,1.178163,-0.130691,-0.006659,-0.022679,0.026846,0.569091,-0.106412
-0.202000,-0.173993,0.213009,0.088729,-0.109960,0.060100,0.201753,-0.263103,0.073303,0.610169,0.614027,-0.071600,0.091630,-0.344907,-0.368305,0.264642,-0.211100,-0.015420,-0.028841,0.348040,0.297599,-0.253062,1.176453,-0.071364,-0.010137,-0.029248,0.029059,0.618594,-0.105910
-0.194592,-0.176687,0.225195,0.088791,-0.102655,0.064313,0.215703,-0.252077,0.054588,0.571621,0.579470,-0.199190,0.099225,-0.328011,-0.348234,0.327374,-0.212038,-0.015843,-0.029760,0.416108,0.288670,-0.288183,1.173179,-0.006068,-0.014016,-0.033663,0.032134,0.662484,-0.105791
-0.188194,-0.180138,0.231969,0.088791,-0.094953,0.064313,0.231218,-0.240577,0.038505,0.534411,0.545019,-0.345610,0.102693,-0.311811,-0.328951,0.411023,-0.210683,-0.017227,-0.029760,0.449443,0.282655,-0.264417,1.168488,0.074240,-0.016589,-0.035496,0.032134,0.703664,-0.105791
-0.182052,-0.183335,0.235739,0.089751,-0.087285,0.064132,0.246381,-0.229434,0.024347,0.499451,0.512056,-0.491522,0.104563,-0.296635,-0.310272,0.496123,-0.208860,-0.018723,-0.030517,0.468169,0.277072,-0.228618,1.163723,0.152983,-0.018998,-0.037582,0.033199,0.747494,-0.105317
-0.176420,-0.186022,0.233502,0.091368,-0.079688,0.064132,0.260841,-0.219002,0.014036,0.468986,0.482069,-0.636426,0.103238,-0.283507,-0.292802,0.584135,-0.208860,-0.020445,-0.030517,0.457677,0.272353,-0.168752,1.158811,0.228600,-0.021080,-0.040176,0.033199,0.796626,-0.105317
-0.170515,-0.186382,0.226636,0.094007,-0.071731,0.065672,0.274919,-0.209273,0.007399,0.443067,0.453253,-0.772638,0.099891,-0.272802,-0.275623,0.663780,-0.208843,-0.021865,-0.030889,0.422258,0.267232,-0.091259,1.154045,0.301517,-0.024250,-0.044772,0.034428,0.849811,-0.104546
-0.164474,-0.186382,0.217455,0.097157,-0.063595,0.068499,0.288807,-0.199895,0.002597,0.419422,0.425024,-0.904501,0.095532,-0.263309,-0.258589,0.739240,-0.210198,-0.021865,-0.030889,0.374376,0.261911,-0.004953,1.149353,0.373080,-0.027965,-0.050371,0.035979,0.905020,-0.104546
-0.158566,-0.181322,0.203606,0.102364,-0.054974,0.077190,0.301286,-0.192181,-0.000379,0.404951,0.398786,-0.997835,0.091857,-0.258563,-0.243792,0.788400,-0.214780,-0.024046,-0.030490,0.314565,0.253827,0.080853,1.145834,0.424548,-0.031297,-0.054961,0.037306,0.944697,-0.105474
-0.152688,-0.175021,0.188917,0.108265,-0.046088,0.087830,0.313115,-0.185334,-0.003083,0.393030,0.371868,-1.083150,0.088985,-0.254497,-0.228819,0.832302,-0.220295,-0.025390,-0.029431,0.249550,0.244146,0.171145,1.141559,0.468265,-0.034620,-0.058909,0.039000,0.977139,-0.106638
-0.146870,-0.165170,0.172549,0.115549,-0.036672,0.102369,0.323641,-0.180220,-0.005244,0.386206,0.343587,-1.152433,0.088985,-0.254497,-0.213496,0.865692,-0.227676,-0.026751,-0.029431,0.174124,0.231270,0.270412,1.135769,0.496480,-0.037926,-0.061570,0.039000,0.995117,-0.107916
-0.141933,-0.153225,0.156591,0.124064,-0.027242,0.120329,0.333449,-0.175247,-0.007313,0.386407,0.316098,-1.207689,0.090969,-0.255821,-0.198766,0.890413,-0.236913,-0.027204,-0.027631,0.091213,0.216576,0.374377,1.128885,0.511431,-0.040420,-0.061561,0.040523,0.999701,-0.109624
-0.137436,-0.140234,0.140837,0.133194,-0.017806,0.140001,0.342900,-0.170344,-0.009335,0.390121,0.289006,-1.255933,0.094577,-0.259160,-0.184334,0.910802,-0.247079,-0.027979,-0.025049,0.004558,0.200972,0.480695,1.121454,0.519749,-0.042509,-0.060219,0.040403,0.997588,-0.111545
-0.135520,-0.123685,0.126857,0.146165,-0.006441,0.162354,0.349667,-0.165700,-0.011096,0.406860,0.262290,-1.297783,0.102795,-0.269561,-0.170911,0.919014,-0.258437,-0.027979,-0.025049,-0.091595,0.183794,0.593757,1.111413,0.499160,-0.037527,-0.045556,0.040403,0.927961,-0.113563
-0.133131,-0.108101,0.113018,0.160060,0.005275,0.185451,0.356201,-0.160096,-0.011792,0.425841,0.240314,-1.328394,0.110475,-0.281363,-0.160186,0.926011,-0.270561,-0.029473,-0.023984,-0.180558,0.166958,0.696469,1.101875,0.470943,-0.026904,-0.024046,0.038767,0.817809,-0.111912
-0.129799,-0.094448,0.099460,0.175800,0.017692,0.210036,0.362270,-0.152575,-0.011792,0.449308,0.227816,-1.336526,0.117079,-0.295965,-0.154855,0.930578,-0.284213,-0.031102,-0.023984,-0.255138,0.150807,0.778473,1.093344,0.427472,-0.005000,0.011157,0.036368,0.626614,-0.102921
-0.124593,-0.079570,0.081881,0.193757,0.031693,0.237418,0.366129,-0.144802,-0.006784,0.476924,0.220877,-1.326206,0.122018,-0.313267,-0.153203,0.936688,-0.301248,-0.033462,-0.024610,-0.329182,0.137265,0.846758,1.083382,0.386989,0.021961,0.038518,0.036276,0.432098,-0.087869
-0.118450,-0.064079,0.062291,0.212825,0.046486,0.266201,0.368883,-0.136903,0.000010,0.506616,0.216718,-1.306660,0.126125,-0.331920,-0.153328,0.943570,-0.319976,-0.036187,-0.025798,-0.402961,0.124174,0.908185,1.072704,0.347999,0.051451,0.061960,0.037821,0.235915,-0.069787
-0.111260,-0.047680,0.032721,0.235425,0.064004,0.299204,0.366721,-0.130771,0.017346,0.541632,0.220497,-1.258090,0.123767,-0.351927,-0.156740,0.955402,-0.344598,-0.039587,-0.028441,-0.479778,0.124174,0.937582,1.059073,0.311099,0.072729,0.069292,0.037821,0.114512,-0.056624
-0.105543,-0.031599,0.001791,0.259244,0.082422,0.330759,0.362344,-0.126130,0.035703,0.578565,0.225680,-1.208458,0.120813,-0.371719,-0.160985,0.964898,-0.368125,-0.043041,-0.031126,-0.551188,0.126643,0.961136,1.044552,0.282518,0.090202,0.073759,0.038199,0.013647,-0.045879
-0.102773,-0.016154,-0.031861,0.285503,0.102638,0.359417,0.353539,-0.124472,0.056103,0.619331,0.233670,-1.156701,0.116668,-0.391081,-0.166895,0.969724,-0.389463,-0.046603,-0.033898,-0.611788,0.136607,0.973001,1.028248,0.270571,0.100067,0.073759,0.038199,-0.046147,-0.039966
-0.099522,0.001611,-0.062921,0.313490,0.124199,0.381691,0.341483,-0.126033,0.080699,0.660511,0.241965,-1.117381,0.112810,-0.410237,-0.173556,0.962325,-0.405919,-0.051117,-0.037288,-0.653203,0.152939,0.984205,1.011911,0.269232,0.107018,0.071929,0.036828,-0.084790,-0.036380
-0.096030,0.020536,-0.092686,0.342342,0.146432,0.400773,0.327803,-0.129203,0.107395,0.701899,0.250413,-1.084280,0.109096,-0.429290,-0.180593,0.948813,-0.419934,-0.056108,-0.040986,-0.685920,0.172453,0.995078,0.995556,0.273196,0.112513,0.069814,0.035462,-0.112857,-0.033956
-0.092813,0.040745,-0.110599,0.370276,0.168279,0.408958,0.312081,-0.133690,0.136392,0.741285,0.256993,-1.070612,0.107091,-0.447042,-0.188362,0.914218,-0.429204,-0.062443,-0.044999,-0.685920,0.201221,1.006999,0.981826,0.273196,0.121911,0.072008,0.035462,-0.118337,-0.029934
-0.091435,0.058091,-0.121210,0.395757,0.188112,0.415004,0.297370,-0.137760,0.162361,0.777656,0.263903,-1.062357,0.104641,-0.462528,-0.195771,0.876443,-0.439793,-0.068502,-0.048690,-0.683165,0.235413,1.016923,0.973011,0.275216,0.134581,0.074681,0.036351,-0.121353,-0.022847
-0.091435,0.069711,-0.117215,0.416330,0.203916,0.416769,0.284681,-0.140995,0.182270,0.807993,0.271475,-1.064932,0.101304,-0.473481,-0.202459,0.832312,-0.453020,-0.074008,-0.051736,-0.672216,0.280452,1.022855,0.973011,0.279535,0.153796,0.078311,0.039932,-0.119444,-0.009629
-0.096439,0.071870,-0.105650,0.428480,0.212249,0.416909,0.275908,-0.144426,0.192548,0.829476,0.281904,-1.073201,0.089790,-0.479929,-0.208220,0.792821,-0.472088,-0.076790,-0.052905,-0.674015,0.328182,1.027852,0.976888,0.289533,0.168472,0.081314,0.051336,-0.119319,0.014965
-0.102795,0.069298,-0.090301,0.436417,0.216846,0.416460,0.269811,-0.147954,0.198011,0.846532,0.293761,-1.084318,0.074188,-0.484125,-0.213517,0.755650,-0.494077,-0.078210,-0.053058,-0.682188,0.377257,1.032380,0.982195,0.302370,0.180879,0.084004,0.066652,-0.119830,0.045247
-0.106334,0.061166,-0.076905,0.428518,0.209287,0.407753,0.269811,-0.149876,0.195675,0.843496,0.301725,-1.095318,0.043219,-0.480911,-0.215095,0.735787,-0.519271,-0.074343,-0.050417,-0.702951,0.399045,1.035504,0.964185,0.326692,0.045211,0.087202,0.139651,-0.119830,0.155879
-0.109675,0.053132,-0.066940,0.416543,0.199154,0.395513,0.271943,-0.151371,0.191210,0.834627,0.305819,-1.102116,0.010126,-0.475553,-0.214653,0.723789,-0.544233,-0.070060,-0.047271,-0.721364,0.409009,1.034666,0.928712,0.343855,-0.120501,0.089334,0.197054,-0.114865,0.270613
-0.109675,0.045293,-0.063835,0.396418,0.183873,0.376207,0.276186,-0.151371,0.182490,0.814089,0.302172,-1.102116,-0.027215,-0.465908,-0.210172,0.727522,-0.568734,-0.064944,-0.043115,-0.735079,0.395323,1.025907,0.858313,0.346701,-0.346314,0.089334,0.223270,-0.101519,0.393560
-0.112381,0.037561,-0.066258,0.373281,0.166469,0.354441,0.279896,-0.152249,0.169997,0.790419,0.294837,-1.099597,-0.072324,-0.455367,-0.204976,0.735492,-0.586086,-0.059968,-0.038746,-0.741140,0.364873,1.017589,0.773684,0.347335,-0.467673,0.088973,0.233752,-0.092127,0.458222
-0.114965,0.029883,-0.071445,0.348638,0.148004,0.331445,0.283340,-0.152249,0.155619,0.765182,0.285658,-1.096619,-0.121318,-0.444378,-0.199422,0.745581,-0.599863,-0.055063,-0.034271,-0.743373,0.326041,1.009492,0.681941,0.347335,-0.536806,0.088973,0.236368,-0.084712,0.493742
-0.114373,0.021900,-0.076706,0.315535,0.123152,0.308655,0.289248,-0.155222,0.141811,0.724413,0.271106,-1.093523,-0.160277,-0.424719,-0.189492,0.765199,-0.618270,-0.044676,-0.025982,-0.735808,0.273498,0.990619,0.546812,0.348399,-0.584275,0.086755,0.268517,-0.072015,0.464666
-0.114315,0.012415,-0.080213,0.282554,0.098030,0.286265,0.294774,-0.157811,0.126855,0.683884,0.259055,-1.093584,-0.207322,-0.405021,-0.181239,0.781557,-0.634812,-0.034569,-0.018193,-0.731309,0.229983,0.974382,0.419109,0.349584,-0.615158,0.084822,0.312706,-0.057297,0.384278
-0.115916,-0.000071,-0.080213,0.249817,0.072368,0.264675,0.299535,-0.160960,0.109599,0.643832,0.252009,-1.099962,-0.270543,-0.385242,-0.176337,0.791397,-0.647625,-0.025023,-0.011402,-0.732943,0.204521,0.963416,0.306255,0.349584,-0.612872,0.082932,0.380980,-0.038539,0.201264
-0.117893,-0.015441,-0.078561,0.217363,0.046058,0.244092,0.303260,-0.165058,0.092806,0.603597,0.251748,-1.110766,-0.349919,-0.364648,-0.174040,0.796743,-0.660906,-0.015871,-0.004517,-0.737637,0.188965,0.955422,0.213311,0.351378,-0.580245,0.082548,0.410739,-0.024623,0.007427
-0.120058,-0.032253,-0.076466,0.185050,0.019424,0.224011,0.306467,-0.169630,0.076244,0.563271,0.254880,-1.123783,-0.437375,-0.343647,-0.174040,0.799841,-0.674422,-0.006918,0.002415,-0.743860,0.178360,0.948913,0.130319,0.353669,-0.532448,0.082548,0.421240,-0.013126,-0.191826
-0.120921,-0.049002,-0.074722,0.154953,-0.006357,0.204668,0.305137,-0.177484,0.062698,0.524726,0.265521,-1.140887,-0.536225,-0.323747,-0.176590,0.795007,-0.690069,0.001233,0.009299,-0.747887,0.177919,0.944784,0.075258,0.358968,-0.496806,0.082759,0.385278,-0.009011,-0.334292
-0.122298,-0.064922,-0.073156,0.125843,-0.031647,0.186182,0.301943,-0.186638,0.050483,0.487777,0.277833,-1.158494,-0.635085,-0.304263,-0.180801,0.788237,-0.706644,0.008777,0.015992,-0.751880,0.181964,0.940454,0.029704,0.365112,-0.473045,0.082723,0.346085,-0.006268,-0.461674
-0.122298,-0.079184,-0.073156,0.098706,-0.055956,0.169408,0.295020,-0.198393,0.040930,0.454020,0.293485,-1.177106,-0.733974,-0.285608,-0.187008,0.777595,-0.725079,0.015109,0.022302,-0.755806,0.195428,0.935724,0.003163,0.372944,-0.473045,0.082723,0.300427,-0.006268,-0.558897
-0.122813,-0.091290,-0.073971,0.073549,-0.079531,0.153823,0.285014,-0.212605,0.033985,0.423653,0.311660,-1.196233,-0.829651,-0.268186,-0.194720,0.764868,-0.742708,0.021121,0.028178,-0.761502,0.218804,0.930835,0.001248,0.383365,-0.499466,0.082727,0.256633,-0.007666,-0.645970
-0.122813,-0.102318,-0.075802,0.049383,-0.102738,0.138833,0.273466,-0.228046,0.028345,0.394981,0.331095,-1.215617,-0.923723,-0.251378,-0.203185,0.751097,-0.759934,0.026974,0.033838,-0.768083,0.247138,0.925867,0.011647,0.395081,-0.539539,0.082727,0.213771,-0.009282,-0.727968
-0.119076,-0.108166,-0.079170,0.027886,-0.124914,0.123557,0.260430,-0.244769,0.026042,0.369986,0.351988,-1.233717,-1.005614,-0.236533,-0.213171,0.736812,-0.772961,0.032060,0.039284,-0.780041,0.290422,0.922103,0.055001,0.407522,-0.589231,0.082911,0.173584,-0.009192,-0.797845
-0.114986,-0.111602,-0.082174,0.007930,-0.145801,0.107046,0.247482,-0.260915,0.023812,0.347781,0.371559,-1.250011,-1.077278,-0.223150,-0.222813,0.723666,-0.787173,0.036224,0.044105,-0.793821,0.336388,0.917587,0.100637,0.417466,-0.627900,0.082267,0.141785,-0.008701,-0.852805
-0.109816,-0.111602,-0.084453,-0.008947,-0.164115,0.088060,0.234705,-0.275906,0.023812,0.331151,0.388490,-1.262696,-1.128497,-0.212689,-0.231771,0.712795,-0.803756,0.038546,0.047673,-0.811246,0.387726,0.911565,0.150845,0.422415,-0.644528,0.082267,0.126757,-0.007499,-0.877941
-0.101989,-0.110527,-0.086350,-0.026143,-0.182915,0.066308,0.221963,-0.288637,0.023996,0.313681,0.408411,-1.275421,-1.178324,-0.202068,-0.242743,0.700850,-0.817232,0.041141,0.051535,-0.831979,0.454882,0.908701,0.221056,0.428022,-0.655792,0.081475,0.115395,-0.006132,-0.899829
-0.092835,-0.109915,-0.088058,-0.043497,-0.201958,0.043174,0.209238,-0.300239,0.025314,0.295791,0.429825,-1.288166,-1.227454,-0.191366,-0.254722,0.688368,-0.829154,0.043872,0.055543,-0.854364,0.529945,0.908438,0.301268,0.433957,-0.664373,0.081055,0.105868,-0.004877,-0.920092
-0.080377,-0.108281,-0.086475,-0.060153,-0.220565,0.017710,0.198275,-0.307682,0.027451,0.278489,0.452927,-1.297864,-1.262087,-0.182264,-0.267682,0.674570,-0.835709,0.046327,0.059024,-0.879267,0.614916,0.908438,0.392098,0.440380,-0.658535,0.081055,0.100670,-0.004877,-0.928547
-0.066432,-0.106266,-0.082893,-0.076737,-0.239107,-0.008216,0.188366,-0.313560,0.030329,0.260765,0.476293,-1.306971,-1.290512,-0.173479,-0.281041,0.659899,-0.841071,0.048633,0.062564,-0.904084,0.700337,0.909752,0.482011,0.446694,-0.648214,0.080099,0.095650,-0.004588,-0.931534
-0.049510,-0.103489,-0.075309,-0.093180,-0.257519,-0.035067,0.180568,-0.316312,0.034689,0.242195,0.500188,-1.314896,-1.306522,-0.165327,-0.295198,0.643480,-0.844047,0.050642,0.066225,-0.928731,0.786668,0.911918,0.570099,0.452791,-0.628928,0.080099,0.090984,-0.004588,-0.923585
-0.024980,-0.101754,-0.062690,-0.112054,-0.278583,-0.064463,0.174283,-0.314723,0.040991,0.214340,0.530630,-1.327137,-1.329019,-0.153600,-0.314344,0.611265,-0.821195,0.053038,0.070998,-0.953635,0.885374,0.928977,0.680418,0.466559,-0.569761,0.078770,0.085295,-0.004893,-0.867534
0.003354,-0.100944,-0.047553,-0.132144,-0.300975,-0.095133,0.168754,-0.310965,0.048265,0.181840,0.564348,-1.341538,-1.354760,-0.140085,-0.335986,0.571150,-0.785429,0.055627,0.076326,-0.978669,0.990273,0.953484,0.801856,0.484164,-0.490652,0.076421,0.079094,-0.005629,-0.787430
0.026738,-0.097205,-0.023532,-0.148924,-0.320063,-0.127090,0.165258,-0.305818,0.060809,0.161546,0.590247,-1.351240,-1.344001,-0.133143,-0.353603,0.537706,-0.787102,0.055627,0.079296,-1.002808,1.082917,0.963937,0.863298,0.495047,-0.435057,0.076421,0.090651,-0.005629,-0.687385
0.048648,-0.093910,0.002403,-0.165729,-0.339771,-0.158712,0.162288,-0.300885,0.075315,0.143519,0.616256,-1.360409,-1.328697,-0.127049,-0.371224,0.504557,-0.792665,0.055499,0.082113,-1.025239,1.171975,0.971720,0.918011,0.504056,-0.388500,0.074931,0.101393,-0.006319,-0.598632
0.067613,-0.091501,0.032170,-0.182589,-0.360723,-0.189667,0.160367,-0.296382,0.093748,0.130025,0.642485,-1.368514,-1.304301,-0.122650,-0.388852,0.471994,-0.806005,0.055499,0.084626,-1.044256,1.253868,0.974163,0.959270,0.509315,-0.360015,0.074931,0.110508,-0.006319,-0.532459
0.082191,-0.091767,0.061773,-0.200614,-0.384359,-0.214217,0.157891,-0.292487,0.113764,0.121388,0.670954,-1.375314,-1.274404,-0.120280,-0.406191,0.437139,-0.816548,0.055719,0.088289,-1.058506,1.314269,0.974977,0.996449,0.514336,-0.337125,0.073784,0.115857,-0.008191,-0.482060
0.094575,-0.093371,0.091294,-0.219221,-0.409338,-0.235565,0.155135,-0.288896,0.134571,0.115180,0.700543,-1.381462,-1.241756,-0.118924,-0.423387,0.401137,-0.825693,0.055719,0.092526,-1.070373,1.363924,0.974977,1.031589,0.519237,-0.317032,0.073784,0.119324,-0.009900,-0.439547
0.102384,-0.096369,0.113353,-0.239990,-0.437897,-0.244224,0.150246,-0.286090,0.154609,0.115179,0.731289,-1.381462,-1.201027,-0.118924,-0.439606,0.367163,-0.822281,0.059232,0.098841,-1.072275,1.366203,0.973152,1.058689,0.524841,-0.297587,0.072789,0.121177,-0.010915,-0.410306
0.109793,-0.098672,0.131515,-0.259396,-0.464583,-0.250587,0.145488,-0.283500,0.173456,0.116025,0.759468,-1.380217,-1.162719,-0.119538,-0.454004,0.336566,-0.816887,0.061602,0.104680,-1.073543,1.362147,0.970737,1.082182,0.530299,-0.279990,0.071872,0.122896,-0.012452,-0.384649
0.116403,-0.098672,0.141885,-0.276075,-0.487520,-0.252357,0.140991,-0.281338,0.189923,0.116025,0.782517,-1.374569,-1.129254,-0.119538,-0.464760,0.312725,-0.807530,0.063460,0.109569,-1.073543,1.345420,0.967131,1.098461,0.535465,-0.266090,0.071872,0.124347,-0.012452,-0.366159
0.122502,-0.099465,0.152457,-0.289815,-0.506804,-0.256499,0.137014,-0.279304,0.204134,0.116500,0.803199,-1.367458,-1.100615,-0.119570,-0.475031,0.290600,-0.798723,0.064300,0.114155,-1.080124,1.337283,0.960301,1.112444,0.542114,-0.254006,0.070751,0.125764,-0.013849,-0.349245
0.128347,-0.099465,0.163131,-0.302085,-0.524261,-0.261829,0.133295,-0.277333,0.217216,0.116500,0.822698,-1.359614,-1.074387,-0.119570,-0.485058,0.269334,-0.790190,0.064300,0.118590,-1.090739,1.333440,0.951859,1.125278,0.549507,-0.242830,0.070751,0.127164,-0.013849,-0.333118
0.129133,-0.102397,0.169180,-0.307323,-0.532008,-0.266758,0.130075,-0.276847,0.223719,0.115302,0.833903,-1.353282,-1.063220,-0.119049,-0.490495,0.253956,-0.787108,0.062038,0.119385,-1.108086,1.345512,0.937845,1.131589,0.560267,-0.233863,0.069674,0.127995,-0.017665,-0.320855
0.127801,-0.106017,0.172655,-0.310327,-0.536713,-0.270045,0.126617,-0.277072,0.227206,0.113648,0.842381,-1.348069,-1.055226,-0.117518,-0.494119,0.240391,-0.785053,0.059568,0.119346,-1.123385,1.355210,0.920887,1.136696,0.572129,-0.225242,0.069229,0.129366,-0.021975,-0.309649
0.121451,-0.111987,0.170984,-0.308859,-0.535338,-0.270045,0.122684,-0.279202,0.224660,0.113648,0.845408,-1.345094,-1.053576,-0.114876,-0.494119,0.230450,-0.785053,0.057124,0.116845,-1.134591,1.360155,0.898039,1.139394,0.586192,-0.217316,0.069229,0.129366,-0.029023,-0.300558
0.110719,-0.119239,0.166488,-0.302881,-0.527944,-0.267138,0.118658,-0.283553,0.217359,0.112846,0.842632,-1.346331,-1.054480,-0.110920,-0.491078,0.223202,-0.785844,0.054974,0.112399,-1.137879,1.356431,0.866153,1.141447,0.601009,-0.210047,0.068961,0.130458,-0.040611,-0.293043
0.097796,-0.127132,0.160578,-0.294646,-0.517540,-0.262947,0.114585,-0.289015,0.207680,0.112341,0.836955,-1.349674,-1.056662,-0.106305,-0.486387,0.217301,-0.787464,0.052970,0.106981,-1.137430,1.348372,0.829746,1.143178,0.616204,-0.203106,0.068958,0.131010,-0.054471,-0.286315
0.079751,-0.132991,0.156604,-0.276913,-0.494753,-0.254240,0.112462,-0.297865,0.194678,0.114761,0.817914,-1.357748,-1.060317,-0.101783,-0.475680,0.234330,-0.793385,0.046773,0.095836,-1.124852,1.335366,0.753914,1.143178,0.639765,-0.191397,0.065864,0.132319,-0.101938,-0.277485
0.062501,-0.139202,0.153174,-0.258587,-0.471133,-0.246526,0.111047,-0.305762,0.180688,0.115929,0.798438,-1.370344,-1.064948,-0.097560,-0.465521,0.246468,-0.798924,0.041108,0.085693,-1.109295,1.324133,0.681401,1.142643,0.656901,-0.181874,0.061967,0.133667,-0.144022,-0.270732
0.046839,-0.146119,0.153174,-0.239075,-0.445842,-0.240797,0.111047,-0.311752,0.164721,0.114593,0.778091,-1.391986,-1.071532,-0.093935,-0.456454,0.246468,-0.803700,0.036508,0.077556,-1.087780,1.316446,0.615523,1.142643,0.661187,-0.176724,0.056463,0.133667,-0.175338,-0.268133
0.028201,-0.150077,0.152985,-0.212614,-0.410955,-0.231384,0.114035,-0.318135,0.149505,0.116057,0.743791,-1.404484,-1.081429,-0.089717,-0.439273,0.284226,-0.810749,0.027503,0.063208,-1.049154,1.305578,0.506875,1.136326,0.647584,-0.169679,0.038728,0.135148,-0.236703,-0.265493
0.008075,-0.152334,0.153577,-0.182679,-0.371268,-0.220127,0.118862,-0.324713,0.134662,0.118760,0.702511,-1.412411,-1.092983,-0.085204,-0.418033,0.339687,-0.818934,0.016296,0.045753,-1.001969,1.293119,0.376838,1.128157,0.625037,-0.161686,0.014877,0.136657,-0.313096,-0.262415
-0.004647,-0.152334,0.142735,-0.154214,-0.334169,-0.214293,0.126042,-0.327358,0.118544,0.118760,0.662612,-1.394943,-1.111552,-0.083129,-0.399514,0.419300,-0.810270,0.007593,0.032603,-0.934857,1.279755,0.247056,1.115663,0.525968,-0.156401,-0.026609,0.139753,-0.401632,-0.262415
-0.016994,-0.150630,0.131719,-0.125492,-0.297077,-0.209613,0.134268,-0.328435,0.103081,0.121344,0.621740,-1.382619,-1.131506,-0.083040,-0.380527,0.479821,-0.791846,-0.001278,0.020024,-0.863605,1.264737,0.149052,1.110091,0.384515,-0.154421,-0.067398,0.143116,-0.485506,-0.262852
-0.028595,-0.146186,0.120357,-0.096255,-0.259996,-0.207243,0.144588,-0.328435,0.088923,0.129577,0.578918,-1.380581,-1.154233,-0.086923,-0.360600,0.502164,-0.753898,-0.010487,0.008587,-0.784068,1.246409,0.114598,1.118365,0.158284,-0.159047,-0.106796,0.147014,-0.560064,-0.265418
-0.039350,-0.139166,0.109445,-0.067197,-0.224117,-0.206453,0.156142,-0.325373,0.076969,0.143296,0.535637,-1.390186,-1.177977,-0.094444,-0.339919,0.499893,-0.705708,-0.019525,-0.002142,-0.702204,1.225001,0.130472,1.133880,-0.096965,-0.170221,-0.134476,0.150383,-0.633334,-0.269461
-0.049682,-0.130857,0.098758,-0.038228,-0.188836,-0.206260,0.168314,-0.321806,0.066116,0.159760,0.492126,-1.405613,-1.202231,-0.103784,-0.318862,0.485313,-0.652395,-0.028478,-0.012519,-0.619174,1.202051,0.171510,1.153016,-0.366732,-0.184668,-0.156604,0.154003,-0.705965,-0.274241
-0.058481,-0.121520,0.086609,-0.011063,-0.157310,-0.209467,0.181180,-0.314769,0.059577,0.181596,0.452530,-1.422581,-1.226259,-0.116021,-0.298506,0.465806,-0.597426,-0.036417,-0.022594,-0.534738,1.174268,0.233628,1.169539,-0.581534,-0.198085,-0.156604,0.154003,-0.775834,-0.279876
-0.066339,-0.112017,0.074741,0.015523,-0.127215,-0.213308,0.194648,-0.306630,0.054436,0.204876,0.415137,-1.438662,-1.249497,-0.128964,-0.278814,0.446520,-0.542797,-0.044036,-0.032218,-0.447868,1.143531,0.298934,1.184337,-0.768675,-0.210814,-0.154335,0.154025,-0.831083,-0.284919
-0.072318,-0.102179,0.063430,0.040952,-0.099978,-0.218415,0.209321,-0.296284,0.052091,0.231045,0.382146,-1.452968,-1.271161,-0.143319,-0.260447,0.427677,-0.488841,-0.051017,-0.040940,-0.356122,1.106884,0.370617,1.195687,-0.900510,-0.222165,-0.146610,0.154025,-0.857095,-0.288778
-0.074946,-0.090897,0.054544,0.066449,-0.074086,-0.225705,0.225373,-0.283758,0.052674,0.258662,0.353280,-1.464318,-1.291121,-0.158593,-0.243831,0.410928,-0.437076,-0.058166,-0.049439,-0.260399,1.069239,0.450619,1.204091,-0.996932,-0.233358,-0.139712,0.154347,-0.861516,-0.291450
-0.075017,-0.078891,0.046870,0.091981,-0.048867,-0.234087,0.242115,-0.270142,0.054720,0.287004,0.326474,-1.474191,-1.310229,-0.174326,-0.228090,0.395225,-0.386405,-0.065399,-0.057825,-0.162684,1.031094,0.534783,1.211022,-1.075653,-0.244472,-0.133227,0.155160,-0.855141,-0.293529
-0.075017,-0.063877,0.044833,0.120582,-0.022205,-0.238781,0.258882,-0.253588,0.058533,0.321786,0.300161,-1.483245,-1.330288,-0.193722,-0.212060,0.388864,-0.335124,-0.074169,-0.067009,-0.071909,1.001487,0.632606,1.224938,-1.158553,-0.260987,-0.125515,0.157595,-0.819845,-0.295189
-0.073425,-0.048684,0.044748,0.149401,0.004360,-0.240995,0.275221,-0.236192,0.062317,0.356652,0.275051,-1.488232,-1.348219,-0.213144,-0.196450,0.386754,-0.286947,-0.082817,-0.075610,0.009633,0.975111,0.727643,1.237666,-1.253145,-0.279476,-0.119576,0.159951,-0.767498,-0.296296
-0.070341,-0.033137,0.048567,0.178652,0.030729,-0.238249,0.290705,-0.217114,0.066043,0.391680,0.252350,-1.485083,-1.361894,-0.232617,-0.181680,0.393145,-0.244982,-0.091224,-0.083044,0.072701,0.955196,0.817103,1.248019,-1.371117,-0.301910,-0.117184,0.162151,-0.681047,-0.296296
-0.065962,-0.018125,0.055582,0.207252,0.055663,-0.229281,0.305251,-0.197772,0.068646,0.425771,0.233405,-1.469823,-1.367051,-0.252089,-0.169153,0.404622,-0.214838,-0.098557,-0.089207,0.107700,0.945063,0.892604,1.248933,-1.482959,-0.322343,-0.129429,0.164179,-0.563849,-0.296408
-0.060934,-0.003381,0.064194,0.235527,0.079881,-0.217200,0.319330,-0.178297,0.070687,0.459395,0.216338,-1.448507,-1.367650,-0.271561,-0.157748,0.418641,-0.190604,-0.105353,-0.094733,0.128666,0.939819,0.961128,1.245128,-1.591739,-0.341775,-0.148994,0.166122,-0.431274,-0.294970
-0.054813,0.012826,0.073550,0.263642,0.103081,-0.195625,0.329068,-0.161430,0.073228,0.493580,0.203260,-1.412853,-1.358555,-0.291750,-0.149346,0.433094,-0.178403,-0.110687,-0.098382,0.108805,0.946414,1.019169,1.230229,-1.642954,-0.355515,-0.159541,0.168247,-0.317091,-0.294970
-0.048795,0.029867,0.081597,0.291959,0.126162,-0.170324,0.336777,-0.146238,0.076751,0.528221,0.191014,-1.374180,-1.348233,-0.312273,-0.141882,0.445951,-0.168300,-0.115662,-0.101486,0.077656,0.956506,1.073219,1.213771,-1.678401,-0.367397,-0.163509,0.170315,-0.223868,-0.294104
-0.042981,0.048579,0.087028,0.320682,0.149006,-0.137569,0.340427,-0.134396,0.082239,0.563774,0.180429,-1.329465,-1.335454,-0.333467,-0.136292,0.455619,-0.162393,-0.119924,-0.103503,0.023928,0.973593,1.119290,1.194193,-1.682310,-0.375561,-0.154319,0.170315,-0.172569,-0.294104
-0.038594,0.068147,0.088622,0.350156,0.171927,-0.106754,0.339550,-0.126568,0.091085,0.600394,0.171402,-1.287009,-1.323154,-0.353942,-0.132454,0.458841,-0.158785,-0.124030,-0.105250,-0.021139,0.988165,1.146441,1.172980,-1.676867,-0.383666,-0.145685,0.170650,-0.138298,-0.294896
-0.035236,0.088144,0.088405,0.380008,0.194886,-0.076907,0.336408,-0.120156,0.101612,0.637548,0.163154,-1.245681,-1.311093,-0.374059,-0.129216,0.459090,-0.156327,-0.128058,-0.106861,-0.061875,1.001480,1.164130,1.150948,-1.666749,-0.391742,-0.137328,0.169831,-0.112542,-0.296133
-0.035236,0.108673,0.085155,0.412123,0.218637,-0.056761,0.327582,-0.120156,0.114680,0.678204,0.156134,-1.209257,-1.297884,-0.393663,-0.129216,0.451536,-0.156327,-0.133474,-0.108376,-0.067188,1.002792,1.160234,1.125175,-1.658892,-0.402767,-0.135929,0.169831,-0.096024,-0.297846
-0.036407,0.128265,0.080933,0.442728,0.241036,-0.038482,0.317778,-0.120649,0.127215,0.717239,0.150070,-1.175311,-1.283802,-0.411980,-0.129395,0.443390,-0.157010,-0.138908,-0.110387,-0.065348,0.998463,1.155257,1.096146,-1.651602,-0.414870,-0.134997,0.169866,-0.080991,-0.297819
-0.038976,0.145982,0.074771,0.470308,0.260731,-0.023942,0.306017,-0.123903,0.138681,0.753033,0.145920,-1.146323,-1.267974,-0.427722,-0.130763,0.434060,-0.157010,-0.144380,-0.110387,-0.049206,0.982853,1.148121,1.060609,-1.645447,-0.429128,-0.134997,0.171477,-0.068929,-0.294311
-0.043213,0.158889,0.067389,0.490071,0.274665,-0.008582,0.294780,-0.128071,0.147982,0.781121,0.143443,-1.123919,-1.252502,-0.439568,-0.132176,0.425223,-0.160603,-0.147798,-0.111070,-0.032284,0.955424,1.142650,1.013385,-1.636304,-0.442704,-0.133783,0.176046,-0.058476,-0.278447
-0.048285,0.168545,0.059397,0.505925,0.285718,0.007188,0.283805,-0.132697,0.156199,0.805357,0.141801,-1.104808,-1.237208,-0.449468,-0.133133,0.416633,-0.165007,-0.150190,-0.110753,-0.014972,0.922085,1.138011,0.960317,-1.625667,-0.455940,-0.131291,0.182094,-0.048827,-0.256405
-0.055361,0.168545,0.050667,0.505925,0.284352,0.020983,0.277663,-0.137211,0.158207,0.815881,0.145656,-1.093362,-1.206114,-0.454726,-0.135319,0.410255,-0.213404,-0.147060,-0.106512,-0.008028,0.873335,1.136567,0.842085,-1.590891,-0.487062,-0.125265,0.202619,-0.024524,-0.048038
-0.062022,0.163692,0.041299,0.500730,0.279030,0.032682,0.274068,-0.141102,0.157759,0.820192,0.150784,-1.084179,-1.183807,-0.457177,-0.137401,0.405710,-0.251560,-0.142110,-0.101389,-0.004443,0.822620,1.135211,0.736100,-1.566801,-0.515123,-0.123396,0.205058,-0.005573,0.172140
-0.067853,0.151678,0.030657,0.485017,0.265795,0.040189,0.275566,-0.143745,0.152404,0.812078,0.158455,-1.079520,-1.179073,-0.454016,-0.139275,0.405710,-0.269237,-0.133519,-0.094502,-0.007578,0.767978,1.135211,0.654608,-1.564080,-0.537062,-0.129839,0.171328,0.002673,0.415932
-0.071310,0.135799,0.024341,0.461525,0.246453,0.043720,0.281133,-0.144333,0.144439,0.794616,0.168066,-1.077967,-1.174253,-0.447168,-0.142014,0.404462,-0.285736,-0.123344,-0.086906,-0.012711,0.713083,1.131696,0.586605,-1.563173,-0.516171,-0.134172,0.115405,0.006363,0.609646
-0.073581,0.117988,0.020561,0.434144,0.224057,0.045264,0.288735,-0.143665,0.135168,0.772479,0.178647,-1.077677,-1.169389,-0.438475,-0.145186,0.403029,-0.301647,-0.112377,-0.078954,-0.017991,0.658060,1.127015,0.525344,-1.562601,-0.473864,-0.137449,0.048384,0.007774,0.778326
-0.073581,0.096634,0.020561,0.399090,0.195985,0.037260,0.297212,-0.143665,0.125171,0.739753,0.192933,-1.082606,-1.162321,-0.425227,-0.149548,0.400232,-0.316763,-0.100534,-0.070614,-0.017991,0.604029,1.118959,0.494687,-1.551741,-0.299382,-0.133077,-0.006710,0.000664,0.855285
-0.072558,0.075723,0.021460,0.362889,0.167067,0.028278,0.304594,-0.144023,0.116216,0.705170,0.207945,-1.088979,-1.157355,-0.411018,-0.154379,0.396579,-0.330497,-0.088451,-0.062264,-0.015847,0.551256,1.109677,0.474791,-1.539529,-0.103538,-0.129242,-0.057510,-0.006871,0.910279
-0.070005,0.055700,0.023042,0.324396,0.136458,0.017338,0.309782,-0.146218,0.109349,0.666874,0.224407,-1.098236,-1.157355,-0.394889,-0.160149,0.391215,-0.341469,-0.075890,-0.053897,-0.011963,0.501002,1.097941,0.474791,-1.524616,0.135024,-0.129242,-0.099718,-0.015258,0.921342
-0.068710,0.036527,0.021892,0.285887,0.105787,0.008466,0.310252,-0.151238,0.102871,0.628358,0.241104,-1.109118,-1.164744,-0.377802,-0.166116,0.385347,-0.349911,-0.062984,-0.045362,-0.012138,0.449656,1.086507,0.487081,-1.511306,0.339895,-0.129413,-0.134881,-0.020747,0.930169
-0.068266,0.017779,0.019376,0.247370,0.075083,0.000627,0.308364,-0.157671,0.096586,0.589729,0.257919,-1.120813,-1.176207,-0.360235,-0.172181,0.379228,-0.357090,-0.049905,-0.036744,-0.014343,0.397761,1.075223,0.504704,-1.498797,0.527929,-0.131051,-0.166524,-0.024787,0.937880
-0.069652,0.001283,0.012253,0.211616,0.045333,-0.006875,0.300359,-0.169658,0.090119,0.553532,0.275116,-1.131879,-1.193477,-0.342676,-0.179376,0.371454,-0.363612,-0.038904,-0.028502,-0.016233,0.345803,1.062833,0.531387,-1.492836,0.687679,-0.128592,-0.181529,-0.028401,0.935816
-0.071795,-0.014841,0.004480,0.177324,0.016117,-0.013650,0.291015,-0.182918,0.083577,0.519091,0.293094,-1.142744,-1.211197,-0.325470,-0.187003,0.362692,-0.370475,-0.028502,-0.020326,-0.019015,0.295120,1.050514,0.562237,-1.488267,0.841589,-0.127541,-0.193792,-0.031878,0.927339
-0.075452,-0.030218,-0.004595,0.145961,-0.012027,-0.018972,0.278991,-0.198724,0.076886,0.488164,0.312632,-1.153205,-1.229815,-0.308970,-0.195494,0.351953,-0.378019,-0.019299,-0.012282,-0.023578,0.246994,1.038338,0.601419,-1.486482,0.983808,-0.127541,-0.200568,-0.035085,0.906035
-0.080481,-0.045146,-0.015098,0.116782,-0.039725,-0.022547,0.265485,-0.215918,0.070219,0.460999,0.333967,-1.163240,-1.249172,-0.293528,-0.205303,0.341148,-0.386062,-0.009918,-0.004100,-0.030816,0.200550,1.027867,0.652677,-1.479263,1.094437,-0.127754,-0.206064,-0.037918,0.877067
-0.086196,-0.059849,-0.026313,0.088696,-0.067198,-0.025248,0.251237,-0.233808,0.063564,0.435715,0.356200,-1.173062,-1.268899,-0.278615,-0.215770,0.330310,-0.394354,-0.000449,0.004151,-0.039393,0.154948,1.018250,0.709974,-1.469326,1.189268,-0.127378,-0.210919,-0.040566,0.844266
-0.089858,-0.072411,-0.038385,0.062057,-0.094944,-0.030183,0.236488,-0.251029,0.058742,0.413375,0.382028,-1.180913,-1.286184,-0.264420,-0.228821,0.319640,-0.406046,0.007814,0.011972,-0.048997,0.117409,1.010230,0.781074,-1.457076,1.245267,-0.124107,-0.216031,-0.045148,0.794466
-0.091269,-0.084133,-0.049451,0.035197,-0.123361,-0.036344,0.222332,-0.267081,0.054763,0.390355,0.409567,-1.187651,-1.301198,-0.249762,-0.242712,0.309118,-0.418911,0.015883,0.019788,-0.060751,0.086032,1.002214,0.855097,-1.445662,1.291541,-0.121372,-0.221776,-0.049858,0.735510
-0.088180,-0.094175,-0.058508,0.007896,-0.153119,-0.044958,0.209363,-0.280792,0.052470,0.365973,0.440527,-1.192162,-1.311670,-0.234179,-0.258284,0.298893,-0.434119,0.023564,0.027593,-0.076804,0.066983,0.994206,0.934960,-1.435920,1.318362,-0.119711,-0.228784,-0.054821,0.658246
-0.079561,-0.102609,-0.065107,-0.019634,-0.183614,-0.059950,0.198094,-0.290794,0.052174,0.338906,0.474122,-1.193665,-1.315753,-0.217957,-0.274537,0.288567,-0.448494,0.029988,0.034694,-0.090441,0.060336,0.986196,1.016319,-1.424281,1.333168,-0.118101,-0.229561,-0.059955,0.568444
-0.068177,-0.110238,-0.069959,-0.047278,-0.214475,-0.078131,0.187674,-0.298943,0.052641,0.310498,0.509034,-1.193258,-1.316345,-0.201417,-0.291131,0.278191,-0.462451,0.035782,0.041444,-0.102870,0.060038,0.978186,1.098424,-1.411694,1.341966,-0.116517,-0.227221,-0.065173,0.472376
-0.048135,-0.114740,-0.069959,-0.074060,-0.244666,-0.103261,0.180196,-0.301178,0.056304,0.277067,0.544528,-1.185880,-1.307640,-0.184229,-0.308500,0.265180,-0.470728,0.039561,0.047746,-0.109567,0.075960,0.967857,1.183795,-1.402226,1.327264,-0.119097,-0.206296,-0.070266,0.364231
-0.024832,-0.117742,-0.066934,-0.100490,-0.274240,-0.128715,0.173542,-0.301940,0.060748,0.240442,0.578761,-1.175655,-1.296052,-0.166291,-0.326178,0.250927,-0.474886,0.043011,0.054041,-0.115252,0.094326,0.957092,1.268745,-1.394123,1.300802,-0.123117,-0.178977,-0.074891,0.253295
0.004992,-0.117742,-0.059416,-0.126212,-0.302575,-0.154817,0.168535,-0.299758,0.066753,0.197433,0.610471,-1.159739,-1.278699,-0.146853,-0.344474,0.234187,-0.470806,0.043011,0.060320,-0.118912,0.117579,0.945454,1.352851,-1.388751,1.250819,-0.130019,-0.138870,-0.078579,0.136784
0.035339,-0.116407,-0.046574,-0.149283,-0.327963,-0.178964,0.165157,-0.294884,0.074761,0.158258,0.639574,-1.140388,-1.257967,-0.131169,-0.363566,0.216705,-0.457531,0.041554,0.065839,-0.121342,0.145676,0.934839,1.428217,-1.378139,1.214485,-0.133019,-0.084137,-0.084369,0.019803
0.065945,-0.114071,-0.031069,-0.171029,-0.351875,-0.202133,0.163117,-0.288665,0.083770,0.121001,0.667374,-1.119321,-1.235546,-0.117361,-0.383056,0.198852,-0.439659,0.037973,0.070977,-0.123156,0.176192,0.924736,1.499209,-1.364908,1.184977,-0.133717,-0.022092,-0.091210,-0.097410
0.080584,-0.114071,-0.012007,-0.187158,-0.371857,-0.218695,0.163117,-0.278479,0.094784,0.118754,0.695728,-1.095583,-1.212428,-0.123527,-0.402039,0.182946,-0.414998,0.034342,0.075132,-0.121207,0.198401,0.914878,1.532123,-1.340180,1.199806,-0.125313,0.067564,-0.097687,-0.213419
0.093890,-0.114554,0.004630,-0.203746,-0.392318,-0.232640,0.164103,-0.267964,0.105873,0.117763,0.723723,-1.070816,-1.190252,-0.129180,-0.419598,0.168832,-0.391317,0.032379,0.079301,-0.116024,0.207518,0.904334,1.556491,-1.316363,1.222534,-0.114564,0.148170,-0.102678,-0.311933
0.104525,-0.116699,0.016414,-0.221246,-0.413734,-0.241348,0.165489,-0.256789,0.117111,0.119285,0.750993,-1.043995,-1.169961,-0.133808,-0.434307,0.158308,-0.369596,0.033752,0.083500,-0.104373,0.190449,0.892416,1.563761,-1.294371,1.261055,-0.099130,0.210663,-0.102678,-0.375444
0.114415,-0.119470,0.023451,-0.238976,-0.436017,-0.249399,0.165093,-0.249048,0.127025,0.116396,0.776525,-1.018963,-1.148703,-0.133301,-0.446354,0.152674,-0.354744,0.035918,0.087832,-0.090541,0.165400,0.886546,1.566668,-1.269130,1.306349,-0.072261,0.248874,-0.101339,-0.404166
0.123931,-0.122555,0.028115,-0.256821,-0.458732,-0.257121,0.163806,-0.243023,0.136276,0.111303,0.801188,-0.994828,-1.126961,-0.130228,-0.457068,0.149484,-0.343326,0.038481,0.092462,-0.075618,0.136363,0.883700,1.566147,-1.242266,1.355026,-0.039676,0.274942,-0.098319,-0.415493
0.128723,-0.120807,0.032608,-0.264095,-0.469485,-0.263322,0.160698,-0.245092,0.143217,0.108063,0.811603,-0.983471,-1.110123,-0.126614,-0.461574,0.158129,-0.341387,0.038481,0.092462,-0.058707,0.136363,0.896565,1.566147,-1.188959,1.380477,0.024723,0.283960,-0.086162,-0.386080
0.131102,-0.118882,0.037588,-0.267403,-0.474865,-0.267939,0.157930,-0.247563,0.147264,0.105486,0.817374,-0.976975,-1.095605,-0.123648,-0.463934,0.170226,-0.341591,0.035778,0.091157,-0.040391,0.143091,0.909652,1.564407,-1.148264,1.387367,0.095263,0.289972,-0.055882,-0.351639
0.128654,-0.118882,0.043539,-0.262774,-0.469499,-0.269390,0.157930,-0.250837,0.147264,0.105486,0.813854,-0.980201,-1.085726,-0.121979,-0.463934,0.189222,-0.346083,0.029950,0.086541,-0.019262,0.163478,0.923180,1.562199,-1.132797,1.357132,0.178079,0.289972,0.010645,-0.307141
0.120819,-0.120213,0.046360,-0.252182,-0.455536,-0.268388,0.157559,-0.253734,0.140291,0.106143,0.803231,-0.993740,-1.081556,-0.121423,-0.459335,0.208989,-0.351599,0.022899,0.079054,0.013367,0.174613,0.934610,1.560491,-1.211837,1.319664,0.175740,0.279343,0.167683,-0.275001
0.110291,-0.123348,0.047615,-0.238608,-0.437276,-0.266159,0.157547,-0.256442,0.130703,0.107755,0.789058,-1.012436,-1.080678,-0.121019,-0.453404,0.229140,-0.357628,0.015238,0.070132,0.051745,0.181122,0.944991,1.558353,-1.338126,1.278579,0.130827,0.263761,0.369970,-0.248304
0.095062,-0.127183,0.044129,-0.218362,-0.410444,-0.260708,0.157547,-0.261407,0.116122,0.109379,0.764851,-1.043966,-1.086143,-0.121019,-0.442176,0.247398,-0.363807,0.007524,0.059220,0.105228,0.170544,0.964920,1.558353,-1.321227,1.263953,0.004435,0.243600,0.497578,-0.248304
0.079901,-0.130283,0.039615,-0.196846,-0.382330,-0.253675,0.157210,-0.267498,0.102027,0.110462,0.737691,-1.077377,-1.093331,-0.119404,-0.429411,0.265885,-0.369769,0.000131,0.048505,0.152897,0.161708,0.982387,1.557005,-1.276449,1.249396,-0.112217,0.222133,0.600871,-0.248140
0.064879,-0.130283,0.033049,-0.172792,-0.351652,-0.243479,0.157210,-0.275841,0.088906,0.110462,0.704628,-1.114549,-1.103960,-0.116350,-0.413573,0.284829,-0.375295,-0.006617,0.038184,0.188933,0.156355,0.994929,1.557005,-1.175913,1.234977,-0.209383,0.198058,0.655524,-0.249861
0.048651,-0.128810,0.024964,-0.147660,-0.320708,-0.230114,0.157739,-0.285293,0.078246,0.114775,0.667766,-1.149310,-1.118183,-0.114894,-0.395334,0.296328,-0.379106,-0.012369,0.028956,0.206589,0.157364,0.975832,1.555687,-1.093809,1.217031,-0.279349,0.173446,0.705828,-0.254481
0.031821,-0.125785,0.016121,-0.121989,-0.289632,-0.215165,0.158456,-0.295299,0.068815,0.121774,0.629005,-1.182864,-1.134204,-0.114457,-0.375894,0.304104,-0.382059,-0.017622,0.020274,0.215054,0.161554,0.940915,1.554512,-1.020922,1.197323,-0.335713,0.148565,0.753956,-0.260551
0.009643,-0.120220,0.006364,-0.095822,-0.259766,-0.197310,0.160547,-0.305113,0.062278,0.143947,0.587828,-1.210711,-1.153721,-0.121598,-0.355227,0.297790,-0.382059,-0.022121,0.013251,0.198922,0.171003,0.874147,1.554512,-0.977005,1.184320,-0.358716,0.129409,0.788378,-0.271189
-0.012555,-0.113999,-0.004139,-0.070329,-0.230720,-0.178046,0.162419,-0.314463,0.056629,0.167836,0.546652,-1.236028,-1.173767,-0.129726,-0.334424,0.288461,-0.381383,-0.025958,0.006628,0.174622,0.179023,0.801436,1.554489,-0.936191,1.174408,-0.377521,0.113084,0.817534,-0.280918
-0.034789,-0.106465,-0.016132,-0.046188,-0.203315,-0.155965,0.163854,-0.322882,0.052760,0.195156,0.505482,-1.256279,-1.194870,-0.139829,-0.313354,0.273104,-0.378264,-0.028473,0.000803,0.133984,0.184184,0.716844,1.554489,-0.901582,1.170680,-0.387931,0.102426,0.836157,-0.288829
-0.054514,-0.096547,-0.029533,-0.023859,-0.177651,-0.131747,0.163604,-0.330332,0.051837,0.223573,0.464970,-1.272963,-1.216038,-0.150377,-0.292317,0.258415,-0.373065,-0.029795,-0.004459,0.076490,0.187860,0.634396,1.555954,-0.850002,1.170491,-0.392114,0.100058,0.849236,-0.289449
-0.072983,-0.085436,-0.043637,-0.002436,-0.152859,-0.106462,0.163604,-0.337298,0.051837,0.252535,0.424789,-1.287861,-1.237236,-0.161146,-0.271298,0.244060,-0.366827,-0.029795,-0.009439,0.010570,0.190792,0.553024,1.557397,-0.789939,1.172071,-0.392114,0.101836,0.859542,-0.286423
-0.087032,-0.071612,-0.055855,0.015641,-0.131566,-0.076286,0.160979,-0.342489,0.055570,0.282182,0.387794,-1.301363,-1.256903,-0.174678,-0.252213,0.234132,-0.358983,-0.029826,-0.013110,-0.073127,0.195367,0.484785,1.559484,-0.697292,1.170243,-0.387187,0.109091,0.864156,-0.276848
-0.099192,-0.057046,-0.067713,0.032960,-0.111219,-0.046025,0.159233,-0.346510,0.059825,0.311783,0.352773,-1.313427,-1.274995,-0.188826,-0.234285,0.225574,-0.350763,-0.028875,-0.016135,-0.159468,0.200900,0.419104,1.561552,-0.604498,1.167331,-0.382210,0.114963,0.866609,-0.267470
-0.107576,-0.040998,-0.078850,0.048763,-0.092767,-0.015596,0.157789,-0.348191,0.065855,0.341294,0.321700,-1.322614,-1.289936,-0.204207,-0.218671,0.219756,-0.341795,-0.028875,-0.017871,-0.251096,0.208348,0.358539,1.563581,-0.511415,1.162248,-0.378558,0.118068,0.864741,-0.258484
-0.113997,-0.026024,-0.088210,0.064022,-0.075374,0.016634,0.156881,-0.347015,0.072277,0.370463,0.295800,-1.328482,-1.301307,-0.220552,-0.205532,0.216863,-0.333333,-0.028398,-0.018614,-0.345858,0.218665,0.299099,1.565534,-0.429117,1.156483,-0.376207,0.117570,0.856464,-0.250608
-0.119435,-0.011588,-0.096682,0.079008,-0.058510,0.049763,0.156455,-0.344411,0.078895,0.399461,0.272487,-1.332690,-1.310893,-0.237380,-0.193631,0.216702,-0.325126,-0.028697,-0.018893,-0.442187,0.230415,0.240222,1.567450,-0.352213,1.150376,-0.374507,0.115269,0.844981,-0.243287
-0.121934,0.003192,-0.105195,0.095999,-0.040472,0.082544,0.156455,-0.338331,0.087439,0.430174,0.254461,-1.330699,-1.314849,-0.257257,-0.184507,0.216702,-0.315782,-0.028697,-0.018893,-0.537688,0.241340,0.185437,1.569579,-0.297209,1.142067,-0.377649,0.109722,0.815509,-0.236530
-0.124453,0.018629,-0.113377,0.114428,-0.021302,0.114451,0.156043,-0.331829,0.096604,0.462886,0.236962,-1.323729,-1.316966,-0.278280,-0.176067,0.218215,-0.306542,-0.030065,-0.019891,-0.625517,0.250503,0.130827,1.571707,-0.242460,1.132176,-0.378766,0.102584,0.758182,-0.227280
-0.127012,0.035382,-0.120896,0.135733,0.000132,0.144612,0.156043,-0.324481,0.107012,0.499601,0.220513,-1.306798,-1.315406,-0.301594,-0.168994,0.220374,-0.297508,-0.033330,-0.022544,-0.698006,0.256142,0.076564,1.573837,-0.188217,1.119123,-0.375835,0.092267,0.645145,-0.213047
-0.129181,0.053248,-0.130162,0.158260,0.021876,0.173155,0.153410,-0.318436,0.119332,0.538161,0.206666,-1.286642,-1.309762,-0.324828,-0.164718,0.220711,-0.289162,-0.036554,-0.024781,-0.760882,0.259054,0.030321,1.575523,-0.147358,1.109069,-0.354490,0.081126,0.500586,-0.194894
-0.131799,0.071672,-0.140300,0.181399,0.043774,0.200889,0.150399,-0.313042,0.132608,0.577644,0.194120,-1.264875,-1.302077,-0.348022,-0.162245,0.219797,-0.281161,-0.039758,-0.027453,-0.818951,0.260602,-0.011912,1.576988,-0.113191,1.100515,-0.323940,0.069572,0.340270,-0.174781
-0.131799,0.090225,-0.154191,0.205530,0.064973,0.226540,0.146171,-0.310044,0.148775,0.616843,0.186422,-1.241321,-1.290562,-0.369287,-0.162245,0.219797,-0.273367,-0.041967,-0.027453,-0.874533,0.265986,-0.035614,1.578290,-0.085213,1.096321,-0.298479,0.061390,0.232836,-0.157675
-0.131473,0.108566,-0.168973,0.229493,0.085555,0.249884,0.142377,-0.306965,0.165787,0.654359,0.180286,-1.214693,-1.278901,-0.389777,-0.163443,0.221527,-0.264746,-0.044447,-0.028767,-0.927869,0.273873,-0.056149,1.579651,-0.059779,1.091719,-0.273385,0.054635,0.128404,-0.141965
-0.128561,0.126481,-0.185536,0.253125,0.104903,0.268617,0.139451,-0.303725,0.184490,0.688510,0.177274,-1.181919,-1.266949,-0.408718,-0.165822,0.228313,-0.254469,-0.047471,-0.028767,-0.976716,0.286766,-0.070351,1.581130,-0.039430,1.086303,-0.249025,0.050731,0.029972,-0.129046
-0.123681,0.141181,-0.200868,0.272626,0.119991,0.285611,0.138152,-0.299737,0.203969,0.715805,0.178228,-1.150965,-1.252395,-0.423554,-0.168989,0.237294,-0.246753,-0.049604,-0.029105,-1.026166,0.303122,-0.076487,1.583797,-0.028604,1.080046,-0.235227,0.051643,-0.013886,-0.127985
-0.117817,0.154272,-0.215583,0.290063,0.132948,0.301735,0.137204,-0.295376,0.223835,0.739672,0.181166,-1.120921,-1.235835,-0.436337,-0.172551,0.247373,-0.240319,-0.051292,-0.028773,-1.075917,0.321208,-0.077829,1.586593,-0.022539,1.073370,-0.226709,0.054964,-0.030454,-0.132855
-0.112678,0.162025,-0.215583,0.302697,0.142232,0.292005,0.137204,-0.291784,0.237891,0.754965,0.186936,-1.094291,-1.235835,-0.444019,-0.176743,0.254275,-0.230552,-0.054326,-0.030649,-1.111871,0.385587,-0.077829,1.586593,-0.019095,1.071406,-0.228450,0.063407,-0.006122,-0.144216
-0.108357,0.166835,-0.216648,0.313136,0.149426,0.283684,0.136264,-0.288596,0.249468,0.768946,0.194854,-1.068822,-1.236253,-0.450774,-0.181936,0.263509,-0.220942,-0.056963,-0.032321,-1.136769,0.438100,-0.082324,1.588136,-0.012215,1.073683,-0.230321,0.084768,0.029981,-0.168223
-0.108357,0.166835,-0.218745,0.319186,0.152438,0.278182,0.136264,-0.286216,0.256090,0.780300,0.207070,-1.045674,-1.239623,-0.455677,-0.189134,0.277410,-0.211645,-0.056963,-0.033584,-1.139557,0.466881,-0.098091,1.594161,0.001535,1.084442,-0.232452,0.131965,0.089626,-0.217521
-0.107462,0.162342,-0.218253,0.317404,0.149178,0.277254,0.137594,-0.284205,0.257328,0.782965,0.217787,-1.037049,-1.242560,-0.456275,-0.193660,0.283232,-0.214183,-0.054595,-0.032290,-1.134398,0.462075,-0.106794,1.596170,0.017644,1.097837,-0.231760,0.171531,0.130659,-0.270297
-0.106873,0.156141,-0.216465,0.311705,0.142782,0.278615,0.140062,-0.282378,0.255872,0.781286,0.227754,-1.035687,-1.245282,-0.454720,-0.196850,0.285013,-0.222639,-0.050121,-0.029717,-1.125266,0.440473,-0.111964,1.596768,0.034933,1.112550,-0.229250,0.207280,0.162383,-0.324812
-0.106873,0.147222,-0.210293,0.297766,0.129916,0.271635,0.145558,-0.280396,0.246097,0.768116,0.232718,-1.043961,-1.258047,-0.448932,-0.196850,0.283590,-0.231906,-0.045970,-0.026715,-1.117712,0.430849,-0.107495,1.582996,0.047576,1.133530,-0.229250,0.213773,0.178982,-0.358021
-0.106228,0.137388,-0.203033,0.281705,0.115269,0.261178,0.151961,-0.278368,0.234636,0.751555,0.236519,-1.054396,-1.274909,-0.441207,-0.196943,0.282642,-0.239871,-0.041482,-0.023567,-1.111979,0.430867,-0.102750,1.558928,0.058370,1.150367,-0.229296,0.216977,0.192778,-0.385402
-0.106228,0.125725,-0.193595,0.261396,0.097057,0.243766,0.160175,-0.276247,0.219802,0.728214,0.237995,-1.069156,-1.299968,-0.429605,-0.195222,0.282642,-0.245232,-0.036321,-0.020130,-1.109887,0.450166,-0.097454,1.514268,0.065467,1.158916,-0.230654,0.213604,0.200967,-0.401127
-0.104786,0.110044,-0.183352,0.235916,0.074210,0.226019,0.170355,-0.273998,0.203626,0.695017,0.240459,-1.089423,-1.324123,-0.412136,-0.192642,0.281481,-0.255646,-0.028777,-0.014500,-1.108587,0.476474,-0.092653,1.445358,0.075063,1.152935,-0.233432,0.205365,0.210968,-0.417560
-0.103109,0.092353,-0.172706,0.207851,0.049046,0.208105,0.181519,-0.271687,0.186780,0.656893,0.243417,-1.112444,-1.347827,-0.391734,-0.189634,0.279344,-0.268588,-0.020043,-0.007774,-1.108587,0.506288,-0.088100,1.364324,0.085908,1.139687,-0.236920,0.194693,0.221873,-0.434346
-0.102556,0.072125,-0.164162,0.180327,0.024219,0.189045,0.191965,-0.268876,0.168455,0.617148,0.248437,-1.133011,-1.377375,-0.371341,-0.188219,0.282476,-0.278743,-0.012272,-0.002186,-1.109523,0.536236,-0.088254,1.270570,0.095991,1.099288,-0.239993,0.173062,0.231427,-0.435110
-0.102485,0.051162,-0.156334,0.153665,0.000294,0.169999,0.201252,-0.266140,0.150257,0.577881,0.254528,-1.152663,-1.408466,-0.350946,-0.187276,0.288371,-0.288887,-0.004762,0.002966,-1.111545,0.569243,-0.090250,1.172327,0.106927,1.050315,-0.242622,0.149658,0.240675,-0.431211
-0.103926,0.028730,-0.149935,0.128726,-0.021826,0.150983,0.208219,-0.263551,0.132315,0.539572,0.262762,-1.170486,-1.442640,-0.330546,-0.187276,0.299791,-0.299007,0.002227,0.007245,-1.114538,0.608365,-0.095771,1.065111,0.119572,0.984195,-0.244362,0.122708,0.249308,-0.417224
-0.106509,0.006190,-0.145744,0.106361,-0.041757,0.131467,0.212699,-0.261903,0.115218,0.504355,0.273402,-1.187635,-1.477589,-0.311162,-0.189246,0.315550,-0.313197,0.007967,0.010692,-1.119471,0.657809,-0.102910,0.951676,0.137262,0.893973,-0.245022,0.091279,0.260127,-0.396518
-0.109661,-0.016402,-0.143428,0.085285,-0.060592,0.111702,0.216153,-0.260725,0.098545,0.470689,0.285243,-1.204445,-1.512921,-0.292287,-0.191737,0.333477,-0.329423,0.013082,0.013722,-1.125373,0.712410,-0.110857,0.835140,0.157474,0.791707,-0.244256,0.057612,0.272038,-0.372453
-0.113212,-0.036056,-0.143428,0.068027,-0.076763,0.090468,0.216153,-0.262236,0.083222,0.443048,0.298625,-1.217719,-1.553219,-0.276316,-0.196387,0.352434,-0.348518,0.016759,0.015961,-1.131165,0.776192,-0.117761,0.721486,0.180860,0.675968,-0.244256,0.016348,0.285381,-0.352943
-0.116471,-0.054232,-0.145002,0.051676,-0.092407,0.070600,0.215833,-0.264618,0.068581,0.417183,0.311978,-1.229951,-1.593295,-0.261227,-0.201419,0.370285,-0.364964,0.020120,0.018281,-1.136565,0.837910,-0.124021,0.608937,0.202926,0.569195,-0.242698,-0.022204,0.298212,-0.336183
-0.119145,-0.069451,-0.147415,0.037141,-0.106995,0.053472,0.214220,-0.268744,0.055307,0.394875,0.325271,-1.240095,-1.632922,-0.247906,-0.207214,0.385920,-0.376110,0.022847,0.020764,-1.141182,0.895488,-0.128989,0.498613,0.222350,0.480369,-0.242698,-0.055327,0.310015,-0.324926
-0.119078,-0.080277,-0.150044,0.023229,-0.121295,0.038146,0.211019,-0.274478,0.045586,0.374291,0.338740,-1.248414,-1.665818,-0.235962,-0.213954,0.398789,-0.378967,0.025472,0.023308,-1.145875,0.944385,-0.133729,0.387554,0.239352,0.413190,-0.241732,-0.077691,0.321086,-0.309569
-0.117640,-0.088907,-0.152781,0.009630,-0.135450,0.023722,0.207025,-0.281016,0.037642,0.354569,0.352295,-1.255821,-1.695348,-0.224705,-0.221167,0.410275,-0.378108,0.028047,0.025882,-1.150607,0.988939,-0.138354,0.276131,0.255141,0.356837,-0.241966,-0.094675,0.331790,-0.292162
-0.110691,-0.091190,-0.152781,-0.004072,-0.150077,0.010407,0.201272,-0.288764,0.033965,0.335424,0.366833,-1.260259,-1.712804,-0.214017,-0.230150,0.418466,-0.365048,0.029868,0.028468,-1.161788,1.033639,-0.143352,0.176325,0.270251,0.324539,-0.241966,-0.098660,0.342336,-0.264994
-0.101856,-0.092233,-0.152713,-0.018260,-0.165331,-0.003941,0.194909,-0.296372,0.032198,0.315950,0.382847,-1.263218,-1.727842,-0.203331,-0.240001,0.427122,-0.348575,0.032079,0.031244,-1.177197,1.081596,-0.146574,0.082042,0.285534,0.296303,-0.243890,-0.100431,0.354190,-0.235565
-0.089250,-0.090795,-0.152713,-0.033421,-0.181836,-0.020354,0.187328,-0.303699,0.032198,0.295822,0.401812,-1.263218,-1.738038,-0.192652,-0.251591,0.436709,-0.325278,0.032079,0.034399,-1.201059,1.136063,-0.146574,-0.001182,0.301162,0.276195,-0.248199,-0.097772,0.368657,-0.201617
-0.075284,-0.087995,-0.153422,-0.048536,-0.198853,-0.039803,0.179384,-0.310459,0.034712,0.277555,0.422555,-1.260258,-1.745817,-0.183308,-0.263863,0.447706,-0.297570,0.034002,0.037501,-1.233919,1.200291,-0.140722,-0.066826,0.314430,0.260821,-0.256977,-0.093908,0.384019,-0.171973
-0.060637,-0.084514,-0.153617,-0.063630,-0.216125,-0.060770,0.171260,-0.316935,0.037458,0.260218,0.444186,-1.255406,-1.752387,-0.174633,-0.276478,0.459408,-0.267655,0.036143,0.040576,-1.271281,1.269401,-0.132110,-0.123683,0.326517,0.247814,-0.267989,-0.089441,0.399828,-0.144480
-0.045750,-0.079795,-0.151235,-0.078522,-0.233868,-0.086723,0.162914,-0.322409,0.043329,0.246674,0.467005,-1.242837,-1.750902,-0.167907,-0.289677,0.473606,-0.239599,0.036143,0.043353,-1.306615,1.343444,-0.114348,-0.157544,0.340549,0.240482,-0.278065,-0.085680,0.415914,-0.127037
-0.030294,-0.074390,-0.148206,-0.093299,-0.251764,-0.120163,0.154058,-0.327997,0.050467,0.233877,0.490638,-1.226796,-1.743495,-0.161418,-0.303671,0.490154,-0.216060,0.035926,0.045645,-1.340544,1.394246,-0.092674,-0.184281,0.356934,0.234350,-0.287193,-0.082019,0.431802,-0.112109
-0.013704,-0.067612,-0.143881,-0.107845,-0.269963,-0.168573,0.144179,-0.333813,0.060141,0.222575,0.515894,-1.203814,-1.724245,-0.155405,-0.319253,0.511399,-0.201560,0.035926,0.046966,-1.371657,1.398561,-0.063182,-0.196766,0.378020,0.230617,-0.294425,-0.078557,0.447293,-0.102216
0.005842,-0.059964,-0.133318,-0.125896,-0.293037,-0.205091,0.134341,-0.339204,0.073820,0.210063,0.545231,-1.178223,-1.692383,-0.149370,-0.336962,0.531820,-0.197989,0.034183,0.049105,-1.389217,1.400000,-0.031130,-0.194737,0.404623,0.226458,-0.302821,-0.076136,0.462369,-0.096479
0.026866,-0.051880,-0.119636,-0.145701,-0.318547,-0.235664,0.124524,-0.344382,0.089501,0.196946,0.576607,-1.151327,-1.654214,-0.143324,-0.355736,0.551829,-0.199882,0.034183,0.051652,-1.400000,1.400000,0.002203,-0.185451,0.433983,0.222085,-0.311800,-0.074235,0.477237,-0.092819
